; generated by Slic3r 0.9.10b on 2014-05-05 at 22:16:00

; layer_height = 0.1
; perimeters = 3
; top_solid_layers = 3
; bottom_solid_layers = 3
; fill_density = 0.25
; perimeter_speed = 70
; infill_speed = 65
; travel_speed = 120
; nozzle_diameter = 0.35
; filament_diameter = 1.77
; extrusion_multiplier = 0.95
; perimeters extrusion width = 0.14mm
; infill extrusion width = 0.12mm
; solid infill extrusion width = 0.14mm
; top infill extrusion width = 0.14mm

G21 ; set units to millimeters
M107
M190 S60 ; wait for bed temperature to be reached
M104 S180 ; set temperature
G28;
M109 S180 ; wait for temperature to be reached
G90 ; use absolute coordinates
G92 E0
M82 ; use absolute distances for extrusion
G1 F1800.000 E-1.00000
G92 E0
G1 Z0.250 F7200.000
G1 X67.750 Y68.170
G1 F1800.000 E1.20000
G1 X68.170 Y67.750 F2520.000 E1.21061
G1 X68.750 Y67.590 E1.22136
G1 X81.250 Y67.590 E1.44465
G1 X81.830 Y67.750 E1.45539
G1 X82.250 Y68.170 E1.46600
G1 X82.410 Y68.750 E1.47675
G1 X82.410 Y81.250 E1.70004
G1 X82.250 Y81.830 E1.71079
G1 X81.830 Y82.250 E1.72140
G1 X81.250 Y82.410 E1.73214
G1 X68.750 Y82.410 E1.95543
G1 X68.170 Y82.250 E1.96618
G1 X67.750 Y81.830 E1.97679
G1 X67.590 Y81.250 E1.98754
G1 X67.590 Y68.750 E2.21082
G1 X67.743 Y68.197 E2.22108
G1 X67.910 Y68.260 F7200.000
G1 X68.260 Y67.910 F2520.000 E2.22992
G1 X68.750 Y67.770 E2.23902
G1 X81.250 Y67.770 E2.46231
G1 X81.740 Y67.910 E2.47141
G1 X82.090 Y68.260 E2.48025
G1 X82.230 Y68.750 E2.48936
G1 X82.230 Y81.250 E2.71264
G1 X82.090 Y81.740 E2.72175
G1 X81.740 Y82.090 E2.73059
G1 X81.250 Y82.230 E2.73969
G1 X68.750 Y82.230 E2.96298
G1 X68.260 Y82.090 E2.97208
G1 X67.910 Y81.740 E2.98092
G1 X67.770 Y81.250 E2.99003
G1 X67.770 Y68.750 E3.21332
G1 X67.902 Y68.286 E3.22192
G1 X68.190 Y68.190 F7200.000
G1 X68.750 Y67.960 F2520.000 E3.23274
G1 X81.250 Y67.960 E3.45602
G1 X81.810 Y68.190 E3.46684
G1 X82.040 Y68.750 E3.47765
G1 X82.040 Y81.250 E3.70094
G1 X81.810 Y81.810 E3.71175
G1 X81.250 Y82.040 E3.72257
G1 X68.750 Y82.040 E3.94586
G1 X68.190 Y81.810 E3.95667
G1 X67.960 Y81.250 E3.96748
G1 X67.960 Y68.750 E4.19077
G1 X68.179 Y68.215 E4.20109
G1 X68.320 Y68.320 F7200.000
G1 X68.750 Y68.140 F2520.000 E4.20942
G1 X81.250 Y68.140 E4.43270
G1 X81.680 Y68.320 E4.44103
G1 X81.860 Y68.750 E4.44936
G1 X81.860 Y81.250 E4.67265
G1 X81.680 Y81.680 E4.68097
G1 X81.250 Y81.860 E4.68930
G1 X68.750 Y81.860 E4.91259
G1 X68.320 Y81.680 E4.92091
G1 X68.140 Y81.250 E4.92924
G1 X68.140 Y68.750 E5.15253
G1 X68.309 Y68.345 E5.16036
G1 X68.316 Y68.530 F7200.000
G1 X68.530 Y68.315 F2520.000 E5.16578
G1 X68.598 Y68.287 E5.16710
G1 X81.402 Y68.287 E5.39581
G1 X81.470 Y68.315 E5.39712
G1 X81.684 Y68.530 E5.40255
G1 X81.713 Y68.598 E5.40386
G1 X81.713 Y81.402 E5.63258
G1 X81.684 Y81.470 E5.63390
G1 X81.470 Y81.685 E5.63932
G1 X81.402 Y81.713 E5.64064
G1 X68.598 Y81.713 E5.86935
G1 X68.530 Y81.685 E5.87066
G1 X68.316 Y81.470 E5.87609
G1 X68.287 Y81.402 E5.87740
G1 X68.287 Y68.598 E6.10612
G1 X68.305 Y68.556 E6.10694
G1 X68.501 Y68.607 F7200.000
G1 X68.607 Y68.500 F2520.000 E6.10962
G1 X68.675 Y68.472 E6.11094
G1 X81.325 Y68.472 E6.33691
G1 X81.393 Y68.500 E6.33823
G1 X81.499 Y68.607 E6.34091
G1 X81.528 Y68.675 E6.34223
G1 X81.528 Y81.325 E6.56821
G1 X81.499 Y81.393 E6.56952
G1 X81.393 Y81.500 E6.57221
G1 X81.325 Y81.528 E6.57352
G1 X68.675 Y81.528 E6.79949
G1 X68.607 Y81.500 E6.80081
G1 X68.501 Y81.393 E6.80349
G1 X68.472 Y81.325 E6.80481
G1 X68.472 Y68.675 E7.03079
G1 X68.490 Y68.632 E7.03161
G1 X68.657 Y68.766 F7200.000
G1 X68.766 Y68.657 F2520.000 E7.03435
G1 X81.234 Y68.657 E7.25707
G1 X81.343 Y68.766 E7.25981
G1 X81.343 Y81.234 E7.48254
G1 X81.234 Y81.343 E7.48527
G1 X68.766 Y81.343 E7.70800
G1 X68.657 Y81.234 E7.71073
G1 X68.657 Y68.793 E7.93297
G1 X68.843 Y68.842 F7200.000
G1 X81.157 Y68.842 F2160.000 E8.15295
G1 X81.157 Y81.158 E8.37294
G1 X68.843 Y81.158 E8.59292
G1 X68.843 Y68.870 E8.81242
G1 X69.003 Y68.935 F7200.000
G1 X80.972 Y80.973
G1 X69.028 Y80.973 F2520.000 E9.02579
G1 X69.028 Y69.027 E9.23917
G1 X80.972 Y69.027 E9.45254
G1 X80.972 Y80.945 E9.66542
G1 X80.787 Y80.788 F7200.000
G1 X69.213 Y80.788 F2520.000 E9.87218
G1 X69.213 Y69.212 E10.07894
G1 X80.787 Y69.212 E10.28570
G1 X80.787 Y80.760 E10.49197
G1 X80.653 Y69.523 F7200.000
G1 X80.477 Y69.346 F2340.000 E10.49643
G1 X80.215 Y69.346 E10.50111
G1 X80.653 Y69.785 E10.51219
G1 X80.653 Y70.047 E10.51687
G1 X79.953 Y69.346 E10.53456
G1 X79.691 Y69.346 E10.53925
G1 X80.653 Y70.308 E10.56356
G1 X80.653 Y70.570 E10.56824
G1 X79.429 Y69.346 E10.59918
G1 X79.168 Y69.346 E10.60386
G1 X80.653 Y70.832 E10.64142
G1 X80.653 Y71.094 E10.64610
G1 X78.906 Y69.346 E10.69028
G1 X78.644 Y69.346 E10.69496
G1 X80.653 Y71.356 E10.74576
G1 X80.653 Y71.618 E10.75044
G1 X78.382 Y69.346 E10.80786
G1 X78.120 Y69.346 E10.81254
G1 X80.653 Y71.880 E10.87658
G1 X80.653 Y72.142 E10.88126
G1 X77.858 Y69.346 E10.95192
G1 X77.596 Y69.346 E10.95660
G1 X80.653 Y72.404 E11.03388
G1 X80.653 Y72.665 E11.03857
G1 X77.334 Y69.346 E11.12247
G1 X77.072 Y69.346 E11.12715
G1 X80.653 Y72.927 E11.21767
G1 X80.653 Y73.189 E11.22235
G1 X76.810 Y69.346 E11.31949
G1 X76.549 Y69.346 E11.32417
G1 X80.653 Y73.451 E11.42794
G1 X80.653 Y73.713 E11.43262
G1 X76.287 Y69.346 E11.54300
G1 X76.025 Y69.346 E11.54768
G1 X80.653 Y73.975 E11.66469
G1 X80.653 Y74.237 E11.66937
G1 X75.763 Y69.346 E11.79299
G1 X75.501 Y69.346 E11.79767
G1 X80.653 Y74.499 E11.92792
G1 X80.653 Y74.761 E11.93260
G1 X75.239 Y69.346 E12.06946
G1 X74.977 Y69.346 E12.07414
G1 X80.653 Y75.023 E12.21763
G1 X80.653 Y75.284 E12.22231
G1 X74.715 Y69.346 E12.37242
G1 X74.453 Y69.346 E12.37710
G1 X80.653 Y75.546 E12.53382
G1 X80.653 Y75.808 E12.53851
G1 X74.191 Y69.346 E12.70185
G1 X73.930 Y69.346 E12.70653
G1 X80.653 Y76.070 E12.87650
G1 X80.653 Y76.332 E12.88118
G1 X73.668 Y69.346 E13.05777
G1 X73.406 Y69.346 E13.06245
G1 X80.653 Y76.594 E13.24566
G1 X80.653 Y76.856 E13.25034
G1 X73.144 Y69.346 E13.44017
G1 X72.882 Y69.346 E13.44485
G1 X80.653 Y77.118 E13.64130
G1 X80.653 Y77.380 E13.64598
G1 X72.620 Y69.346 E13.84905
G1 X72.358 Y69.346 E13.85373
G1 X80.653 Y77.642 E14.06342
G1 X80.653 Y77.903 E14.06810
G1 X72.096 Y69.346 E14.28441
G1 X71.834 Y69.346 E14.28909
G1 X80.653 Y78.165 E14.51202
G1 X80.653 Y78.427 E14.51671
G1 X71.573 Y69.346 E14.74626
G1 X71.311 Y69.346 E14.75094
G1 X80.653 Y78.689 E14.98711
G1 X80.653 Y78.951 E14.99179
G1 X71.049 Y69.346 E15.23458
G1 X70.787 Y69.346 E15.23927
G1 X80.653 Y79.213 E15.48868
G1 X80.653 Y79.475 E15.49336
G1 X70.525 Y69.346 E15.74939
G1 X70.263 Y69.346 E15.75407
G1 X80.653 Y79.737 E16.01673
G1 X80.653 Y79.999 E16.02141
G1 X70.001 Y69.346 E16.29068
G1 X69.739 Y69.346 E16.29536
G1 X80.653 Y80.260 E16.57126
G1 X80.653 Y80.522 E16.57594
G1 X69.477 Y69.346 E16.85846
G1 X69.347 Y69.478 E16.86177
G1 X80.523 Y80.654 E17.14428
G1 X80.261 Y80.654 E17.14896
G1 X69.347 Y69.740 E17.42485
G1 X69.347 Y70.002 E17.42953
G1 X79.999 Y80.654 E17.69880
G1 X79.737 Y80.654 E17.70348
G1 X69.347 Y70.263 E17.96613
G1 X69.347 Y70.525 E17.97082
G1 X79.475 Y80.654 E18.22685
G1 X79.213 Y80.654 E18.23153
G1 X69.347 Y70.787 E18.48094
G1 X69.347 Y71.049 E18.48562
G1 X78.951 Y80.654 E18.72841
G1 X78.689 Y80.654 E18.73309
G1 X69.347 Y71.311 E18.96926
G1 X69.347 Y71.573 E18.97394
G1 X78.427 Y80.654 E19.20349
G1 X78.165 Y80.654 E19.20817
G1 X69.347 Y71.835 E19.43109
G1 X69.347 Y72.097 E19.43578
G1 X77.904 Y80.654 E19.65208
G1 X77.642 Y80.654 E19.65676
G1 X69.347 Y72.359 E19.86645
G1 X69.347 Y72.620 E19.87113
G1 X77.380 Y80.654 E20.07420
G1 X77.118 Y80.654 E20.07888
G1 X69.347 Y72.882 E20.27533
G1 X69.347 Y73.144 E20.28001
G1 X76.856 Y80.654 E20.46983
G1 X76.594 Y80.654 E20.47451
G1 X69.347 Y73.406 E20.65772
G1 X69.347 Y73.668 E20.66240
G1 X76.332 Y80.654 E20.83898
G1 X76.070 Y80.654 E20.84366
G1 X69.347 Y73.930 E21.01363
G1 X69.347 Y74.192 E21.01831
G1 X75.808 Y80.654 E21.18165
G1 X75.546 Y80.654 E21.18633
G1 X69.347 Y74.454 E21.34306
G1 X69.347 Y74.716 E21.34774
G1 X75.285 Y80.654 E21.49784
G1 X75.023 Y80.654 E21.50252
G1 X69.347 Y74.978 E21.64600
G1 X69.347 Y75.239 E21.65069
G1 X74.761 Y80.654 E21.78755
G1 X74.499 Y80.654 E21.79223
G1 X69.347 Y75.501 E21.92247
G1 X69.347 Y75.763 E21.92715
G1 X74.237 Y80.654 E22.05077
G1 X73.975 Y80.654 E22.05545
G1 X69.347 Y76.025 E22.17245
G1 X69.347 Y76.287 E22.17713
G1 X73.713 Y80.654 E22.28751
G1 X73.451 Y80.654 E22.29219
G1 X69.347 Y76.549 E22.39595
G1 X69.347 Y76.811 E22.40064
G1 X73.189 Y80.654 E22.49777
G1 X72.927 Y80.654 E22.50245
G1 X69.347 Y77.073 E22.59297
G1 X69.347 Y77.335 E22.59765
G1 X72.666 Y80.654 E22.68155
G1 X72.404 Y80.654 E22.68623
G1 X69.347 Y77.597 E22.76351
G1 X69.347 Y77.858 E22.76819
G1 X72.142 Y80.654 E22.83885
G1 X71.880 Y80.654 E22.84353
G1 X69.347 Y78.120 E22.90757
G1 X69.347 Y78.382 E22.91225
G1 X71.618 Y80.654 E22.96966
G1 X71.356 Y80.654 E22.97434
G1 X69.347 Y78.644 E23.02514
G1 X69.347 Y78.906 E23.02982
G1 X71.094 Y80.654 E23.07400
G1 X70.832 Y80.654 E23.07868
G1 X69.347 Y79.168 E23.11623
G1 X69.347 Y79.430 E23.12091
G1 X70.570 Y80.654 E23.15185
G1 X70.309 Y80.654 E23.15653
G1 X69.347 Y79.692 E23.18084
G1 X69.347 Y79.954 E23.18552
G1 X70.047 Y80.654 E23.20322
G1 X69.785 Y80.654 E23.20790
G1 X69.347 Y80.216 E23.21897
G1 X69.347 Y80.477 E23.22365
G1 X69.523 Y80.654 E23.22810
M106 S234
G1 F1800.000 E22.22810
G92 E0
G1 Z0.350 F7200.000
G1 X68.750 Y82.410
G1 F1800.000 E1.20000
G1 X68.170 Y82.250 F4200.000 E1.20430
G1 X67.750 Y81.830 E1.20854
G1 X67.590 Y81.250 E1.21284
G1 X67.590 Y68.750 E1.30216
G1 X67.750 Y68.170 E1.30646
G1 X68.170 Y67.750 E1.31070
G1 X68.750 Y67.590 E1.31500
G1 X81.250 Y67.590 E1.40431
G1 X81.830 Y67.750 E1.40861
G1 X82.250 Y68.170 E1.41286
G1 X82.410 Y68.750 E1.41716
G1 X82.410 Y81.250 E1.50647
G1 X82.250 Y81.830 E1.51077
G1 X81.830 Y82.250 E1.51501
G1 X81.250 Y82.410 E1.51931
G1 X68.778 Y82.410 E1.60843
G1 X68.750 Y82.230 F7200.000
G1 X68.260 Y82.090 F4200.000 E1.61207
G1 X67.910 Y81.740 E1.61561
G1 X67.770 Y81.250 E1.61925
G1 X67.770 Y68.750 E1.70856
G1 X67.910 Y68.260 E1.71221
G1 X68.260 Y67.910 E1.71574
G1 X68.750 Y67.770 E1.71938
G1 X81.250 Y67.770 E1.80870
G1 X81.740 Y67.910 E1.81234
G1 X82.090 Y68.260 E1.81588
G1 X82.230 Y68.750 E1.81952
G1 X82.230 Y81.250 E1.90883
G1 X82.090 Y81.740 E1.91247
G1 X81.740 Y82.090 E1.91601
G1 X81.250 Y82.230 E1.91965
G1 X68.778 Y82.230 E2.00877
G1 X68.750 Y82.040 F7200.000
G1 X68.190 Y81.810 F4200.000 E2.01309
G1 X67.960 Y81.250 E2.01742
G1 X67.960 Y68.750 E2.10674
G1 X68.190 Y68.190 E2.11106
G1 X68.750 Y67.960 E2.11539
G1 X81.250 Y67.960 E2.20470
G1 X81.810 Y68.190 E2.20903
G1 X82.040 Y68.750 E2.21335
G1 X82.040 Y81.250 E2.30267
G1 X81.810 Y81.810 E2.30699
G1 X81.250 Y82.040 E2.31132
G1 X68.778 Y82.040 E2.40044
G1 X68.750 Y81.860 F7200.000
G1 X68.320 Y81.680 F4200.000 E2.40377
G1 X68.140 Y81.250 E2.40710
G1 X68.140 Y68.750 E2.49641
G1 X68.320 Y68.320 E2.49974
G1 X68.750 Y68.140 E2.50307
G1 X81.250 Y68.140 E2.59239
G1 X81.680 Y68.320 E2.59572
G1 X81.860 Y68.750 E2.59905
G1 X81.860 Y81.250 E2.68837
G1 X81.680 Y81.680 E2.69170
G1 X81.250 Y81.860 E2.69503
G1 X68.778 Y81.860 E2.78414
G1 X69.213 Y80.788 F7200.000
G1 X69.213 Y69.212 F4200.000 E2.86685
G1 X80.787 Y69.212 E2.94955
G1 X80.787 Y80.788 E3.03226
G1 X69.240 Y80.788 E3.11477
G1 X80.972 Y80.973 F7200.000
G1 X69.028 Y80.973 F4200.000 E3.20011
G1 X69.028 Y69.027 E3.28547
G1 X80.972 Y69.027 E3.37081
G1 X80.972 Y80.945 E3.45597
G1 X81.157 Y81.158 F7200.000
G1 X68.843 Y81.158 F3600.000 E3.54396
G1 X68.843 Y68.842 E3.63196
G1 X81.157 Y68.842 E3.71995
G1 X81.157 Y81.130 E3.80775
G1 X80.997 Y81.065 F7200.000
G1 X80.653 Y80.417
G1 X80.417 Y80.654 F3900.000 E3.81014
G1 X80.155 Y80.654 E3.81201
G1 X80.653 Y80.155 E3.81705
G1 X80.653 Y79.893 E3.81892
G1 X79.893 Y80.654 E3.82661
G1 X79.631 Y80.654 E3.82848
G1 X80.653 Y79.631 E3.83881
G1 X80.653 Y79.370 E3.84069
G1 X79.369 Y80.654 E3.85367
G1 X79.107 Y80.654 E3.85554
G1 X80.653 Y79.108 E3.87117
G1 X80.653 Y78.846 E3.87305
G1 X78.846 Y80.654 E3.89133
G1 X78.584 Y80.654 E3.89320
G1 X80.653 Y78.584 E3.91413
G1 X80.653 Y78.322 E3.91600
G1 X78.322 Y80.654 E3.93957
G1 X78.060 Y80.654 E3.94145
G1 X80.653 Y78.060 E3.96767
G1 X80.653 Y77.798 E3.96954
G1 X77.798 Y80.654 E3.99842
G1 X77.536 Y80.654 E4.00029
G1 X80.653 Y77.536 E4.03181
G1 X80.653 Y77.274 E4.03368
G1 X77.274 Y80.654 E4.06785
G1 X77.012 Y80.654 E4.06972
G1 X80.653 Y77.012 E4.10654
G1 X80.653 Y76.751 E4.10841
G1 X76.750 Y80.654 E4.14788
G1 X76.488 Y80.654 E4.14975
G1 X80.653 Y76.489 E4.19186
G1 X80.653 Y76.227 E4.19373
G1 X76.227 Y80.654 E4.23850
G1 X75.965 Y80.654 E4.24037
G1 X80.653 Y75.965 E4.28778
G1 X80.653 Y75.703 E4.28965
G1 X75.703 Y80.654 E4.33971
G1 X75.441 Y80.654 E4.34158
G1 X80.653 Y75.441 E4.39429
G1 X80.653 Y75.179 E4.39616
G1 X75.179 Y80.654 E4.45151
G1 X74.917 Y80.654 E4.45338
G1 X80.653 Y74.917 E4.51139
G1 X80.653 Y74.655 E4.51326
G1 X74.655 Y80.654 E4.57391
G1 X74.393 Y80.654 E4.57578
G1 X80.653 Y74.394 E4.63908
G1 X80.653 Y74.132 E4.64095
G1 X74.131 Y80.654 E4.70690
G1 X73.869 Y80.654 E4.70877
G1 X80.653 Y73.870 E4.77737
G1 X80.653 Y73.608 E4.77924
G1 X73.608 Y80.654 E4.85048
G1 X73.346 Y80.654 E4.85236
G1 X80.653 Y73.346 E4.92625
G1 X80.653 Y73.084 E4.92812
G1 X73.084 Y80.654 E5.00466
G1 X72.822 Y80.654 E5.00653
G1 X80.653 Y72.822 E5.08572
G1 X80.653 Y72.560 E5.08759
G1 X72.560 Y80.654 E5.16943
G1 X72.298 Y80.654 E5.17130
G1 X80.653 Y72.298 E5.25578
G1 X80.653 Y72.036 E5.25766
G1 X72.036 Y80.654 E5.34479
G1 X71.774 Y80.654 E5.34666
G1 X80.653 Y71.775 E5.43644
G1 X80.653 Y71.513 E5.43831
G1 X71.512 Y80.654 E5.53074
G1 X71.250 Y80.654 E5.53262
G1 X80.653 Y71.251 E5.62769
G1 X80.653 Y70.989 E5.62957
G1 X70.989 Y80.654 E5.72729
G1 X70.727 Y80.654 E5.72916
G1 X80.653 Y70.727 E5.82954
G1 X80.653 Y70.465 E5.83141
G1 X70.465 Y80.654 E5.93443
G1 X70.203 Y80.654 E5.93630
G1 X80.653 Y70.203 E6.04197
G1 X80.653 Y69.941 E6.04384
G1 X69.941 Y80.654 E6.15216
G1 X69.679 Y80.654 E6.15403
G1 X80.653 Y69.679 E6.26500
G1 X80.653 Y69.417 E6.26687
G1 X69.417 Y80.654 E6.38049
G1 X69.347 Y80.462 E6.38195
G1 X80.462 Y69.346 E6.49434
G1 X80.200 Y69.346 E6.49622
G1 X69.347 Y80.200 E6.60596
G1 X69.347 Y79.938 E6.60784
G1 X79.939 Y69.346 E6.71494
G1 X79.677 Y69.346 E6.71681
G1 X69.347 Y79.676 E6.82126
G1 X69.347 Y79.415 E6.82313
G1 X79.415 Y69.346 E6.92494
G1 X79.153 Y69.346 E6.92681
G1 X69.347 Y79.153 E7.02597
G1 X69.347 Y78.891 E7.02784
G1 X78.891 Y69.346 E7.12435
G1 X78.629 Y69.346 E7.12622
G1 X69.347 Y78.629 E7.22008
G1 X69.347 Y78.367 E7.22195
G1 X78.367 Y69.346 E7.31316
G1 X78.105 Y69.346 E7.31503
G1 X69.347 Y78.105 E7.40360
G1 X69.347 Y77.843 E7.40547
G1 X77.843 Y69.346 E7.49138
G1 X77.582 Y69.346 E7.49326
G1 X69.347 Y77.581 E7.57652
G1 X69.347 Y77.319 E7.57840
G1 X77.320 Y69.346 E7.65901
G1 X77.058 Y69.346 E7.66089
G1 X69.347 Y77.057 E7.73886
G1 X69.347 Y76.796 E7.74073
G1 X76.796 Y69.346 E7.81605
G1 X76.534 Y69.346 E7.81792
G1 X69.347 Y76.534 E7.89060
G1 X69.347 Y76.272 E7.89247
G1 X76.272 Y69.346 E7.96250
G1 X76.010 Y69.346 E7.96437
G1 X69.347 Y76.010 E8.03175
G1 X69.347 Y75.748 E8.03362
G1 X75.748 Y69.346 E8.09835
G1 X75.486 Y69.346 E8.10022
G1 X69.347 Y75.486 E8.16230
G1 X69.347 Y75.224 E8.16417
G1 X75.224 Y69.346 E8.22361
G1 X74.963 Y69.346 E8.22548
G1 X69.347 Y74.962 E8.28226
G1 X69.347 Y74.700 E8.28414
G1 X74.701 Y69.346 E8.33827
G1 X74.439 Y69.346 E8.34015
G1 X69.347 Y74.438 E8.39163
G1 X69.347 Y74.177 E8.39351
G1 X74.177 Y69.346 E8.44235
G1 X73.915 Y69.346 E8.44422
G1 X69.347 Y73.915 E8.49041
G1 X69.347 Y73.653 E8.49228
G1 X73.653 Y69.346 E8.53583
G1 X73.391 Y69.346 E8.53770
G1 X69.347 Y73.391 E8.57859
G1 X69.347 Y73.129 E8.58047
G1 X73.129 Y69.346 E8.61871
G1 X72.867 Y69.346 E8.62059
G1 X69.347 Y72.867 E8.65619
G1 X69.347 Y72.605 E8.65806
G1 X72.605 Y69.346 E8.69101
G1 X72.344 Y69.346 E8.69288
G1 X69.347 Y72.343 E8.72319
G1 X69.347 Y72.081 E8.72506
G1 X72.082 Y69.346 E8.75271
G1 X71.820 Y69.346 E8.75459
G1 X69.347 Y71.820 E8.77959
G1 X69.347 Y71.558 E8.78146
G1 X71.558 Y69.346 E8.80382
G1 X71.296 Y69.346 E8.80569
G1 X69.347 Y71.296 E8.82540
G1 X69.347 Y71.034 E8.82728
G1 X71.034 Y69.346 E8.84434
G1 X70.772 Y69.346 E8.84621
