; generated by Slic3r 0.9.10b on 2014-05-05 at 22:10:28

; layer_height = 0.22
; perimeters = 3
; top_solid_layers = 3
; bottom_solid_layers = 3
; fill_density = 1
; perimeter_speed = 70
; infill_speed = 65
; travel_speed = 120
; nozzle_diameter = 0.35
; filament_diameter = 1.77
; extrusion_multiplier = 0.95
; perimeters extrusion width = 0.26mm
; infill extrusion width = 0.26mm
; solid infill extrusion width = 0.26mm
; top infill extrusion width = 0.26mm

G21 ; set units to millimeters
M107
M190 S60 ; wait for bed temperature to be reached
M104 S180 ; set temperature
G28;
M109 S180 ; wait for temperature to be reached
G90 ; use absolute coordinates
G92 E0
M82 ; use absolute distances for extrusion
G1 F1800.000 E-1.00000
G92 E0
G1 Z0.250 F7200.000
G1 X67.410 Y67.410
G1 F1800.000 E1.20000
G1 X68.020 Y67.000 F2520.000 E1.21982
G1 X68.750 Y66.850 E1.23991
G1 X81.250 Y66.850 E1.57691
G1 X81.980 Y67.000 E1.59700
G1 X82.590 Y67.410 E1.61681
G1 X83.000 Y68.020 E1.63663
G1 X83.150 Y68.750 E1.65672
G1 X83.150 Y81.250 E1.99372
G1 X83.000 Y81.980 E2.01381
G1 X82.590 Y82.590 E2.03363
G1 X81.980 Y83.000 E2.05344
G1 X81.250 Y83.150 E2.07354
G1 X68.750 Y83.150 E2.41054
G1 X68.020 Y83.000 E2.43063
G1 X67.410 Y82.590 E2.45044
G1 X67.000 Y81.980 E2.47026
G1 X66.850 Y81.250 E2.49035
G1 X66.850 Y68.750 E2.82735
G1 X67.000 Y68.020 E2.84744
G1 X67.387 Y67.445 E2.86613
G1 X67.610 Y67.610 F7200.000
G1 X68.130 Y67.260 F2520.000 E2.88303
G1 X68.750 Y67.130 E2.90011
G1 X81.250 Y67.130 E3.23711
G1 X81.870 Y67.260 E3.25419
G1 X82.390 Y67.610 E3.27108
G1 X82.740 Y68.130 E3.28798
G1 X82.870 Y68.750 E3.30506
G1 X82.870 Y81.250 E3.64206
G1 X82.740 Y81.870 E3.65914
G1 X82.390 Y82.390 E3.67604
G1 X81.870 Y82.740 E3.69294
G1 X81.250 Y82.870 E3.71002
G1 X68.750 Y82.870 E4.04702
G1 X68.130 Y82.740 E4.06410
G1 X67.610 Y82.390 E4.08100
G1 X67.260 Y81.870 E4.09789
G1 X67.130 Y81.250 E4.11497
G1 X67.130 Y68.750 E4.45197
G1 X67.260 Y68.130 E4.46905
G1 X67.587 Y67.645 E4.48482
G1 X67.590 Y68.080 F7200.000
G1 X68.080 Y67.590 F2520.000 E4.50350
G1 X68.750 Y67.410 E4.52221
G1 X81.250 Y67.410 E4.85921
G1 X81.920 Y67.590 E4.87791
G1 X82.410 Y68.080 E4.89659
G1 X82.590 Y68.750 E4.91530
G1 X82.590 Y81.250 E5.25230
G1 X82.410 Y81.920 E5.27100
G1 X81.920 Y82.410 E5.28968
G1 X81.250 Y82.590 E5.30839
G1 X68.750 Y82.590 E5.64539
G1 X68.080 Y82.410 E5.66409
G1 X67.590 Y81.920 E5.68277
G1 X67.410 Y81.250 E5.70148
G1 X67.410 Y68.750 E6.03848
G1 X67.579 Y68.120 E6.05605
G1 X67.830 Y68.220 F7200.000
G1 X68.220 Y67.830 F2520.000 E6.07092
G1 X68.750 Y67.690 E6.08570
G1 X81.250 Y67.690 E6.42270
G1 X81.780 Y67.830 E6.43748
G1 X82.170 Y68.220 E6.45235
G1 X82.310 Y68.750 E6.46713
G1 X82.310 Y81.250 E6.80413
G1 X82.170 Y81.780 E6.81891
G1 X81.780 Y82.170 E6.83378
G1 X81.250 Y82.310 E6.84856
G1 X68.750 Y82.310 E7.18556
G1 X68.220 Y82.170 E7.20033
G1 X67.830 Y81.780 E7.21520
G1 X67.690 Y81.250 E7.22998
G1 X67.690 Y68.750 E7.56698
G1 X67.819 Y68.260 E7.58063
G1 X68.094 Y68.418 F7200.000
G1 X68.418 Y68.094 F2520.000 E7.59299
G1 X68.521 Y68.051 E7.59598
G1 X81.479 Y68.051 E7.94534
G1 X81.582 Y68.094 E7.94833
G1 X81.906 Y68.418 E7.96068
G1 X81.948 Y68.521 E7.96368
G1 X81.948 Y81.479 E8.31305
G1 X81.906 Y81.582 E8.31604
G1 X81.582 Y81.906 E8.32840
G1 X81.479 Y81.949 E8.33139
G1 X68.521 Y81.949 E8.68074
G1 X68.418 Y81.906 E8.68374
G1 X68.094 Y81.582 E8.69609
G1 X68.052 Y81.479 E8.69909
G1 X68.052 Y68.521 E9.04846
G1 X68.078 Y68.457 E9.05032
G1 X68.374 Y68.534 F7200.000
G1 X68.534 Y68.373 F2520.000 E9.05644
G1 X68.637 Y68.331 E9.05943
G1 X81.363 Y68.331 E9.40255
G1 X81.466 Y68.373 E9.40554
G1 X81.626 Y68.534 E9.41166
G1 X81.669 Y68.636 E9.41465
G1 X81.669 Y81.364 E9.75778
G1 X81.626 Y81.466 E9.76078
G1 X81.466 Y81.627 E9.76689
G1 X81.363 Y81.669 E9.76989
G1 X68.637 Y81.669 E10.11300
G1 X68.534 Y81.627 E10.11600
G1 X68.374 Y81.466 E10.12212
G1 X68.331 Y81.364 E10.12511
G1 X68.331 Y68.636 E10.46824
G1 X68.358 Y68.572 E10.47011
G1 X68.610 Y68.774 F7200.000
G1 X68.774 Y68.610 F2520.000 E10.47634
G1 X81.226 Y68.610 E10.81205
G1 X81.390 Y68.774 E10.81829
G1 X81.390 Y81.226 E11.15401
G1 X81.226 Y81.390 E11.16025
G1 X68.774 Y81.390 E11.49596
G1 X68.610 Y81.226 E11.50220
G1 X68.610 Y68.816 E11.83679
G1 X68.890 Y68.889 F7200.000
G1 X81.110 Y68.889 F2160.000 E12.16626
G1 X81.110 Y81.111 E12.49574
G1 X68.890 Y81.111 E12.82521
G1 X68.890 Y68.931 E13.15357
G1 X69.132 Y69.029 F7200.000
G1 X69.169 Y69.169
G1 X80.831 Y69.169 F2520.000 E13.46798
G1 X80.831 Y80.831 E13.78240
G1 X69.169 Y80.831 E14.09681
G1 X69.169 Y69.211 E14.41010
G1 X69.448 Y69.448 F7200.000
G1 X80.552 Y69.448 F2520.000 E14.70945
G1 X80.552 Y80.552 E15.00881
G1 X69.448 Y80.552 E15.30816
G1 X69.448 Y69.490 E15.60639
G1 X69.822 Y80.350 F7200.000
G1 X69.651 Y80.178 F2340.000 E15.61297
G1 X69.651 Y79.781 E15.62374
G1 X70.219 Y80.350 E15.64554
G1 X70.617 Y80.350 E15.65632
G1 X69.651 Y79.384 E15.69336
G1 X69.651 Y78.986 E15.70413
G1 X71.014 Y80.350 E15.75640
G1 X71.411 Y80.350 E15.76717
G1 X69.651 Y78.589 E15.83467
G1 X69.651 Y78.192 E15.84545
G1 X71.808 Y80.350 E15.92818
G1 X72.206 Y80.350 E15.93895
G1 X69.651 Y77.795 E16.03692
G1 X69.651 Y77.397 E16.04769
G1 X72.603 Y80.350 E16.16090
G1 X73.000 Y80.350 E16.17167
G1 X69.651 Y77.000 E16.30010
G1 X69.651 Y76.603 E16.31087
G1 X73.397 Y80.350 E16.45454
G1 X73.795 Y80.350 E16.46531
G1 X69.651 Y76.206 E16.62421
G1 X69.651 Y75.808 E16.63499
G1 X74.192 Y80.350 E16.80912
G1 X74.589 Y80.350 E16.81989
G1 X69.651 Y75.411 E17.00926
G1 X69.651 Y75.014 E17.02003
G1 X74.986 Y80.350 E17.22462
G1 X75.384 Y80.350 E17.23540
G1 X69.651 Y74.616 E17.45523
G1 X69.651 Y74.219 E17.46600
G1 X75.781 Y80.350 E17.70106
G1 X76.178 Y80.350 E17.71183
G1 X69.651 Y73.822 E17.96213
G1 X69.651 Y73.425 E17.97290
G1 X76.576 Y80.350 E18.23843
G1 X76.973 Y80.350 E18.24920
G1 X69.651 Y73.027 E18.52996
G1 X69.651 Y72.630 E18.54073
G1 X77.370 Y80.350 E18.83673
G1 X77.767 Y80.350 E18.84750
G1 X69.651 Y72.233 E19.15873
G1 X69.651 Y71.836 E19.16950
G1 X78.165 Y80.350 E19.49596
G1 X78.562 Y80.350 E19.50673
G1 X69.651 Y71.438 E19.84842
G1 X69.651 Y71.041 E19.85919
G1 X78.959 Y80.350 E20.21612
G1 X79.356 Y80.350 E20.22689
G1 X69.651 Y70.644 E20.59904
G1 X69.651 Y70.247 E20.60981
G1 X79.754 Y80.350 E20.99720
G1 X80.151 Y80.350 E21.00798
G1 X69.651 Y69.849 E21.41060
G1 X69.849 Y69.650 E21.41821
G1 X80.349 Y80.151 E21.82084
G1 X80.349 Y79.754 E21.83162
G1 X70.246 Y69.650 E22.21901
G1 X70.643 Y69.650 E22.22978
G1 X80.349 Y79.356 E22.60195
G1 X80.349 Y78.959 E22.61272
G1 X71.041 Y69.650 E22.96965
G1 X71.438 Y69.650 E22.98042
G1 X80.349 Y78.562 E23.32212
G1 X80.349 Y78.164 E23.33289
G1 X71.835 Y69.650 E23.65936
G1 X72.233 Y69.650 E23.67013
G1 X80.349 Y77.767 E23.98136
G1 X80.349 Y77.370 E23.99214
G1 X72.630 Y69.650 E24.28814
G1 X73.027 Y69.650 E24.29891
G1 X80.349 Y76.973 E24.57968
G1 X80.349 Y76.575 E24.59045
G1 X73.424 Y69.650 E24.85598
G1 X73.822 Y69.650 E24.86676
G1 X80.349 Y76.178 E25.11706
G1 X80.349 Y75.781 E25.12783
G1 X74.219 Y69.650 E25.36290
G1 X74.616 Y69.650 E25.37367
G1 X80.349 Y75.384 E25.59351
G1 X80.349 Y74.986 E25.60428
G1 X75.013 Y69.650 E25.80889
G1 X75.411 Y69.650 E25.81966
G1 X80.349 Y74.589 E26.00903
G1 X80.349 Y74.192 E26.01980
G1 X75.808 Y69.650 E26.19394
G1 X76.205 Y69.650 E26.20471
G1 X80.349 Y73.795 E26.36362
G1 X80.349 Y73.397 E26.37439
G1 X76.602 Y69.650 E26.51807
G1 X77.000 Y69.650 E26.52884
G1 X80.349 Y73.000 E26.65728
G1 X80.349 Y72.603 E26.66805
G1 X77.397 Y69.650 E26.78126
G1 X77.794 Y69.650 E26.79203
G1 X80.349 Y72.206 E26.89001
G1 X80.349 Y71.808 E26.90078
G1 X78.191 Y69.650 E26.98352
G1 X78.589 Y69.650 E26.99430
G1 X80.349 Y71.411 E27.06181
G1 X80.349 Y71.014 E27.07258
G1 X78.986 Y69.650 E27.12486
G1 X79.383 Y69.650 E27.13563
G1 X80.349 Y70.617 E27.17267
G1 X80.349 Y70.219 E27.18345
G1 X79.780 Y69.650 E27.20526
G1 X80.178 Y69.650 E27.21603
G1 X80.349 Y69.822 E27.22261
M106 S248
G1 F1800.000 E26.22261
G92 E0
G1 Z0.470 F7200.000
G1 X83.150 Y68.750
G1 F1800.000 E1.20000
G1 X83.150 Y81.250 F4200.000 E1.49656
G1 X83.000 Y81.980 E1.51424
G1 X82.590 Y82.590 E1.53168
G1 X81.980 Y83.000 E1.54912
G1 X81.250 Y83.150 E1.56680
G1 X68.750 Y83.150 E1.86336
G1 X68.020 Y83.000 E1.88104
G1 X67.410 Y82.590 E1.89848
G1 X67.000 Y81.980 E1.91591
G1 X66.850 Y81.250 E1.93359
G1 X66.850 Y68.750 E2.23015
G1 X67.000 Y68.020 E2.24783
G1 X67.410 Y67.410 E2.26527
G1 X68.020 Y67.000 E2.28271
G1 X68.750 Y66.850 E2.30039
G1 X81.250 Y66.850 E2.59695
G1 X81.980 Y67.000 E2.61463
G1 X82.590 Y67.410 E2.63207
G1 X83.000 Y68.020 E2.64951
G1 X83.142 Y68.709 E2.66619
G1 X82.870 Y68.750 F7200.000
G1 X82.870 Y81.250 F4200.000 E2.96275
G1 X82.740 Y81.870 E2.97778
G1 X82.390 Y82.390 E2.99265
G1 X81.870 Y82.740 E3.00752
G1 X81.250 Y82.870 E3.02255
G1 X68.750 Y82.870 E3.31911
G1 X68.130 Y82.740 E3.33414
G1 X67.610 Y82.390 E3.34901
G1 X67.260 Y81.870 E3.36389
G1 X67.130 Y81.250 E3.37891
G1 X67.130 Y68.750 E3.67548
G1 X67.260 Y68.130 E3.69050
G1 X67.610 Y67.610 E3.70538
G1 X68.130 Y67.260 E3.72025
G1 X68.750 Y67.130 E3.73528
G1 X81.250 Y67.130 E4.03184
G1 X81.870 Y67.260 E4.04687
G1 X82.390 Y67.610 E4.06174
G1 X82.740 Y68.130 E4.07661
G1 X82.861 Y68.709 E4.09064
G1 X82.590 Y68.750 F7200.000
G1 X82.590 Y81.250 F4200.000 E4.38720
G1 X82.410 Y81.920 E4.40366
G1 X81.920 Y82.410 E4.42010
G1 X81.250 Y82.590 E4.43656
G1 X68.750 Y82.590 E4.73312
G1 X68.080 Y82.410 E4.74958
G1 X67.590 Y81.920 E4.76602
G1 X67.410 Y81.250 E4.78248
G1 X67.410 Y68.750 E5.07904
G1 X67.590 Y68.080 E5.09550
G1 X68.080 Y67.590 E5.11194
G1 X68.750 Y67.410 E5.12840
G1 X81.250 Y67.410 E5.42496
G1 X81.920 Y67.590 E5.44142
G1 X82.410 Y68.080 E5.45786
G1 X82.579 Y68.709 E5.47333
G1 X82.310 Y68.750 F7200.000
G1 X82.310 Y81.250 F4200.000 E5.76989
G1 X82.170 Y81.780 E5.78289
G1 X81.780 Y82.170 E5.79598
G1 X81.250 Y82.310 E5.80898
G1 X68.750 Y82.310 E6.10554
G1 X68.220 Y82.170 E6.11855
G1 X67.830 Y81.780 E6.13163
G1 X67.690 Y81.250 E6.14464
G1 X67.690 Y68.750 E6.44120
G1 X67.830 Y68.220 E6.45420
G1 X68.220 Y67.830 E6.46729
G1 X68.750 Y67.690 E6.48029
G1 X81.250 Y67.690 E6.77685
G1 X81.780 Y67.830 E6.78986
G1 X82.170 Y68.220 E6.80295
G1 X82.299 Y68.709 E6.81496
G1 X80.552 Y69.448 F7200.000
G1 X80.552 Y80.552 F4200.000 E7.07840
G1 X69.448 Y80.552 E7.34182
G1 X69.448 Y69.448 E7.60526
G1 X80.510 Y69.448 E7.86769
G1 X69.169 Y69.169 F7200.000
G1 X80.831 Y69.169 F4200.000 E8.14437
G1 X80.831 Y80.831 E8.42107
G1 X69.169 Y80.831 E8.69775
G1 X69.169 Y69.211 E8.97344
G1 X68.890 Y68.889 F7200.000
G1 X81.110 Y68.889 F3600.000 E9.26338
G1 X81.110 Y81.111 E9.55332
G1 X68.890 Y81.111 E9.84326
G1 X68.890 Y68.931 E10.13221
G1 X69.132 Y69.029 F7200.000
G1 X69.836 Y69.650
G1 X69.651 Y69.835 F3900.000 E10.13845
G1 X69.651 Y70.233 E10.14793
G1 X70.233 Y69.650 E10.16757
G1 X70.630 Y69.650 E10.17705
G1 X69.651 Y70.630 E10.21010
G1 X69.651 Y71.027 E10.21958
G1 X71.027 Y69.650 E10.26603
G1 X71.425 Y69.650 E10.27551
G1 X69.651 Y71.424 E10.33537
G1 X69.651 Y71.822 E10.34485
G1 X71.822 Y69.650 E10.41811
G1 X72.219 Y69.650 E10.42759
G1 X69.651 Y72.219 E10.51426
G1 X69.651 Y72.616 E10.52374
G1 X72.616 Y69.650 E10.62381
G1 X73.014 Y69.650 E10.63329
G1 X69.651 Y73.013 E10.74677
G1 X69.651 Y73.411 E10.75625
G1 X73.411 Y69.650 E10.88313
G1 X73.808 Y69.650 E10.89261
G1 X69.651 Y73.808 E11.03290
G1 X69.651 Y74.205 E11.04238
G1 X74.205 Y69.650 E11.19607
G1 X74.603 Y69.650 E11.20555
G1 X69.651 Y74.602 E11.37264
G1 X69.651 Y75.000 E11.38212
G1 X75.000 Y69.650 E11.56262
G1 X75.397 Y69.650 E11.57210
G1 X69.651 Y75.397 E11.76601
G1 X69.651 Y75.794 E11.77549
G1 X75.794 Y69.650 E11.98280
G1 X76.192 Y69.650 E11.99228
G1 X69.651 Y76.192 E12.21299
G1 X69.651 Y76.589 E12.22247
G1 X76.589 Y69.650 E12.45659
G1 X76.986 Y69.650 E12.46607
G1 X69.651 Y76.986 E12.71360
G1 X69.651 Y77.383 E12.72308
G1 X77.384 Y69.650 E12.98401
G1 X77.781 Y69.650 E12.99348
G1 X69.651 Y77.781 E13.26782
G1 X69.651 Y78.178 E13.27730
G1 X78.178 Y69.650 E13.56504
G1 X78.575 Y69.650 E13.57452
G1 X69.651 Y78.575 E13.87566
G1 X69.651 Y78.972 E13.88514
G1 X78.973 Y69.650 E14.19969
G1 X79.370 Y69.650 E14.20917
G1 X69.651 Y79.370 E14.53712
G1 X69.651 Y79.767 E14.54660
G1 X79.767 Y69.650 E14.88796
G1 X80.164 Y69.650 E14.89744
G1 X69.651 Y80.164 E15.25220
G1 X69.862 Y80.350 E15.25892
G1 X80.349 Y69.863 E15.61277
G1 X80.349 Y70.260 E15.62225
G1 X70.260 Y80.350 E15.96271
G1 X70.657 Y80.350 E15.97219
G1 X80.349 Y70.657 E16.29924
G1 X80.349 Y71.054 E16.30871
G1 X71.054 Y80.350 E16.62236
G1 X71.451 Y80.350 E16.63184
G1 X80.349 Y71.452 E16.93208
G1 X80.349 Y71.849 E16.94156
G1 X71.849 Y80.350 E17.22839
G1 X72.246 Y80.350 E17.23787
G1 X80.349 Y72.246 E17.51130
G1 X80.349 Y72.644 E17.52078
G1 X72.643 Y80.350 E17.78081
G1 X73.041 Y80.350 E17.79028
G1 X80.349 Y73.041 E18.03691
G1 X80.349 Y73.438 E18.04638
G1 X73.438 Y80.350 E18.27960
G1 X73.835 Y80.350 E18.28908
G1 X80.349 Y73.835 E18.50889
G1 X80.349 Y74.233 E18.51837
G1 X74.232 Y80.350 E18.72478
G1 X74.630 Y80.350 E18.73425
G1 X80.349 Y74.630 E18.92726
G1 X80.349 Y75.027 E18.93674
G1 X75.027 Y80.350 E19.11633
G1 X75.424 Y80.350 E19.12581
G1 X80.349 Y75.424 E19.29200
G1 X80.349 Y75.822 E19.30148
G1 X75.821 Y80.350 E19.45427
G1 X76.219 Y80.350 E19.46375
G1 X80.349 Y76.219 E19.60313
G1 X80.349 Y76.616 E19.61261
G1 X76.616 Y80.350 E19.73859
G1 X77.013 Y80.350 E19.74807
G1 X80.349 Y77.013 E19.86064
G1 X80.349 Y77.411 E19.87012
G1 X77.410 Y80.350 E19.96929
G1 X77.808 Y80.350 E19.97877
G1 X80.349 Y77.808 E20.06453
G1 X80.349 Y78.205 E20.07401
G1 X78.205 Y80.350 E20.14637
G1 X78.602 Y80.350 E20.15585
G1 X80.349 Y78.602 E20.21481
G1 X80.349 Y79.000 E20.22429
G1 X78.999 Y80.350 E20.26984
G1 X79.397 Y80.350 E20.27931
G1 X80.349 Y79.397 E20.31146
G1 X80.349 Y79.794 E20.32094
G1 X79.794 Y80.350 E20.33968
G1 X80.191 Y80.350 E20.34916
G1 X80.349 Y80.191 E20.35450
M106 S249
G1 F1800.000 E19.35450
G92 E0
G1 Z0.690 F7200.000
G1 X83.150 Y81.250
G1 F1800.000 E1.20000
G1 X83.000 Y81.980 F4200.000 E1.21768
G1 X82.590 Y82.590 E1.23512
G1 X81.980 Y83.000 E1.25256
G1 X81.250 Y83.150 E1.27024
G1 X68.750 Y83.150 E1.56680
G1 X68.020 Y83.000 E1.58448
G1 X67.410 Y82.590 E1.60192
G1 X67.000 Y81.980 E1.61935
G1 X66.850 Y81.250 E1.63703
G1 X66.850 Y68.750 E1.93359
G1 X67.000 Y68.020 E1.95127
G1 X67.410 Y67.410 E1.96871
G1 X68.020 Y67.000 E1.98615
G1 X68.750 Y66.850 E2.00383
G1 X81.250 Y66.850 E2.30039
G1 X81.980 Y67.000 E2.31807
G1 X82.590 Y67.410 E2.33551
G1 X83.000 Y68.020 E2.35295
G1 X83.150 Y68.750 E2.37063
G1 X83.150 Y81.208 E2.66619
G1 X82.870 Y81.250 F7200.000
G1 X82.740 Y81.870 F4200.000 E2.68122
G1 X82.390 Y82.390 E2.69609
G1 X81.870 Y82.740 E2.71096
G1 X81.250 Y82.870 E2.72599
G1 X68.750 Y82.870 E3.02255
G1 X68.130 Y82.740 E3.03758
G1 X67.610 Y82.390 E3.05245
G1 X67.260 Y81.870 E3.06733
G1 X67.130 Y81.250 E3.08235
G1 X67.130 Y68.750 E3.37891
G1 X67.260 Y68.130 E3.39394
G1 X67.610 Y67.610 E3.40882
G1 X68.130 Y67.260 E3.42369
G1 X68.750 Y67.130 E3.43872
G1 X81.250 Y67.130 E3.73528
G1 X81.870 Y67.260 E3.75031
G1 X82.390 Y67.610 E3.76518
G1 X82.740 Y68.130 E3.78005
G1 X82.870 Y68.750 E3.79508
G1 X82.870 Y81.208 E4.09064
G1 X82.590 Y81.250 F7200.000
G1 X82.410 Y81.920 F4200.000 E4.10710
G1 X81.920 Y82.410 E4.12354
G1 X81.250 Y82.590 E4.14000
G1 X68.750 Y82.590 E4.43656
G1 X68.080 Y82.410 E4.45302
G1 X67.590 Y81.920 E4.46946
G1 X67.410 Y81.250 E4.48592
G1 X67.410 Y68.750 E4.78248
G1 X67.590 Y68.080 E4.79894
G1 X68.080 Y67.590 E4.81538
G1 X68.750 Y67.410 E4.83184
G1 X81.250 Y67.410 E5.12840
G1 X81.920 Y67.590 E5.14486
G1 X82.410 Y68.080 E5.16130
G1 X82.590 Y68.750 E5.17776
G1 X82.590 Y81.208 E5.47333
G1 X82.310 Y81.250 F7200.000
G1 X82.170 Y81.780 F4200.000 E5.48633
G1 X81.780 Y82.170 E5.49942
G1 X81.250 Y82.310 E5.51242
G1 X68.750 Y82.310 E5.80898
G1 X68.220 Y82.170 E5.82199
G1 X67.830 Y81.780 E5.83507
G1 X67.690 Y81.250 E5.84808
G1 X67.690 Y68.750 E6.14464
G1 X67.830 Y68.220 E6.15764
G1 X68.220 Y67.830 E6.17073
G1 X68.750 Y67.690 E6.18373
G1 X81.250 Y67.690 E6.48029
G1 X81.780 Y67.830 E6.49330
G1 X82.170 Y68.220 E6.50639
G1 X82.310 Y68.750 E6.51939
G1 X82.310 Y81.208 E6.81496
G1 X80.552 Y80.552 F7200.000
G1 X69.448 Y80.552 F4200.000 E7.07838
