; generated by Slic3r 0.9.10b on 2014-05-05 at 22:13:21

; layer_height = 0.31
; perimeters = 3
; top_solid_layers = 3
; bottom_solid_layers = 3
; fill_density = 1
; perimeter_speed = 70
; infill_speed = 65
; travel_speed = 120
; nozzle_diameter = 0.35
; filament_diameter = 1.77
; extrusion_multiplier = 0.95
; perimeters extrusion width = 0.35mm
; infill extrusion width = 0.37mm
; solid infill extrusion width = 0.35mm
; top infill extrusion width = 0.35mm

G21 ; set units to millimeters
M107
M190 S60 ; wait for bed temperature to be reached
M104 S180 ; set temperature
G28;
M109 S180 ; wait for temperature to be reached
G90 ; use absolute coordinates
G92 E0
M82 ; use absolute distances for extrusion
G1 F1800.000 E-1.00000
G92 E0
G1 Z0.250 F7200.000
G1 X66.770 Y67.310
G1 F1800.000 E1.20000
G1 X67.310 Y66.770 F2520.000 E1.22580
G1 X67.990 Y66.420 E1.25164
G1 X68.750 Y66.300 E1.27763
G1 X81.250 Y66.300 E1.69991
G1 X82.010 Y66.420 E1.72591
G1 X82.690 Y66.770 E1.75174
G1 X83.230 Y67.310 E1.77754
G1 X83.580 Y67.990 E1.80338
G1 X83.700 Y68.750 E1.82937
G1 X83.700 Y81.250 E2.25166
G1 X83.580 Y82.010 E2.27765
G1 X83.230 Y82.690 E2.30349
G1 X82.690 Y83.230 E2.32928
G1 X82.010 Y83.580 E2.35512
G1 X81.250 Y83.700 E2.38111
G1 X68.750 Y83.700 E2.80340
G1 X67.990 Y83.580 E2.82939
G1 X67.310 Y83.230 E2.85523
G1 X66.770 Y82.690 E2.88103
G1 X66.420 Y82.010 E2.90686
G1 X66.300 Y81.250 E2.93286
G1 X66.300 Y68.750 E3.35514
G1 X66.420 Y67.990 E3.38114
G1 X66.746 Y67.356 E3.40520
G1 X67.270 Y67.270 F7200.000
G1 X67.950 Y66.810 F2520.000 E3.43293
G1 X68.750 Y66.650 E3.46049
G1 X81.250 Y66.650 E3.88278
G1 X82.050 Y66.810 E3.91034
G1 X82.730 Y67.270 E3.93808
G1 X83.190 Y67.950 E3.96581
G1 X83.350 Y68.750 E3.99337
G1 X83.350 Y81.250 E4.41566
G1 X83.190 Y82.050 E4.44322
G1 X82.730 Y82.730 E4.47095
G1 X82.050 Y83.190 E4.49869
G1 X81.250 Y83.350 E4.52625
G1 X68.750 Y83.350 E4.94853
G1 X67.950 Y83.190 E4.97609
G1 X67.270 Y82.730 E5.00383
G1 X66.810 Y82.050 E5.03156
G1 X66.650 Y81.250 E5.05913
G1 X66.650 Y68.750 E5.48141
G1 X66.810 Y67.950 E5.50897
G1 X67.241 Y67.313 E5.53493
G1 X67.510 Y67.510 F7200.000
G1 X68.080 Y67.130 F2520.000 E5.55808
G1 X68.750 Y67.000 E5.58113
G1 X81.250 Y67.000 E6.00342
G1 X81.920 Y67.130 E6.02647
G1 X82.490 Y67.510 E6.04962
G1 X82.870 Y68.080 E6.07276
G1 X83.000 Y68.750 E6.09582
G1 X83.000 Y81.250 E6.51810
G1 X82.870 Y81.920 E6.54116
G1 X82.490 Y82.490 E6.56430
G1 X81.920 Y82.870 E6.58744
G1 X81.250 Y83.000 E6.61050
G1 X68.750 Y83.000 E7.03278
G1 X68.080 Y82.870 E7.05584
G1 X67.510 Y82.490 E7.07898
G1 X67.130 Y81.920 E7.10213
G1 X67.000 Y81.250 E7.12518
G1 X67.000 Y68.750 E7.54747
G1 X67.130 Y68.080 E7.57053
G1 X67.481 Y67.553 E7.59189
G1 X67.540 Y68.050 F7200.000
G1 X68.050 Y67.540 F2520.000 E7.61626
G1 X68.750 Y67.350 E7.64076
G1 X81.250 Y67.350 E8.06305
G1 X81.950 Y67.540 E8.08755
G1 X82.460 Y68.050 E8.11192
G1 X82.650 Y68.750 E8.13642
G1 X82.650 Y81.250 E8.55871
G1 X82.460 Y81.950 E8.58321
G1 X81.950 Y82.460 E8.60758
G1 X81.250 Y82.650 E8.63208
G1 X68.750 Y82.650 E9.05436
G1 X68.050 Y82.460 E9.07887
G1 X67.540 Y81.950 E9.10323
G1 X67.350 Y81.250 E9.12774
G1 X67.350 Y68.750 E9.55002
G1 X67.526 Y68.100 E9.57275
G1 X67.928 Y68.334 F7200.000
G1 X68.334 Y67.928 F2520.000 E9.59215
G1 X68.463 Y67.875 E9.59685
G1 X81.537 Y67.875 E10.03853
G1 X81.666 Y67.928 E10.04324
G1 X82.072 Y68.334 E10.06263
G1 X82.125 Y68.463 E10.06734
G1 X82.125 Y81.537 E10.50904
G1 X82.072 Y81.666 E10.51374
G1 X81.666 Y82.072 E10.53314
G1 X81.537 Y82.125 E10.53784
G1 X68.463 Y82.125 E10.97952
G1 X68.334 Y82.072 E10.98423
G1 X67.928 Y81.666 E11.00362
G1 X67.875 Y81.537 E11.00833
G1 X67.875 Y68.463 E11.45002
G1 X67.908 Y68.383 E11.45296
G1 X68.278 Y68.479 F7200.000
G1 X68.479 Y68.278 F2520.000 E11.46256
G1 X68.608 Y68.225 E11.46726
G1 X81.392 Y68.225 E11.89915
G1 X81.521 Y68.278 E11.90385
G1 X81.722 Y68.479 E11.91345
G1 X81.775 Y68.608 E11.91816
G1 X81.775 Y81.392 E12.35006
G1 X81.722 Y81.521 E12.35476
G1 X81.521 Y81.722 E12.36436
G1 X81.392 Y81.775 E12.36907
G1 X68.608 Y81.775 E12.80095
G1 X68.479 Y81.722 E12.80566
G1 X68.278 Y81.521 E12.81526
G1 X68.225 Y81.392 E12.81996
G1 X68.225 Y68.608 E13.25187
G1 X68.258 Y68.528 E13.25480
G1 X68.575 Y68.780 F7200.000
G1 X68.780 Y68.575 F2520.000 E13.26459
G1 X81.220 Y68.575 E13.68485
G1 X81.425 Y68.780 E13.69464
G1 X81.425 Y81.220 E14.11492
G1 X81.220 Y81.425 E14.12471
G1 X68.780 Y81.425 E14.54497
G1 X68.575 Y81.220 E14.55476
G1 X68.575 Y68.832 E14.97326
G1 X68.925 Y68.925 F7200.000
G1 X81.075 Y68.925 F2160.000 E15.38372
G1 X81.075 Y81.075 E15.79420
G1 X68.925 Y81.075 E16.20466
G1 X68.925 Y68.977 E16.61336
G1 X69.228 Y69.100 F7200.000
G1 X80.725 Y80.725
G1 X69.275 Y80.725 F2520.000 E17.00018
G1 X69.275 Y69.275 E17.38701
G1 X80.725 Y69.275 E17.77382
G1 X80.725 Y80.673 E18.15888
G1 X80.375 Y80.375 F7200.000
G1 X69.625 Y80.375 F2520.000 E18.52204
G1 X69.625 Y69.625 E18.88522
G1 X80.375 Y69.625 E19.24839
G1 X80.375 Y80.323 E19.60979
G1 X80.121 Y69.913 F7200.000
G1 X80.087 Y69.878 F2340.000 E19.61146
G1 X79.589 Y69.878 E19.62839
G1 X80.121 Y70.411 E19.65399
G1 X80.121 Y70.909 E19.67091
G1 X79.091 Y69.878 E19.72045
G1 X78.593 Y69.878 E19.73737
G1 X80.121 Y71.407 E19.81084
G1 X80.121 Y71.905 E19.82777
G1 X78.095 Y69.878 E19.92518
G1 X77.597 Y69.878 E19.94210
G1 X80.121 Y72.403 E20.06344
G1 X80.121 Y72.901 E20.08037
G1 X77.099 Y69.878 E20.22564
G1 X76.601 Y69.878 E20.24257
G1 X80.121 Y73.399 E20.41178
G1 X80.121 Y73.897 E20.42871
G1 X76.103 Y69.878 E20.62185
G1 X75.605 Y69.878 E20.63878
G1 X80.121 Y74.395 E20.85586
G1 X80.121 Y74.893 E20.87279
G1 X75.107 Y69.878 E21.11380
G1 X74.609 Y69.878 E21.13073
G1 X80.121 Y75.391 E21.39568
G1 X80.121 Y75.889 E21.41261
G1 X74.111 Y69.878 E21.70150
G1 X73.613 Y69.878 E21.71842
G1 X80.121 Y76.387 E22.03125
G1 X80.121 Y76.885 E22.04817
G1 X73.115 Y69.878 E22.38493
G1 X72.617 Y69.878 E22.40185
G1 X80.121 Y77.383 E22.76255
G1 X80.121 Y77.881 E22.77947
G1 X72.119 Y69.878 E23.16410
G1 X71.621 Y69.878 E23.18103
G1 X80.121 Y78.379 E23.58959
G1 X80.121 Y78.877 E23.60652
G1 X71.123 Y69.878 E24.03902
G1 X70.625 Y69.878 E24.05594
G1 X80.121 Y79.375 E24.51238
G1 X80.121 Y79.872 E24.52930
G1 X70.127 Y69.878 E25.00967
G1 X69.879 Y70.128 E25.02164
G1 X79.873 Y80.122 E25.50200
G1 X79.375 Y80.122 E25.51893
G1 X69.879 Y70.626 E25.97535
G1 X69.879 Y71.124 E25.99228
G1 X78.877 Y80.122 E26.42477
G1 X78.379 Y80.122 E26.44169
G1 X69.879 Y71.622 E26.85025
G1 X69.879 Y72.120 E26.86717
G1 X77.881 Y80.122 E27.25179
G1 X77.383 Y80.122 E27.26872
G1 X69.879 Y72.618 E27.62940
G1 X69.879 Y73.116 E27.64633
G1 X76.885 Y80.122 E27.98308
G1 X76.387 Y80.122 E28.00000
G1 X69.879 Y73.614 E28.31281
G1 X69.879 Y74.111 E28.32974
G1 X75.889 Y80.122 E28.61862
G1 X75.391 Y80.122 E28.63554
G1 X69.879 Y74.609 E28.90049
G1 X69.879 Y75.107 E28.91741
G1 X74.893 Y80.122 E29.15842
G1 X74.395 Y80.122 E29.17534
G1 X69.879 Y75.605 E29.39242
G1 X69.879 Y76.103 E29.40934
G1 X73.897 Y80.122 E29.60248
G1 X73.399 Y80.122 E29.61941
G1 X69.879 Y76.601 E29.78861
G1 X69.879 Y77.099 E29.80553
G1 X72.901 Y80.122 E29.95080
G1 X72.403 Y80.122 E29.96772
G1 X69.879 Y77.597 E30.08906
G1 X69.879 Y78.095 E30.10598
G1 X71.905 Y80.122 E30.20338
G1 X71.407 Y80.122 E30.22030
G1 X69.879 Y78.593 E30.29377
G1 X69.879 Y79.091 E30.31069
G1 X70.909 Y80.122 E30.36022
G1 X70.411 Y80.122 E30.37714
G1 X69.879 Y79.589 E30.40273
G1 X69.879 Y80.087 E30.41966
G1 X69.913 Y80.122 E30.42131
M106 S253
G1 F1800.000 E29.42131
G92 E0
G1 Z0.560 F7200.000
G1 X68.750 Y83.700
G1 F1800.000 E1.20000
G1 X67.990 Y83.580 F4200.000 E1.23223
G1 X67.310 Y83.230 E1.26427
G1 X66.770 Y82.690 E1.29626
G1 X66.420 Y82.010 E1.32830
G1 X66.300 Y81.250 E1.36053
G1 X66.300 Y68.750 E1.88416
G1 X66.420 Y67.990 E1.91639
G1 X66.770 Y67.310 E1.94843
G1 X67.310 Y66.770 E1.98042
G1 X67.990 Y66.420 E2.01246
G1 X68.750 Y66.300 E2.04469
G1 X81.250 Y66.300 E2.56832
G1 X82.010 Y66.420 E2.60055
G1 X82.690 Y66.770 E2.63259
G1 X83.230 Y67.310 E2.66458
G1 X83.580 Y67.990 E2.69662
G1 X83.700 Y68.750 E2.72885
G1 X83.700 Y81.250 E3.25248
G1 X83.580 Y82.010 E3.28471
G1 X83.230 Y82.690 E3.31675
G1 X82.690 Y83.230 E3.34874
G1 X82.010 Y83.580 E3.38078
G1 X81.250 Y83.700 E3.41301
G1 X68.803 Y83.700 E3.93445
G1 X68.750 Y83.350 F7200.000
G1 X67.950 Y83.190 F4200.000 E3.96862
G1 X67.270 Y82.730 E4.00301
G1 X66.810 Y82.050 E4.03740
G1 X66.650 Y81.250 E4.07158
G1 X66.650 Y68.750 E4.59521
G1 X66.810 Y67.950 E4.62939
G1 X67.270 Y67.270 E4.66378
G1 X67.950 Y66.810 E4.69817
G1 X68.750 Y66.650 E4.73235
G1 X81.250 Y66.650 E5.25598
G1 X82.050 Y66.810 E5.29016
G1 X82.730 Y67.270 E5.32455
G1 X83.190 Y67.950 E5.35894
G1 X83.350 Y68.750 E5.39312
G1 X83.350 Y81.250 E5.91675
G1 X83.190 Y82.050 E5.95092
G1 X82.730 Y82.730 E5.98532
G1 X82.050 Y83.190 E6.01971
G1 X81.250 Y83.350 E6.05388
G1 X68.803 Y83.350 E6.57532
G1 X68.750 Y83.000 F7200.000
G1 X68.080 Y82.870 F4200.000 E6.60391
G1 X67.510 Y82.490 E6.63260
G1 X67.130 Y81.920 E6.66130
G1 X67.000 Y81.250 E6.68989
G1 X67.000 Y68.750 E7.21352
G1 X67.130 Y68.080 E7.24211
G1 X67.510 Y67.510 E7.27081
G1 X68.080 Y67.130 E7.29951
G1 X68.750 Y67.000 E7.32810
G1 X81.250 Y67.000 E7.85173
G1 X81.920 Y67.130 E7.88032
G1 X82.490 Y67.510 E7.90902
G1 X82.870 Y68.080 E7.93772
G1 X83.000 Y68.750 E7.96631
G1 X83.000 Y81.250 E8.48994
G1 X82.870 Y81.920 E8.51853
G1 X82.490 Y82.490 E8.54723
G1 X81.920 Y82.870 E8.57593
G1 X81.250 Y83.000 E8.60452
G1 X68.803 Y83.000 E9.12595
G1 X68.750 Y82.650 F7200.000
G1 X68.050 Y82.460 F4200.000 E9.15633
G1 X67.540 Y81.950 E9.18655
G1 X67.350 Y81.250 E9.21693
G1 X67.350 Y68.750 E9.74056
G1 X67.540 Y68.050 E9.77095
G1 X68.050 Y67.540 E9.80116
G1 X68.750 Y67.350 E9.83155
G1 X81.250 Y67.350 E10.35518
G1 X81.950 Y67.540 E10.38556
G1 X82.460 Y68.050 E10.41578
G1 X82.650 Y68.750 E10.44616
G1 X82.650 Y81.250 E10.96980
G1 X82.460 Y81.950 E11.00018
G1 X81.950 Y82.460 E11.03039
G1 X81.250 Y82.650 E11.06078
G1 X68.803 Y82.650 E11.58221
G1 F1800.000 E10.58221
G92 E0
G1 X69.625 Y80.375 F7200.000
G1 F1800.000 E1.20000
G1 X69.625 Y69.625 F4200.000 E1.65035
G1 X80.375 Y69.625 E2.10067
G1 X80.375 Y80.375 E2.55101
G1 X69.678 Y80.375 E2.99914
G1 X69.275 Y69.275 F7200.000
G1 X80.725 Y69.275 F4200.000 E3.47879
G1 X80.725 Y80.725 E3.95846
G1 X69.275 Y80.725 E4.43810
G1 X69.275 Y69.327 E4.91557
G1 X68.925 Y68.925 F7200.000
G1 X81.075 Y68.925 F3600.000 E5.42454
G1 X81.075 Y81.075 E5.93354
G1 X68.925 Y81.075 E6.44251
G1 X68.925 Y68.977 E6.94930
G1 X69.228 Y69.100 F7200.000
G1 X69.879 Y70.111
G1 X70.111 Y69.878 F3900.000 E6.96316
G1 X70.609 Y69.878 E6.98415
G1 X69.879 Y70.609 E7.02769
G1 X69.879 Y71.107 E7.04868
G1 X71.107 Y69.878 E7.12190
G1 X71.605 Y69.878 E7.14289
G1 X69.879 Y71.605 E7.24579
G1 X69.879 Y72.103 E7.26678
G1 X72.103 Y69.878 E7.39936
G1 X72.601 Y69.878 E7.42035
G1 X69.879 Y72.601 E7.58261
G1 X69.879 Y73.099 E7.60360
G1 X73.099 Y69.878 E7.79554
G1 X73.597 Y69.878 E7.81652
G1 X69.879 Y73.597 E8.03815
G1 X69.879 Y74.095 E8.05913
G1 X74.095 Y69.878 E8.31043
G1 X74.593 Y69.878 E8.33142
G1 X69.879 Y74.593 E8.61240
G1 X69.879 Y75.091 E8.63339
G1 X75.091 Y69.878 E8.94405
G1 X75.589 Y69.878 E8.96504
G1 X69.879 Y75.589 E9.30538
G1 X69.879 Y76.087 E9.32636
G1 X76.087 Y69.878 E9.69638
G1 X76.585 Y69.878 E9.71737
G1 X69.879 Y76.585 E10.11707
G1 X69.879 Y77.083 E10.13805
G1 X77.083 Y69.878 E10.56743
G1 X77.581 Y69.878 E10.58842
G1 X69.879 Y77.581 E11.04748
G1 X69.879 Y78.079 E11.06847
G1 X78.079 Y69.878 E11.55721
G1 X78.577 Y69.878 E11.57819
G1 X69.879 Y78.577 E12.09661
G1 X69.879 Y79.074 E12.11760
G1 X79.075 Y69.878 E12.66569
G1 X79.573 Y69.878 E12.68668
G1 X69.879 Y79.572 E13.26446
G1 X69.879 Y80.070 E13.28545
G1 X80.071 Y69.878 E13.89290
G1 X80.121 Y70.326 E13.91187
G1 X70.325 Y80.122 E14.49572
G1 X70.823 Y80.122 E14.51671
G1 X80.121 Y70.824 E15.07088
G1 X80.121 Y71.322 E15.09187
G1 X71.321 Y80.122 E15.61636
G1 X71.819 Y80.122 E15.63734
G1 X80.121 Y71.820 E16.13216
G1 X80.121 Y72.318 E16.15314
G1 X72.317 Y80.122 E16.61827
G1 X72.815 Y80.122 E16.63926
G1 X80.121 Y72.816 E17.07471
G1 X80.121 Y73.313 E17.09570
G1 X73.313 Y80.122 E17.50147
G1 X73.811 Y80.122 E17.52246
G1 X80.121 Y73.811 E17.89855
G1 X80.121 Y74.309 E17.91953
G1 X74.309 Y80.122 E18.26595
G1 X74.807 Y80.122 E18.28693
G1 X80.121 Y74.807 E18.60367
G1 X80.121 Y75.305 E18.62465
G1 X75.305 Y80.122 E18.91171
G1 X75.803 Y80.122 E18.93269
G1 X80.121 Y75.803 E19.19007
G1 X80.121 Y76.301 E19.21105
G1 X76.301 Y80.122 E19.43875
G1 X76.799 Y80.122 E19.45973
G1 X80.121 Y76.799 E19.65775
G1 X80.121 Y77.297 E19.67873
G1 X77.297 Y80.122 E19.84707
G1 X77.795 Y80.122 E19.86805
G1 X80.121 Y77.795 E20.00671
G1 X80.121 Y78.293 E20.02769
G1 X78.293 Y80.122 E20.13667
G1 X78.791 Y80.122 E20.15766
G1 X80.121 Y78.791 E20.23695
G1 X80.121 Y79.289 E20.25794
G1 X79.289 Y80.122 E20.30755
G1 X79.787 Y80.122 E20.32854
G1 X80.121 Y79.787 E20.34847
M106 S254
G1 F1800.000 E19.34847
G92 E0
G1 Z0.870 F7200.000
G1 X83.700 Y81.250
G1 F1800.000 E1.20000
G1 X83.580 Y82.010 F4200.000 E1.23223
G1 X83.230 Y82.690 E1.26427
G1 X82.690 Y83.230 E1.29626
G1 X82.010 Y83.580 E1.32830
G1 X81.250 Y83.700 E1.36053
G1 X68.750 Y83.700 E1.88416
G1 X67.990 Y83.580 E1.91639
G1 X67.310 Y83.230 E1.94843
G1 X66.770 Y82.690 E1.98042
G1 X66.420 Y82.010 E2.01246
G1 X66.300 Y81.250 E2.04469
G1 X66.300 Y68.750 E2.56832
G1 X66.420 Y67.990 E2.60055
G1 X66.770 Y67.310 E2.63259
G1 X67.310 Y66.770 E2.66458
G1 X67.990 Y66.420 E2.69662
G1 X68.750 Y66.300 E2.72885
G1 X81.250 Y66.300 E3.25248
G1 X82.010 Y66.420 E3.28471
G1 X82.690 Y66.770 E3.31675
G1 X83.230 Y67.310 E3.34874
G1 X83.580 Y67.990 E3.38078
G1 X83.700 Y68.750 E3.41301
G1 X83.700 Y81.197 E3.93445
G1 X83.350 Y81.250 F7200.000
G1 X83.190 Y82.050 F4200.000 E3.96862
G1 X82.730 Y82.730 E4.00301
G1 X82.050 Y83.190 E4.03740
G1 X81.250 Y83.350 E4.07158
G1 X68.750 Y83.350 E4.59521
G1 X67.950 Y83.190 E4.62939
G1 X67.270 Y82.730 E4.66378
G1 X66.810 Y82.050 E4.69817
G1 X66.650 Y81.250 E4.73235
G1 X66.650 Y68.750 E5.25598
G1 X66.810 Y67.950 E5.29016
G1 X67.270 Y67.270 E5.32455
G1 X67.950 Y66.810 E5.35894
G1 X68.750 Y66.650 E5.39312
G1 X81.250 Y66.650 E5.91675
G1 X82.050 Y66.810 E5.95092
G1 X82.730 Y67.270 E5.98532
G1 X83.190 Y67.950 E6.01971
G1 X83.350 Y68.750 E6.05388
G1 X83.350 Y81.197 E6.57532
G1 X83.000 Y81.250 F7200.000
G1 X82.870 Y81.920 F4200.000 E6.60391
G1 X82.490 Y82.490 E6.63260
G1 X81.920 Y82.870 E6.66130
G1 X81.250 Y83.000 E6.68989
G1 X68.750 Y83.000 E7.21352
G1 X68.080 Y82.870 E7.24211
G1 X67.510 Y82.490 E7.27081
G1 X67.130 Y81.920 E7.29951
G1 X67.000 Y81.250 E7.32810
G1 X67.000 Y68.750 E7.85173
G1 X67.130 Y68.080 E7.88032
G1 X67.510 Y67.510 E7.90902
G1 X68.080 Y67.130 E7.93772
G1 X68.750 Y67.000 E7.96631
G1 X81.250 Y67.000 E8.48994
G1 X81.920 Y67.130 E8.51853
G1 X82.490 Y67.510 E8.54723
G1 X82.870 Y68.080 E8.57593
G1 X83.000 Y68.750 E8.60452
G1 X83.000 Y81.197 E9.12595
G1 X82.650 Y81.250 F7200.000
G1 X82.460 Y81.950 F4200.000 E9.15633
G1 X81.950 Y82.460 E9.18655
G1 X81.250 Y82.650 E9.21693
G1 X68.750 Y82.650 E9.74056
G1 X68.050 Y82.460 E9.77095
G1 X67.540 Y81.950 E9.80116
G1 X67.350 Y81.250 E9.83155
G1 X67.350 Y68.750 E10.35518
G1 X67.540 Y68.050 E10.38556
G1 X68.050 Y67.540 E10.41578
G1 X68.750 Y67.350 E10.44616
G1 X81.250 Y67.350 E10.96980
G1 X81.950 Y67.540 E11.00018
G1 X82.460 Y68.050 E11.03039
G1 X82.650 Y68.750 E11.06078
G1 X82.650 Y81.197 E11.58221
G1 F1800.000 E10.58221
G92 E0
G1 X80.375 Y80.375 F7200.000
G1 F1800.000 E1.20000
G1 X69.625 Y80.375 F4200.000 E1.65032
G1 X69.625 Y69.625 E2.10067
G1 X80.375 Y69.625 E2.55099
G1 X80.375 Y80.323 E2.99914
G1 X69.275 Y80.725 F7200.000
G1 X69.275 Y69.275 F4200.000 E3.47881
G1 X80.725 Y69.275 E3.95846
G1 X80.725 Y80.725 E4.43812
G1 X69.328 Y80.725 E4.91557
G1 X68.925 Y81.075 F7200.000
G1 X68.925 Y68.925 F3600.000 E5.42457
G1 X81.075 Y68.925 E5.93354
G1 X81.075 Y81.075 E6.44253
G1 X68.978 Y81.075 E6.94930
G1 X69.100 Y80.772 F7200.000
G1 X69.879 Y80.087
G1 X69.913 Y80.122 F3900.000 E6.95134
G1 X70.411 Y80.122 F7200.000
G1 X69.879 Y79.589 F3900.000 E6.98288
G1 X69.879 Y79.091 F7200.000
G1 X70.909 Y80.122 F3900.000 E7.04393
G1 X71.407 Y80.122 F7200.000
