; generated by Slic3r 0.9.10b on 2014-05-05 at 22:11:35

; layer_height = 0.13
; perimeters = 3
; top_solid_layers = 3
; bottom_solid_layers = 3
; fill_density = 0.15
; perimeter_speed = 70
; infill_speed = 65
; travel_speed = 120
; nozzle_diameter = 0.35
; filament_diameter = 1.77
; extrusion_multiplier = 0.95
; perimeters extrusion width = 0.17mm
; infill extrusion width = 0.16mm
; solid infill extrusion width = 0.17mm
; top infill extrusion width = 0.17mm

G21 ; set units to millimeters
M107
M190 S60 ; wait for bed temperature to be reached
M104 S180 ; set temperature
G28;
M109 S180 ; wait for temperature to be reached
G90 ; use absolute coordinates
G92 E0
M82 ; use absolute distances for extrusion
G1 F1800.000 E-1.00000
G92 E0
G1 Z0.250 F7200.000
G1 X67.590 Y68.080
G1 F1800.000 E1.20000
G1 X68.080 Y67.590 F2520.000 E1.21395
G1 X68.750 Y67.410 E1.22792
G1 X81.250 Y67.410 E1.47964
G1 X81.920 Y67.590 E1.49361
G1 X82.410 Y68.080 E1.50757
G1 X82.590 Y68.750 E1.52154
G1 X82.590 Y81.250 E1.77325
G1 X82.410 Y81.920 E1.78722
G1 X81.920 Y82.410 E1.80118
G1 X81.250 Y82.590 E1.81515
G1 X68.750 Y82.590 E2.06686
G1 X68.080 Y82.410 E2.08083
G1 X67.590 Y81.920 E2.09479
G1 X67.410 Y81.250 E2.10876
G1 X67.410 Y68.750 E2.36047
G1 X67.582 Y68.110 E2.37381
G1 X67.770 Y68.180 F7200.000
G1 X68.180 Y67.770 F2520.000 E2.38549
G1 X68.750 Y67.610 E2.39741
G1 X81.250 Y67.610 E2.64913
G1 X81.820 Y67.770 E2.66105
G1 X82.230 Y68.180 E2.67273
G1 X82.390 Y68.750 E2.68465
G1 X82.390 Y81.250 E2.93636
G1 X82.230 Y81.820 E2.94829
G1 X81.820 Y82.230 E2.95996
G1 X81.250 Y82.390 E2.97188
G1 X68.750 Y82.390 E3.22360
G1 X68.180 Y82.230 E3.23552
G1 X67.770 Y81.820 E3.24720
G1 X67.610 Y81.250 E3.25912
G1 X67.610 Y68.750 E3.51083
G1 X67.762 Y68.210 E3.52213
G1 X67.950 Y68.290 F7200.000
G1 X68.290 Y67.950 F2520.000 E3.53181
G1 X68.750 Y67.820 E3.54143
G1 X81.250 Y67.820 E3.79315
G1 X81.710 Y67.950 E3.80278
G1 X82.050 Y68.290 E3.81246
G1 X82.180 Y68.750 E3.82209
G1 X82.180 Y81.250 E4.07380
G1 X82.050 Y81.710 E4.08343
G1 X81.710 Y82.050 E4.09311
G1 X81.250 Y82.180 E4.10274
G1 X68.750 Y82.180 E4.35445
G1 X68.290 Y82.050 E4.36408
G1 X67.950 Y81.710 E4.37376
G1 X67.820 Y81.250 E4.38339
G1 X67.820 Y68.750 E4.63510
G1 X67.941 Y68.320 E4.64410
G1 X68.240 Y68.240 F7200.000
G1 X68.750 Y68.030 F2520.000 E4.65520
G1 X81.250 Y68.030 E4.90692
G1 X81.760 Y68.240 E4.91803
G1 X81.970 Y68.750 E4.92913
G1 X81.970 Y81.250 E5.18085
G1 X81.760 Y81.760 E5.19196
G1 X81.250 Y81.970 E5.20306
G1 X68.750 Y81.970 E5.45478
G1 X68.240 Y81.760 E5.46588
G1 X68.030 Y81.250 E5.47699
G1 X68.030 Y68.750 E5.72871
G1 X68.228 Y68.269 E5.73918
G1 X68.260 Y68.502 F7200.000
G1 X68.502 Y68.260 F2520.000 E5.74608
G1 X68.579 Y68.228 E5.74775
G1 X81.421 Y68.228 E6.00635
G1 X81.498 Y68.260 E6.00803
G1 X81.740 Y68.502 E6.01492
G1 X81.772 Y68.579 E6.01659
G1 X81.772 Y81.421 E6.27521
G1 X81.740 Y81.498 E6.27688
G1 X81.498 Y81.740 E6.28377
G1 X81.421 Y81.772 E6.28544
G1 X68.579 Y81.772 E6.54405
G1 X68.502 Y81.740 E6.54572
G1 X68.260 Y81.498 E6.55261
G1 X68.228 Y81.421 E6.55428
G1 X68.228 Y68.579 E6.81290
G1 X68.248 Y68.531 E6.81394
G1 X68.469 Y68.588 F7200.000
G1 X68.589 Y68.469 F2520.000 E6.81735
G1 X68.665 Y68.437 E6.81903
G1 X81.335 Y68.437 E7.07415
G1 X81.411 Y68.469 E7.07582
G1 X81.531 Y68.588 E7.07924
G1 X81.563 Y68.665 E7.08091
G1 X81.563 Y81.335 E7.33604
G1 X81.531 Y81.412 E7.33772
G1 X81.411 Y81.531 E7.34113
G1 X81.335 Y81.563 E7.34280
G1 X68.665 Y81.563 E7.59793
G1 X68.589 Y81.531 E7.59960
G1 X68.469 Y81.412 E7.60301
G1 X68.437 Y81.335 E7.60468
G1 X68.437 Y68.665 E7.85982
G1 X68.457 Y68.617 E7.86086
G1 X68.646 Y68.768 F7200.000
G1 X68.768 Y68.645 F2520.000 E7.86434
G1 X81.232 Y68.645 E8.11533
G1 X81.354 Y68.768 E8.11881
G1 X81.354 Y81.232 E8.36982
G1 X81.232 Y81.355 E8.37330
G1 X68.768 Y81.355 E8.62429
G1 X68.646 Y81.232 E8.62778
G1 X68.646 Y68.799 E8.87815
G1 X68.854 Y68.854 F7200.000
G1 X81.146 Y68.854 F2160.000 E9.12566
G1 X81.146 Y81.146 E9.37319
G1 X68.854 Y81.146 E9.62070
G1 X68.854 Y68.885 E9.86760
G1 X69.035 Y68.958 F7200.000
G1 X80.937 Y69.063
G1 X80.937 Y80.937 F2520.000 E10.10672
G1 X69.063 Y80.937 E10.34583
G1 X69.063 Y69.063 E10.58496
G1 X80.906 Y69.063 E10.82344
G1 X80.728 Y69.271 F7200.000
G1 X80.728 Y80.729 F2520.000 E11.05416
G1 X69.272 Y80.729 E11.28487
G1 X69.272 Y69.271 E11.51559
G1 X80.697 Y69.271 E11.74567
G1 X80.577 Y69.436 F7200.000
G1 X80.564 Y69.422 F2340.000 E11.74605
G1 X80.267 Y69.422 E11.75207
G1 X80.577 Y69.733 E11.76097
G1 X80.577 Y70.030 E11.76700
G1 X79.970 Y69.422 E11.78442
G1 X79.673 Y69.422 E11.79044
G1 X80.577 Y70.327 E11.81639
G1 X80.577 Y70.624 E11.82241
G1 X79.376 Y69.422 E11.85687
G1 X79.078 Y69.422 E11.86290
G1 X80.577 Y70.921 E11.90588
G1 X80.577 Y71.218 E11.91191
G1 X78.781 Y69.422 E11.96341
G1 X78.484 Y69.422 E11.96944
G1 X80.577 Y71.516 E12.02946
G1 X80.577 Y71.813 E12.03548
G1 X78.187 Y69.422 E12.10403
G1 X77.890 Y69.422 E12.11005
G1 X80.577 Y72.110 E12.18712
G1 X80.577 Y72.407 E12.19314
G1 X77.593 Y69.422 E12.27873
G1 X77.296 Y69.422 E12.28475
G1 X80.577 Y72.704 E12.37886
G1 X80.577 Y73.001 E12.38488
G1 X76.999 Y69.422 E12.48751
G1 X76.702 Y69.422 E12.49353
G1 X80.577 Y73.298 E12.60468
G1 X80.577 Y73.595 E12.61071
G1 X76.404 Y69.422 E12.73037
G1 X76.107 Y69.422 E12.73640
G1 X80.577 Y73.892 E12.86459
G1 X80.577 Y74.189 E12.87061
G1 X75.810 Y69.422 E13.00732
G1 X75.513 Y69.422 E13.01334
G1 X80.577 Y74.487 E13.15857
G1 X80.577 Y74.784 E13.16460
G1 X75.216 Y69.422 E13.31835
G1 X74.919 Y69.422 E13.32437
G1 X80.577 Y75.081 E13.48664
G1 X80.577 Y75.378 E13.49266
G1 X74.622 Y69.422 E13.66345
G1 X74.325 Y69.422 E13.66948
G1 X80.577 Y75.675 E13.84879
G1 X80.577 Y75.972 E13.85481
G1 X74.028 Y69.422 E14.04264
G1 X73.730 Y69.422 E14.04867
G1 X80.577 Y76.269 E14.24502
G1 X80.577 Y76.566 E14.25105
G1 X73.433 Y69.422 E14.45592
G1 X73.136 Y69.422 E14.46194
G1 X80.577 Y76.863 E14.67533
G1 X80.577 Y77.161 E14.68136
G1 X72.839 Y69.422 E14.90327
G1 X72.542 Y69.422 E14.90930
G1 X80.577 Y77.458 E15.13973
G1 X80.577 Y77.755 E15.14575
G1 X72.245 Y69.422 E15.38471
G1 X71.948 Y69.422 E15.39073
G1 X80.577 Y78.052 E15.63820
G1 X80.577 Y78.349 E15.64423
G1 X71.651 Y69.422 E15.90022
G1 X71.354 Y69.422 E15.90625
G1 X80.577 Y78.646 E16.17076
G1 X80.577 Y78.943 E16.17679
G1 X71.056 Y69.422 E16.44982
G1 X70.759 Y69.422 E16.45585
G1 X80.577 Y79.240 E16.73740
G1 X80.577 Y79.537 E16.74343
G1 X70.462 Y69.422 E17.03350
G1 X70.165 Y69.422 E17.03953
G1 X80.577 Y79.835 E17.33812
G1 X80.577 Y80.132 E17.34415
G1 X69.868 Y69.422 E17.65127
G1 X69.571 Y69.422 E17.65729
G1 X80.577 Y80.429 E17.97293
G1 X80.429 Y80.578 E17.97719
G1 X69.423 Y69.571 E18.29282
G1 X69.423 Y69.868 E18.29885
G1 X80.132 Y80.578 E18.60596
G1 X79.835 Y80.578 E18.61198
G1 X69.423 Y70.166 E18.91058
G1 X69.423 Y70.463 E18.91660
G1 X79.538 Y80.578 E19.20667
G1 X79.240 Y80.578 E19.21270
G1 X69.423 Y70.760 E19.49425
G1 X69.423 Y71.057 E19.50027
G1 X78.943 Y80.578 E19.77330
G1 X78.646 Y80.578 E19.77933
G1 X69.423 Y71.354 E20.04384
G1 X69.423 Y71.651 E20.04986
G1 X78.349 Y80.578 E20.30585
G1 X78.052 Y80.578 E20.31188
G1 X69.423 Y71.948 E20.55935
G1 X69.423 Y72.245 E20.56537
G1 X77.755 Y80.578 E20.80432
G1 X77.458 Y80.578 E20.81035
G1 X69.423 Y72.542 E21.04077
G1 X69.423 Y72.840 E21.04680
G1 X77.161 Y80.578 E21.26871
G1 X76.864 Y80.578 E21.27473
G1 X69.423 Y73.137 E21.48812
G1 X69.423 Y73.434 E21.49414
G1 X76.566 Y80.578 E21.69901
G1 X76.269 Y80.578 E21.70504
G1 X69.423 Y73.731 E21.90138
G1 X69.423 Y74.028 E21.90741
G1 X75.972 Y80.578 E22.09523
G1 X75.675 Y80.578 E22.10126
G1 X69.423 Y74.325 E22.28056
G1 X69.423 Y74.622 E22.28659
G1 X75.378 Y80.578 E22.45737
G1 X75.081 Y80.578 E22.46340
G1 X69.423 Y74.919 E22.62566
G1 X69.423 Y75.216 E22.63169
G1 X74.784 Y80.578 E22.78543
G1 X74.487 Y80.578 E22.79146
G1 X69.423 Y75.514 E22.93668
G1 X69.423 Y75.811 E22.94271
G1 X74.190 Y80.578 E23.07941
G1 X73.892 Y80.578 E23.08544
G1 X69.423 Y76.108 E23.21362
G1 X69.423 Y76.405 E23.21964
G1 X73.595 Y80.578 E23.33931
G1 X73.298 Y80.578 E23.34533
G1 X69.423 Y76.702 E23.45647
G1 X69.423 Y76.999 E23.46250
G1 X73.001 Y80.578 E23.56512
G1 X72.704 Y80.578 E23.57115
G1 X69.423 Y77.296 E23.66525
G1 X69.423 Y77.593 E23.67127
G1 X72.407 Y80.578 E23.75685
G1 X72.110 Y80.578 E23.76288
G1 X69.423 Y77.890 E23.83994
G1 X69.423 Y78.188 E23.84596
G1 X71.813 Y80.578 E23.91450
G1 X71.516 Y80.578 E23.92053
G1 X69.423 Y78.485 E23.98055
G1 X69.423 Y78.782 E23.98657
G1 X71.218 Y80.578 E24.03807
G1 X70.921 Y80.578 E24.04410
G1 X69.423 Y79.079 E24.08708
G1 X69.423 Y79.376 E24.09310
G1 X70.624 Y80.578 E24.12756
G1 X70.327 Y80.578 E24.13358
G1 X69.423 Y79.673 E24.15952
G1 X69.423 Y79.970 E24.16555
G1 X70.030 Y80.578 E24.18296
G1 X69.733 Y80.578 E24.18899
G1 X69.423 Y80.267 E24.19789
G1 X69.423 Y80.564 E24.20391
G1 X69.436 Y80.578 E24.20429
M106 S239
G1 F1800.000 E23.20429
G92 E0
G1 Z0.380 F7200.000
G1 X68.750 Y82.590
G1 F1800.000 E1.20000
G1 X68.080 Y82.410 F4200.000 E1.20726
G1 X67.590 Y81.920 E1.21452
G1 X67.410 Y81.250 E1.22179
G1 X67.410 Y68.750 E1.35268
G1 X67.590 Y68.080 E1.35994
G1 X68.080 Y67.590 E1.36720
G1 X68.750 Y67.410 E1.37446
G1 X81.250 Y67.410 E1.50536
G1 X81.920 Y67.590 E1.51262
G1 X82.410 Y68.080 E1.51988
G1 X82.590 Y68.750 E1.52714
G1 X82.590 Y81.250 E1.65803
G1 X82.410 Y81.920 E1.66530
G1 X81.920 Y82.410 E1.67255
G1 X81.250 Y82.590 E1.67982
G1 X68.781 Y82.590 E1.81038
G1 X68.750 Y82.390 F7200.000
G1 X68.180 Y82.230 F4200.000 E1.81658
G1 X67.770 Y81.820 E1.82265
G1 X67.610 Y81.250 E1.82885
G1 X67.610 Y68.750 E1.95975
G1 X67.770 Y68.180 E1.96595
G1 X68.180 Y67.770 E1.97202
G1 X68.750 Y67.610 E1.97822
G1 X81.250 Y67.610 E2.10911
G1 X81.820 Y67.770 E2.11531
G1 X82.230 Y68.180 E2.12138
G1 X82.390 Y68.750 E2.12758
G1 X82.390 Y81.250 E2.25847
G1 X82.230 Y81.820 E2.26467
G1 X81.820 Y82.230 E2.27074
G1 X81.250 Y82.390 E2.27694
G1 X68.781 Y82.390 E2.40751
G1 X68.750 Y82.180 F7200.000
G1 X68.290 Y82.050 F4200.000 E2.41251
G1 X67.950 Y81.710 E2.41755
G1 X67.820 Y81.250 E2.42255
G1 X67.820 Y68.750 E2.55344
G1 X67.950 Y68.290 E2.55845
G1 X68.290 Y67.950 E2.56348
G1 X68.750 Y67.820 E2.56849
G1 X81.250 Y67.820 E2.69938
G1 X81.710 Y67.950 E2.70439
G1 X82.050 Y68.290 E2.70942
G1 X82.180 Y68.750 E2.71443
G1 X82.180 Y81.250 E2.84532
G1 X82.050 Y81.710 E2.85033
G1 X81.710 Y82.050 E2.85536
G1 X81.250 Y82.180 E2.86037
G1 X68.781 Y82.180 E2.99093
G1 X68.750 Y81.970 F7200.000
G1 X68.240 Y81.760 F4200.000 E2.99671
G1 X68.030 Y81.250 E3.00248
G1 X68.030 Y68.750 E3.13337
G1 X68.240 Y68.240 E3.13915
G1 X68.750 Y68.030 E3.14492
G1 X81.250 Y68.030 E3.27582
G1 X81.760 Y68.240 E3.28159
G1 X81.970 Y68.750 E3.28737
G1 X81.970 Y81.250 E3.41826
G1 X81.760 Y81.760 E3.42404
G1 X81.250 Y81.970 E3.42981
G1 X68.781 Y81.970 E3.56038
G1 X69.272 Y80.729 F7200.000
G1 X69.272 Y69.271 F4200.000 E3.68035
G1 X80.728 Y69.271 E3.80032
G1 X80.728 Y80.729 E3.92029
G1 X69.303 Y80.729 E4.03993
G1 X80.937 Y69.063 F7200.000
G1 X80.937 Y80.937 F4200.000 E4.16428
G1 X69.063 Y80.937 E4.28862
G1 X69.063 Y69.063 E4.41296
G1 X80.906 Y69.063 E4.53697
G1 X81.146 Y68.854 F7200.000
G1 X81.146 Y81.146 F3600.000 E4.66568
G1 X68.854 Y81.146 E4.79439
G1 X68.854 Y68.854 E4.92310
G1 X81.114 Y68.854 E5.05148
G1 X81.041 Y69.035 F7200.000
G1 X80.577 Y80.394
G1 X80.394 Y80.578 F3900.000 E5.05422
G1 X80.097 Y80.578 E5.05735
G1 X80.577 Y80.097 E5.06452
G1 X80.577 Y79.800 E5.06765
G1 X79.800 Y80.578 E5.07925
G1 X79.503 Y80.578 E5.08238
G1 X80.577 Y79.503 E5.09841
G1 X80.577 Y79.206 E5.10154
G1 X79.205 Y80.578 E5.12200
G1 X78.908 Y80.578 E5.12513
G1 X80.577 Y78.909 E5.15002
G1 X80.577 Y78.611 E5.15315
G1 X78.611 Y80.578 E5.18247
G1 X78.314 Y80.578 E5.18561
G1 X80.577 Y78.314 E5.21936
G1 X80.577 Y78.017 E5.22249
G1 X78.017 Y80.578 E5.26067
G1 X77.720 Y80.578 E5.26380
G1 X80.577 Y77.720 E5.30641
G1 X80.577 Y77.423 E5.30955
G1 X77.423 Y80.578 E5.35659
G1 X77.126 Y80.578 E5.35972
G1 X80.577 Y77.126 E5.41119
G1 X80.577 Y76.829 E5.41433
G1 X76.829 Y80.578 E5.47023
G1 X76.531 Y80.578 E5.47336
G1 X80.577 Y76.532 E5.53370
G1 X80.577 Y76.235 E5.53683
G1 X76.234 Y80.578 E5.60159
G1 X75.937 Y80.578 E5.60473
G1 X80.577 Y75.937 E5.67392
G1 X80.577 Y75.640 E5.67705
G1 X75.640 Y80.578 E5.75068
G1 X75.343 Y80.578 E5.75381
G1 X80.577 Y75.343 E5.83187
G1 X80.577 Y75.046 E5.83500
G1 X75.046 Y80.578 E5.91749
G1 X74.749 Y80.578 E5.92062
G1 X80.577 Y74.749 E6.00754
G1 X80.577 Y74.452 E6.01067
G1 X74.452 Y80.578 E6.10202
G1 X74.155 Y80.578 E6.10515
G1 X80.577 Y74.155 E6.20093
G1 X80.577 Y73.858 E6.20406
G1 X73.857 Y80.578 E6.30427
G1 X73.560 Y80.578 E6.30741
G1 X80.577 Y73.561 E6.41205
G1 X80.577 Y73.263 E6.41518
G1 X73.263 Y80.578 E6.52425
G1 X72.966 Y80.578 E6.52738
G1 X80.577 Y72.966 E6.64088
G1 X80.577 Y72.669 E6.64402
G1 X72.669 Y80.578 E6.76195
G1 X72.372 Y80.578 E6.76508
G1 X80.577 Y72.372 E6.88744
G1 X80.577 Y72.075 E6.89058
G1 X72.075 Y80.578 E7.01737
G1 X71.778 Y80.578 E7.02050
G1 X80.577 Y71.778 E7.15173
G1 X80.577 Y71.481 E7.15486
G1 X71.481 Y80.578 E7.29051
G1 X71.183 Y80.578 E7.29365
G1 X80.577 Y71.184 E7.43373
G1 X80.577 Y70.887 E7.43687
G1 X70.886 Y80.578 E7.58138
G1 X70.589 Y80.578 E7.58451
G1 X80.577 Y70.589 E7.73346
G1 X80.577 Y70.292 E7.73659
G1 X70.292 Y80.578 E7.88997
G1 X69.995 Y80.578 E7.89310
G1 X80.577 Y69.995 E8.05091
G1 X80.577 Y69.698 E8.05404
G1 X69.698 Y80.578 E8.21628
G1 X69.423 Y80.556 E8.21919
G1 X80.556 Y69.422 E8.38521
G1 X80.259 Y69.422 E8.38835
G1 X69.423 Y80.259 E8.54994
G1 X69.423 Y79.961 E8.55307
G1 X79.962 Y69.422 E8.71023
G1 X79.665 Y69.422 E8.71337
G1 X69.423 Y79.664 E8.86610
G1 X69.423 Y79.367 E8.86923
G1 X79.367 Y69.422 E9.01753
G1 X79.070 Y69.422 E9.02066
G1 X69.423 Y79.070 E9.16453
G1 X69.423 Y78.773 E9.16766
G1 X78.773 Y69.422 E9.30710
G1 X78.476 Y69.422 E9.31024
G1 X69.423 Y78.476 E9.44524
G1 X69.423 Y78.179 E9.44838
G1 X78.179 Y69.422 E9.57895
G1 X77.882 Y69.422 E9.58209
G1 X69.423 Y77.882 E9.70823
G1 X69.423 Y77.585 E9.71137
G1 X77.585 Y69.422 E9.83308
G1 X77.288 Y69.422 E9.83622
G1 X69.423 Y77.287 E9.95350
G1 X69.423 Y76.990 E9.95663
G1 X76.991 Y69.422 E10.06949
G1 X76.693 Y69.422 E10.07262
G1 X69.423 Y76.693 E10.18105
G1 X69.423 Y76.396 E10.18418
G1 X76.396 Y69.422 E10.28817
G1 X76.099 Y69.422 E10.29130
G1 X69.423 Y76.099 E10.39087
G1 X69.423 Y75.802 E10.39400
G1 X75.802 Y69.422 E10.48913
G1 X75.505 Y69.422 E10.49227
G1 X69.423 Y75.505 E10.58297
G1 X69.423 Y75.208 E10.58610
G1 X75.208 Y69.422 E10.67237
G1 X74.911 Y69.422 E10.67550
G1 X69.423 Y74.911 E10.75734
G1 X69.423 Y74.613 E10.76048
G1 X74.614 Y69.422 E10.83789
G1 X74.317 Y69.422 E10.84102
G1 X69.423 Y74.316 E10.91400
G1 X69.423 Y74.019 E10.91713
G1 X74.019 Y69.422 E10.98568
G1 X73.722 Y69.422 E10.98881
G1 X69.423 Y73.722 E11.05293
G1 X69.423 Y73.425 E11.05606
G1 X73.425 Y69.422 E11.11575
G1 X73.128 Y69.422 E11.11888
G1 X69.423 Y73.128 E11.17414
G1 X69.423 Y72.831 E11.17727
G1 X72.831 Y69.422 E11.22810
G1 X72.534 Y69.422 E11.23123
G1 X69.423 Y72.534 E11.27763
G1 X69.423 Y72.237 E11.28076
G1 X72.237 Y69.422 E11.32272
G1 X71.940 Y69.422 E11.32586
G1 X69.423 Y71.939 E11.36339
G1 X69.423 Y71.642 E11.36652
G1 X71.643 Y69.422 E11.39963
G1 X71.345 Y69.422 E11.40276
G1 X69.423 Y71.345 E11.43143
G1 X69.423 Y71.048 E11.43457
G1 X71.048 Y69.422 E11.45881
G1 X70.751 Y69.422 E11.46194
G1 X69.423 Y70.751 E11.48175
G1 X69.423 Y70.454 E11.48489
G1 X70.454 Y69.422 E11.50027
G1 X70.157 Y69.422 E11.50340
G1 X69.423 Y70.157 E11.51435
G1 X69.423 Y69.860 E11.51748
G1 X69.860 Y69.422 E11.52400
G1 X69.563 Y69.422 E11.52714
G1 X69.423 Y69.563 E11.52922
M106 S240
G1 F1800.000 E10.52922
G92 E0
G1 Z0.510 F7200.000
G1 X67.410 Y68.750
G1 F1800.000 E1.20000
G1 X67.590 Y68.080 F4200.000 E1.20726
G1 X68.080 Y67.590 E1.21452
G1 X68.750 Y67.410 E1.22179
G1 X81.250 Y67.410 E1.35268
G1 X81.920 Y67.590 E1.35994
G1 X82.410 Y68.080 E1.36720
G1 X82.590 Y68.750 E1.37446
G1 X82.590 Y81.250 E1.50536
G1 X82.410 Y81.920 E1.51262
G1 X81.920 Y82.410 E1.51988
G1 X81.250 Y82.590 E1.52714
G1 X68.750 Y82.590 E1.65803
G1 X68.080 Y82.410 E1.66530
G1 X67.590 Y81.920 E1.67255
G1 X67.410 Y81.250 E1.67982
G1 X67.410 Y68.781 E1.81038
G1 X67.610 Y68.750 F7200.000
