; generated by Slic3r 0.9.10b on 2014-05-05 at 22:14:40

; layer_height = 0.16
; perimeters = 3
; top_solid_layers = 3
; bottom_solid_layers = 3
; fill_density = 0.3
; perimeter_speed = 70
; infill_speed = 65
; travel_speed = 120
; nozzle_diameter = 0.35
; filament_diameter = 1.77
; extrusion_multiplier = 0.95
; perimeters extrusion width = 0.20mm
; infill extrusion width = 0.19mm
; solid infill extrusion width = 0.20mm
; top infill extrusion width = 0.20mm

G21 ; set units to millimeters
M107
M190 S60 ; wait for bed temperature to be reached
M104 S180 ; set temperature
G28;
M109 S180 ; wait for temperature to be reached
G90 ; use absolute coordinates
G92 E0
M82 ; use absolute distances for extrusion
G1 F1800.000 E-1.00000
G92 E0
G1 Z0.250 F7200.000
G1 X67.430 Y67.990
G1 F1800.000 E1.20000
G1 X67.990 Y67.430 F2520.000 E1.21775
G1 X68.750 Y67.220 E1.23542
G1 X81.250 Y67.220 E1.51556
G1 X82.010 Y67.430 E1.53324
G1 X82.570 Y67.990 E1.55098
G1 X82.780 Y68.750 E1.56866
G1 X82.780 Y81.250 E1.84880
G1 X82.570 Y82.010 E1.86647
G1 X82.010 Y82.570 E1.88422
G1 X81.250 Y82.780 E1.90189
G1 X68.750 Y82.780 E2.18203
G1 X67.990 Y82.570 E2.19971
G1 X67.430 Y82.010 E2.21745
G1 X67.220 Y81.250 E2.23513
G1 X67.220 Y68.750 E2.51527
G1 X67.421 Y68.023 E2.53216
G1 X67.630 Y68.100 F7200.000
G1 X68.100 Y67.630 F2520.000 E2.54706
G1 X68.750 Y67.450 E2.56217
G1 X81.250 Y67.450 E2.84232
G1 X81.900 Y67.630 E2.85743
G1 X82.370 Y68.100 E2.87233
G1 X82.550 Y68.750 E2.88744
G1 X82.550 Y81.250 E3.16759
G1 X82.370 Y81.900 E3.18270
G1 X81.900 Y82.370 E3.19760
G1 X81.250 Y82.550 E3.21272
G1 X68.750 Y82.550 E3.49286
G1 X68.100 Y82.370 E3.50798
G1 X67.630 Y81.900 E3.52287
G1 X67.450 Y81.250 E3.53799
G1 X67.450 Y68.750 E3.81813
G1 X67.621 Y68.133 E3.83247
G1 X67.830 Y68.220 F7200.000
G1 X68.220 Y67.830 F2520.000 E3.84483
G1 X68.750 Y67.690 E3.85711
G1 X81.250 Y67.690 E4.13726
G1 X81.780 Y67.830 E4.14954
G1 X82.170 Y68.220 E4.16190
G1 X82.310 Y68.750 E4.17419
G1 X82.310 Y81.250 E4.45433
G1 X82.170 Y81.780 E4.46662
G1 X81.780 Y82.170 E4.47898
G1 X81.250 Y82.310 E4.49126
G1 X68.750 Y82.310 E4.77141
G1 X68.220 Y82.170 E4.78369
G1 X67.830 Y81.780 E4.79606
G1 X67.690 Y81.250 E4.80834
G1 X67.690 Y68.750 E5.08848
G1 X67.821 Y68.253 E5.09999
G1 X68.160 Y68.160 F7200.000
G1 X68.750 Y67.920 F2520.000 E5.11426
G1 X81.250 Y67.920 E5.39441
G1 X81.840 Y68.160 E5.40868
G1 X82.080 Y68.750 E5.42296
G1 X82.080 Y81.250 E5.70310
G1 X81.840 Y81.840 E5.71738
G1 X81.250 Y82.080 E5.73165
G1 X68.750 Y82.080 E6.01180
G1 X68.160 Y81.840 E6.02607
G1 X67.920 Y81.250 E6.04035
G1 X67.920 Y68.750 E6.32049
G1 X68.147 Y68.192 E6.33398
G1 X68.205 Y68.474 F7200.000
G1 X68.474 Y68.205 F2520.000 E6.34252
G1 X68.560 Y68.169 E6.34459
G1 X81.440 Y68.169 E6.63327
G1 X81.526 Y68.205 E6.63534
G1 X81.795 Y68.474 E6.64388
G1 X81.830 Y68.559 E6.64595
G1 X81.830 Y81.441 E6.93464
G1 X81.795 Y81.526 E6.93671
G1 X81.526 Y81.795 E6.94525
G1 X81.440 Y81.831 E6.94732
G1 X68.560 Y81.831 E7.23600
G1 X68.474 Y81.795 E7.23807
G1 X68.205 Y81.526 E7.24660
G1 X68.170 Y81.441 E7.24867
G1 X68.170 Y68.559 E7.53737
G1 X68.192 Y68.506 E7.53866
G1 X68.437 Y68.570 F7200.000
G1 X68.570 Y68.437 F2520.000 E7.54288
G1 X68.656 Y68.401 E7.54495
G1 X81.344 Y68.401 E7.82932
G1 X81.430 Y68.437 E7.83139
G1 X81.563 Y68.570 E7.83562
G1 X81.598 Y68.655 E7.83769
G1 X81.598 Y81.345 E8.12207
G1 X81.563 Y81.430 E8.12414
G1 X81.430 Y81.563 E8.12836
G1 X81.344 Y81.599 E8.13043
G1 X68.656 Y81.599 E8.41480
G1 X68.570 Y81.563 E8.41687
G1 X68.437 Y81.430 E8.42110
G1 X68.402 Y81.345 E8.42317
G1 X68.402 Y68.655 E8.70755
G1 X68.424 Y68.602 E8.70884
G1 X68.634 Y68.770 F7200.000
G1 X68.770 Y68.634 F2520.000 E8.71315
G1 X81.230 Y68.634 E8.99240
G1 X81.366 Y68.770 E8.99671
G1 X81.366 Y81.230 E9.27597
G1 X81.230 Y81.366 E9.28029
G1 X68.770 Y81.366 E9.55954
G1 X68.634 Y81.230 E9.56385
G1 X68.634 Y68.804 E9.84233
G1 X68.866 Y68.866 F7200.000
G1 X81.134 Y68.866 F2160.000 E10.11727
G1 X81.134 Y81.134 E10.39222
G1 X68.866 Y81.134 E10.66716
G1 X68.866 Y68.901 E10.94133
G1 X69.067 Y68.982 F7200.000
G1 X69.098 Y80.902
G1 X69.098 Y69.098 F2520.000 E11.20588
G1 X80.902 Y69.098 E11.47041
G1 X80.902 Y80.902 E11.73495
G1 X69.133 Y80.902 E11.99871
G1 X69.330 Y80.670 F7200.000
G1 X69.330 Y69.330 F2520.000 E12.25284
G1 X80.670 Y69.330 E12.50697
G1 X80.670 Y80.670 E12.76110
G1 X69.365 Y80.670 E13.01445
G1 X69.762 Y80.502 F7200.000
G1 X69.499 Y80.238 F2340.000 E13.02286
G1 X69.499 Y79.907 E13.03031
G1 X70.093 Y80.502 E13.04926
G1 X70.423 Y80.502 E13.05672
G1 X69.499 Y79.577 E13.08621
G1 X69.499 Y79.246 E13.09366
G1 X70.754 Y80.502 E13.13369
G1 X71.084 Y80.502 E13.14114
G1 X69.499 Y78.916 E13.19171
G1 X69.499 Y78.586 E13.19916
G1 X71.415 Y80.502 E13.26027
G1 X71.745 Y80.502 E13.26772
G1 X69.499 Y78.255 E13.33936
G1 X69.499 Y77.925 E13.34682
G1 X72.075 Y80.502 E13.42900
G1 X72.406 Y80.502 E13.43645
G1 X69.499 Y77.594 E13.52917
G1 X69.499 Y77.264 E13.53663
G1 X72.736 Y80.502 E13.63989
G1 X73.067 Y80.502 E13.64734
G1 X69.499 Y76.933 E13.76114
G1 X69.499 Y76.603 E13.76859
G1 X73.397 Y80.502 E13.89293
G1 X73.728 Y80.502 E13.90038
G1 X69.499 Y76.273 E14.03526
G1 X69.499 Y75.942 E14.04271
G1 X74.058 Y80.502 E14.18813
G1 X74.389 Y80.502 E14.19558
G1 X69.499 Y75.612 E14.35154
G1 X69.499 Y75.281 E14.35899
G1 X74.719 Y80.502 E14.52548
G1 X75.049 Y80.502 E14.53293
G1 X69.499 Y74.951 E14.70997
G1 X69.499 Y74.620 E14.71742
G1 X75.380 Y80.502 E14.90499
G1 X75.710 Y80.502 E14.91244
G1 X69.499 Y74.290 E15.11055
G1 X69.499 Y73.960 E15.11800
G1 X76.041 Y80.502 E15.32665
G1 X76.371 Y80.502 E15.33411
G1 X69.499 Y73.629 E15.55329
G1 X69.499 Y73.299 E15.56074
G1 X76.702 Y80.502 E15.79047
G1 X77.032 Y80.502 E15.79792
G1 X69.499 Y72.968 E16.03819
G1 X69.499 Y72.638 E16.04564
G1 X77.362 Y80.502 E16.29644
G1 X77.693 Y80.502 E16.30390
G1 X69.499 Y72.307 E16.56524
G1 X69.499 Y71.977 E16.57269
G1 X78.023 Y80.502 E16.84457
G1 X78.354 Y80.502 E16.85202
G1 X69.499 Y71.647 E17.13444
G1 X69.499 Y71.316 E17.14189
G1 X78.684 Y80.502 E17.43485
G1 X79.015 Y80.502 E17.44231
G1 X69.499 Y70.986 E17.74580
G1 X69.499 Y70.655 E17.75325
G1 X79.345 Y80.502 E18.06729
G1 X79.675 Y80.502 E18.07474
G1 X69.499 Y70.325 E18.39932
G1 X69.499 Y69.994 E18.40677
G1 X80.006 Y80.502 E18.74188
G1 X80.336 Y80.502 E18.74933
G1 X69.499 Y69.664 E19.09499
G1 X69.664 Y69.498 E19.10026
G1 X80.501 Y80.336 E19.44591
G1 X80.501 Y80.006 E19.45337
G1 X69.994 Y69.498 E19.78848
G1 X70.324 Y69.498 E19.79594
G1 X80.501 Y79.675 E20.12052
G1 X80.501 Y79.345 E20.12797
G1 X70.655 Y69.498 E20.44201
G1 X70.985 Y69.498 E20.44946
G1 X80.501 Y79.014 E20.75296
G1 X80.501 Y78.684 E20.76042
G1 X71.316 Y69.498 E21.05338
G1 X71.646 Y69.498 E21.06083
G1 X80.501 Y78.354 E21.34326
G1 X80.501 Y78.023 E21.35071
G1 X71.977 Y69.498 E21.62260
G1 X72.307 Y69.498 E21.63005
G1 X80.501 Y77.693 E21.89139
G1 X80.501 Y77.362 E21.89885
G1 X72.637 Y69.498 E22.14966
G1 X72.968 Y69.498 E22.15711
G1 X80.501 Y77.032 E22.39738
G1 X80.501 Y76.701 E22.40483
G1 X73.298 Y69.498 E22.63456
G1 X73.629 Y69.498 E22.64201
G1 X80.501 Y76.371 E22.86121
G1 X80.501 Y76.041 E22.86866
G1 X73.959 Y69.498 E23.07731
G1 X74.290 Y69.498 E23.08476
G1 X80.501 Y75.710 E23.28288
G1 X80.501 Y75.380 E23.29033
G1 X74.620 Y69.498 E23.47791
G1 X74.950 Y69.498 E23.48536
G1 X80.501 Y75.049 E23.66240
G1 X80.501 Y74.719 E23.66985
G1 X75.281 Y69.498 E23.83635
G1 X75.611 Y69.498 E23.84380
G1 X80.501 Y74.388 E23.99976
G1 X80.501 Y74.058 E24.00721
G1 X75.942 Y69.498 E24.15263
G1 X76.272 Y69.498 E24.16009
G1 X80.501 Y73.728 E24.29497
G1 X80.501 Y73.397 E24.30242
G1 X76.603 Y69.498 E24.42677
G1 X76.933 Y69.498 E24.43422
G1 X80.501 Y73.067 E24.54802
G1 X80.501 Y72.736 E24.55548
G1 X77.263 Y69.498 E24.65874
G1 X77.594 Y69.498 E24.66619
G1 X80.501 Y72.406 E24.75892
G1 X80.501 Y72.075 E24.76637
G1 X77.924 Y69.498 E24.84856
G1 X78.255 Y69.498 E24.85602
G1 X80.501 Y71.745 E24.92767
G1 X80.501 Y71.415 E24.93512
G1 X78.585 Y69.498 E24.99623
G1 X78.916 Y69.498 E25.00368
G1 X80.501 Y71.084 E25.05425
G1 X80.501 Y70.754 E25.06171
G1 X79.246 Y69.498 E25.10174
G1 X79.576 Y69.498 E25.10919
G1 X80.501 Y70.423 E25.13869
G1 X80.501 Y70.093 E25.14614
G1 X79.907 Y69.498 E25.16510
G1 X80.237 Y69.498 E25.17255
G1 X80.501 Y69.762 E25.18097
M106 S242
G1 F1800.000 E24.18097
G92 E0
G1 Z0.410 F7200.000
G1 X82.780 Y68.750
G1 F1800.000 E1.20000
G1 X82.780 Y81.250 F4200.000 E1.37929
G1 X82.570 Y82.010 E1.39060
G1 X82.010 Y82.570 E1.40196
G1 X81.250 Y82.780 E1.41327
G1 X68.750 Y82.780 E1.59256
G1 X67.990 Y82.570 E1.60387
G1 X67.430 Y82.010 E1.61523
G1 X67.220 Y81.250 E1.62654
G1 X67.220 Y68.750 E1.80583
G1 X67.430 Y67.990 E1.81714
G1 X67.990 Y67.430 E1.82850
G1 X68.750 Y67.220 E1.83981
G1 X81.250 Y67.220 E2.01910
G1 X82.010 Y67.430 E2.03041
G1 X82.570 Y67.990 E2.04177
G1 X82.771 Y68.716 E2.05258
G1 X82.550 Y68.750 F7200.000
G1 X82.550 Y81.250 F4200.000 E2.23187
G1 X82.370 Y81.900 E2.24155
G1 X81.900 Y82.370 E2.25108
G1 X81.250 Y82.550 E2.26076
G1 X68.750 Y82.550 E2.44005
G1 X68.100 Y82.370 E2.44972
G1 X67.630 Y81.900 E2.45926
G1 X67.450 Y81.250 E2.46893
G1 X67.450 Y68.750 E2.64822
G1 X67.630 Y68.100 E2.65790
G1 X68.100 Y67.630 E2.66743
G1 X68.750 Y67.450 E2.67710
G1 X81.250 Y67.450 E2.85640
G1 X81.900 Y67.630 E2.86607
G1 X82.370 Y68.100 E2.87560
G1 X82.541 Y68.716 E2.88478
G1 X82.310 Y68.750 F7200.000
G1 X82.310 Y81.250 F4200.000 E3.06407
G1 X82.170 Y81.780 E3.07193
G1 X81.780 Y82.170 E3.07984
G1 X81.250 Y82.310 E3.08771
G1 X68.750 Y82.310 E3.26700
G1 X68.220 Y82.170 E3.27486
G1 X67.830 Y81.780 E3.28277
G1 X67.690 Y81.250 E3.29064
G1 X67.690 Y68.750 E3.46993
G1 X67.830 Y68.220 E3.47779
G1 X68.220 Y67.830 E3.48570
G1 X68.750 Y67.690 E3.49356
G1 X81.250 Y67.690 E3.67286
G1 X81.780 Y67.830 E3.68072
G1 X82.170 Y68.220 E3.68863
G1 X82.301 Y68.716 E3.69599
G1 X82.080 Y68.750 F7200.000
G1 X82.080 Y81.250 F4200.000 E3.87529
G1 X81.840 Y81.840 E3.88442
G1 X81.250 Y82.080 E3.89356
G1 X68.750 Y82.080 E4.07285
G1 X68.160 Y81.840 E4.08199
G1 X67.920 Y81.250 E4.09112
G1 X67.920 Y68.750 E4.27041
G1 X68.160 Y68.160 E4.27955
G1 X68.750 Y67.920 E4.28869
G1 X81.250 Y67.920 E4.46798
G1 X81.840 Y68.160 E4.47711
G1 X82.067 Y68.717 E4.48575
G1 X80.670 Y69.330 F7200.000
G1 X80.670 Y80.670 F4200.000 E4.64840
G1 X69.330 Y80.670 E4.81104
G1 X69.330 Y69.330 E4.97368
G1 X80.635 Y69.330 E5.13583
G1 X80.902 Y69.098 F7200.000
G1 X80.902 Y80.902 F4200.000 E5.30513
G1 X69.098 Y80.902 E5.47443
G1 X69.098 Y69.098 E5.64374
G1 X80.867 Y69.098 E5.81254
G1 X81.134 Y68.866 F7200.000
G1 X81.134 Y81.134 F3600.000 E5.98851
G1 X68.866 Y81.134 E6.16447
G1 X68.866 Y68.866 E6.34044
G1 X81.099 Y68.866 E6.51591
G1 X81.018 Y69.067 F7200.000
G1 X80.501 Y80.459
G1 X80.459 Y80.502 F3900.000 E6.51677
G1 X80.128 Y80.502 E6.52154
G1 X80.501 Y80.129 E6.52916
G1 X80.501 Y79.798 E6.53393
G1 X79.798 Y80.502 E6.54829
G1 X79.467 Y80.502 E6.55305
G1 X80.501 Y79.468 E6.57416
G1 X80.501 Y79.137 E6.57893
G1 X79.137 Y80.502 E6.60678
G1 X78.807 Y80.502 E6.61154
G1 X80.501 Y78.807 E6.64614
G1 X80.501 Y78.476 E6.65091
G1 X78.476 Y80.502 E6.69224
G1 X78.146 Y80.502 E6.69701
G1 X80.501 Y78.146 E6.74510
G1 X80.501 Y77.816 E6.74986
G1 X77.815 Y80.502 E6.80469
G1 X77.485 Y80.502 E6.80946
G1 X80.501 Y77.485 E6.87103
G1 X80.501 Y77.155 E6.87580
G1 X77.154 Y80.502 E6.94412
G1 X76.824 Y80.502 E6.94889
G1 X80.501 Y76.824 E7.02395
G1 X80.501 Y76.494 E7.02872
G1 X76.494 Y80.502 E7.11053
G1 X76.163 Y80.502 E7.11530
G1 X80.501 Y76.163 E7.20385
G1 X80.501 Y75.833 E7.20862
G1 X75.833 Y80.502 E7.30391
G1 X75.502 Y80.502 E7.30868
G1 X80.501 Y75.503 E7.41072
G1 X80.501 Y75.172 E7.41549
G1 X75.172 Y80.502 E7.52428
G1 X74.841 Y80.502 E7.52905
G1 X80.501 Y74.842 E7.64458
G1 X80.501 Y74.511 E7.64934
G1 X74.511 Y80.502 E7.77162
G1 X74.181 Y80.502 E7.77639
G1 X80.501 Y74.181 E7.90541
G1 X80.501 Y73.850 E7.91018
G1 X73.850 Y80.502 E8.04594
G1 X73.520 Y80.502 E8.05071
G1 X80.501 Y73.520 E8.19322
G1 X80.501 Y73.190 E8.19799
G1 X73.189 Y80.502 E8.34724
G1 X72.859 Y80.502 E8.35201
G1 X80.501 Y72.859 E8.50801
G1 X80.501 Y72.529 E8.51278
G1 X72.528 Y80.502 E8.67553
G1 X72.198 Y80.502 E8.68030
G1 X80.501 Y72.198 E8.84978
G1 X80.501 Y71.868 E8.85455
G1 X71.868 Y80.502 E9.03079
G1 X71.537 Y80.502 E9.03556
G1 X80.501 Y71.537 E9.21853
G1 X80.501 Y71.207 E9.22330
G1 X71.207 Y80.502 E9.41303
G1 X70.876 Y80.502 E9.41779
G1 X80.501 Y70.876 E9.61426
G1 X80.501 Y70.546 E9.61903
G1 X70.546 Y80.502 E9.82224
G1 X70.215 Y80.502 E9.82701
G1 X80.501 Y70.216 E10.03697
G1 X80.501 Y69.885 E10.04174
G1 X69.885 Y80.502 E10.25844
G1 X69.555 Y80.502 E10.26321
G1 X80.501 Y69.555 E10.48666
G1 X80.227 Y69.498 E10.49070
G1 X69.499 Y80.227 E10.70969
G1 X69.499 Y79.897 E10.71446
G1 X79.897 Y69.498 E10.92670
G1 X79.566 Y69.498 E10.93147
G1 X69.499 Y79.566 E11.13698
G1 X69.499 Y79.236 E11.14174
G1 X79.236 Y69.498 E11.34050
G1 X78.905 Y69.498 E11.34527
G1 X69.499 Y78.905 E11.53728
G1 X69.499 Y78.575 E11.54205
G1 X78.575 Y69.498 E11.72732
G1 X78.245 Y69.498 E11.73209
G1 X69.499 Y78.244 E11.91061
G1 X69.499 Y77.914 E11.91538
G1 X77.914 Y69.498 E12.08716
G1 X77.584 Y69.498 E12.09193
G1 X69.499 Y77.584 E12.25696
G1 X69.499 Y77.253 E12.26173
G1 X77.253 Y69.498 E12.42002
G1 X76.923 Y69.498 E12.42479
G1 X69.499 Y76.923 E12.57633
G1 X69.499 Y76.592 E12.58110
G1 X76.592 Y69.498 E12.72590
G1 X76.262 Y69.498 E12.73067
G1 X69.499 Y76.262 E12.86872
G1 X69.499 Y75.931 E12.87349
G1 X75.932 Y69.498 E13.00480
G1 X75.601 Y69.498 E13.00957
G1 X69.499 Y75.601 E13.13414
G1 X69.499 Y75.270 E13.13890
G1 X75.271 Y69.498 E13.25672
G1 X74.940 Y69.498 E13.26149
G1 X69.499 Y74.940 E13.37257
G1 X69.499 Y74.610 E13.37734
G1 X74.610 Y69.498 E13.48167
G1 X74.279 Y69.498 E13.48644
G1 X69.499 Y74.279 E13.58402
G1 X69.499 Y73.949 E13.58879
G1 X73.949 Y69.498 E13.67963
G1 X73.619 Y69.498 E13.68440
G1 X69.499 Y73.618 E13.76850
G1 X69.499 Y73.288 E13.77327
G1 X73.288 Y69.498 E13.85062
G1 X72.958 Y69.498 E13.85539
G1 X69.499 Y72.957 E13.92599
G1 X69.499 Y72.627 E13.93076
G1 X72.627 Y69.498 E13.99462
G1 X72.297 Y69.498 E13.99939
G1 X69.499 Y72.297 E14.05651
G1 X69.499 Y71.966 E14.06128
G1 X71.966 Y69.498 E14.11165
G1 X71.636 Y69.498 E14.11642
G1 X69.499 Y71.636 E14.16005
G1 X69.499 Y71.305 E14.16482
G1 X71.306 Y69.498 E14.20170
G1 X70.975 Y69.498 E14.20647
G1 X69.499 Y70.975 E14.23660
G1 X69.499 Y70.644 E14.24137
G1 X70.645 Y69.498 E14.26477
G1 X70.314 Y69.498 E14.26954
G1 X69.499 Y70.314 E14.28618
G1 X69.499 Y69.984 E14.29095
G1 X69.984 Y69.498 E14.30086
G1 X69.653 Y69.498 E14.30563
G1 X69.499 Y69.653 E14.30878
M106 S243
G1 F1800.000 E13.30878
G92 E0
G1 Z0.570 F7200.000
G1 X67.220 Y68.750
G1 F1800.000 E1.20000
G1 X67.430 Y67.990 F4200.000 E1.21131
G1 X67.990 Y67.430 E1.22267
G1 X68.750 Y67.220 E1.23398
G1 X81.250 Y67.220 E1.41327
G1 X82.010 Y67.430 E1.42458
G1 X82.570 Y67.990 E1.43594
G1 X82.780 Y68.750 E1.44725
G1 X82.780 Y81.250 E1.62654
G1 X82.570 Y82.010 E1.63785
G1 X82.010 Y82.570 E1.64921
G1 X81.250 Y82.780 E1.66052
G1 X68.750 Y82.780 E1.83981
G1 X67.990 Y82.570 E1.85112
G1 X67.430 Y82.010 E1.86248
G1 X67.220 Y81.250 E1.87379
G1 X67.220 Y68.785 E2.05258
G1 X67.450 Y68.750 F7200.000
G1 X67.630 Y68.100 F4200.000 E2.06226
G1 X68.100 Y67.630 E2.07179
G1 X68.750 Y67.450 E2.08146
G1 X81.250 Y67.450 E2.26076
G1 X81.900 Y67.630 E2.27043
G1 X82.370 Y68.100 E2.27996
G1 X82.550 Y68.750 E2.28964
G1 X82.550 Y81.250 E2.46893
G1 X82.370 Y81.900 E2.47860
G1 X81.900 Y82.370 E2.48814
G1 X81.250 Y82.550 E2.49781
G1 X68.750 Y82.550 E2.67710
G1 X68.100 Y82.370 E2.68678
G1 X67.630 Y81.900 E2.69631
G1 X67.450 Y81.250 E2.70599
G1 X67.450 Y68.785 E2.88478
G1 X67.690 Y68.750 F7200.000
G1 X67.830 Y68.220 F4200.000 E2.89264
G1 X68.220 Y67.830 E2.90055
G1 X68.750 Y67.690 E2.90842
G1 X81.250 Y67.690 E3.08771
G1 X81.780 Y67.830 E3.09557
G1 X82.170 Y68.220 E3.10348
G1 X82.310 Y68.750 E3.11134
G1 X82.310 Y81.250 E3.29064
G1 X82.170 Y81.780 E3.29850
G1 X81.780 Y82.170 E3.30641
G1 X81.250 Y82.310 E3.31427
G1 X68.750 Y82.310 E3.49356
G1 X68.220 Y82.170 E3.50143
G1 X67.830 Y81.780 E3.50934
G1 X67.690 Y81.250 E3.51720
G1 X67.690 Y68.785 E3.69599
G1 X67.920 Y68.750 F7200.000
G1 X68.160 Y68.160 F4200.000 E3.70513
