; generated by Slic3r 0.9.10b on 2014-05-05 at 22:17:29

; layer_height = 0.19
; perimeters = 3
; top_solid_layers = 3
; bottom_solid_layers = 3
; fill_density = 0.05
; perimeter_speed = 70
; infill_speed = 65
; travel_speed = 120
; nozzle_diameter = 0.35
; filament_diameter = 1.77
; extrusion_multiplier = 0.95
; perimeters extrusion width = 0.23mm
; infill extrusion width = 0.23mm
; solid infill extrusion width = 0.23mm
; top infill extrusion width = 0.23mm

G21 ; set units to millimeters
M107
M190 S60 ; wait for bed temperature to be reached
M104 S180 ; set temperature
G28;
M109 S180 ; wait for temperature to be reached
G90 ; use absolute coordinates
G92 E0
M82 ; use absolute distances for extrusion
G1 F1800.000 E-1.00000
G92 E0
G1 Z0.250 F7200.000
G1 X67.540 Y67.540
G1 F1800.000 E1.20000
G1 X68.090 Y67.170 F2520.000 E1.21636
G1 X68.750 Y67.040 E1.23297
G1 X81.250 Y67.040 E1.54154
G1 X81.910 Y67.170 E1.55815
G1 X82.460 Y67.540 E1.57451
G1 X82.830 Y68.090 E1.59087
G1 X82.960 Y68.750 E1.60748
G1 X82.960 Y81.250 E1.91605
G1 X82.830 Y81.910 E1.93266
G1 X82.460 Y82.460 E1.94902
G1 X81.910 Y82.830 E1.96538
G1 X81.250 Y82.960 E1.98199
G1 X68.750 Y82.960 E2.29056
G1 X68.090 Y82.830 E2.30717
G1 X67.540 Y82.460 E2.32353
G1 X67.170 Y81.910 E2.33989
G1 X67.040 Y81.250 E2.35650
G1 X67.040 Y68.750 E2.66507
G1 X67.170 Y68.090 E2.68168
G1 X67.519 Y67.572 E2.69709
G1 X67.490 Y68.020 F7200.000
G1 X68.020 Y67.490 F2520.000 E2.71560
G1 X68.750 Y67.290 E2.73428
G1 X81.250 Y67.290 E3.04285
G1 X81.980 Y67.490 E3.06154
G1 X82.510 Y68.020 E3.08004
G1 X82.710 Y68.750 E3.09873
G1 X82.710 Y81.250 E3.40730
G1 X82.510 Y81.980 E3.42598
G1 X81.980 Y82.510 E3.44449
G1 X81.250 Y82.710 E3.46317
G1 X68.750 Y82.710 E3.77174
G1 X68.020 Y82.510 E3.79043
G1 X67.490 Y81.980 E3.80893
G1 X67.290 Y81.250 E3.82761
G1 X67.290 Y68.750 E4.13619
G1 X67.480 Y68.057 E4.15392
G1 X67.710 Y68.150 F7200.000
G1 X68.150 Y67.710 F2520.000 E4.16929
G1 X68.750 Y67.550 E4.18461
G1 X81.250 Y67.550 E4.49319
G1 X81.850 Y67.710 E4.50852
G1 X82.290 Y68.150 E4.52388
G1 X82.450 Y68.750 E4.53921
G1 X82.450 Y81.250 E4.84778
G1 X82.290 Y81.850 E4.86311
G1 X81.850 Y82.290 E4.87847
G1 X81.250 Y82.450 E4.89380
G1 X68.750 Y82.450 E5.20237
G1 X68.150 Y82.290 E5.21770
G1 X67.710 Y81.850 E5.23306
G1 X67.550 Y81.250 E5.24839
G1 X67.550 Y68.750 E5.55696
G1 X67.700 Y68.187 E5.57134
G1 X67.930 Y68.280 F7200.000
G1 X68.280 Y67.930 F2520.000 E5.58356
G1 X68.750 Y67.800 E5.59560
G1 X81.250 Y67.800 E5.90417
G1 X81.720 Y67.930 E5.91621
G1 X82.070 Y68.280 E5.92843
G1 X82.200 Y68.750 E5.94046
G1 X82.200 Y81.250 E6.24904
G1 X82.070 Y81.720 E6.26107
G1 X81.720 Y82.070 E6.27329
G1 X81.250 Y82.200 E6.28533
G1 X68.750 Y82.200 E6.59390
G1 X68.280 Y82.070 E6.60594
G1 X67.930 Y81.720 E6.61816
G1 X67.800 Y81.250 E6.63020
G1 X67.800 Y68.750 E6.93877
G1 X67.920 Y68.317 E6.94986
G1 X68.150 Y68.446 F7200.000
G1 X68.446 Y68.149 F2520.000 E6.96022
G1 X68.540 Y68.110 E6.96273
G1 X81.460 Y68.110 E7.28166
G1 X81.554 Y68.149 E7.28417
G1 X81.850 Y68.446 E7.29453
G1 X81.889 Y68.540 E7.29704
G1 X81.889 Y81.460 E7.61598
G1 X81.850 Y81.554 E7.61849
G1 X81.554 Y81.851 E7.62885
G1 X81.460 Y81.890 E7.63136
G1 X68.540 Y81.890 E7.95029
G1 X68.446 Y81.851 E7.95280
G1 X68.150 Y81.554 E7.96316
G1 X68.111 Y81.460 E7.96567
G1 X68.111 Y68.540 E8.28461
G1 X68.135 Y68.481 E8.28618
G1 X68.405 Y68.552 F7200.000
G1 X68.552 Y68.405 F2520.000 E8.29130
G1 X68.646 Y68.366 E8.29381
G1 X81.354 Y68.366 E8.60751
G1 X81.448 Y68.405 E8.61003
G1 X81.595 Y68.552 E8.61515
G1 X81.634 Y68.646 E8.61766
G1 X81.634 Y81.354 E8.93137
G1 X81.595 Y81.448 E8.93389
G1 X81.448 Y81.595 E8.93901
G1 X81.354 Y81.634 E8.94152
G1 X68.646 Y81.634 E9.25522
G1 X68.552 Y81.595 E9.25774
G1 X68.405 Y81.448 E9.26286
G1 X68.366 Y81.354 E9.26537
G1 X68.366 Y68.646 E9.57908
G1 X68.391 Y68.587 E9.58065
G1 X68.622 Y68.772 F7200.000
G1 X68.772 Y68.622 F2520.000 E9.58588
G1 X81.228 Y68.622 E9.89337
G1 X81.378 Y68.772 E9.89860
G1 X81.378 Y81.228 E10.20610
G1 X81.228 Y81.378 E10.21133
G1 X68.772 Y81.378 E10.51882
G1 X68.622 Y81.228 E10.52405
G1 X68.622 Y68.810 E10.83060
G1 X68.878 Y68.878 F7200.000
G1 X81.122 Y68.878 F2160.000 E11.13286
G1 X81.122 Y81.122 E11.43513
G1 X68.878 Y81.122 E11.73739
G1 X68.878 Y68.916 E12.03872
G1 X69.099 Y69.006 F7200.000
G1 X80.866 Y80.867
G1 X69.134 Y80.867 F2520.000 E12.32835
G1 X69.134 Y69.133 E12.61799
G1 X80.866 Y69.133 E12.90762
G1 X80.866 Y80.828 E13.19632
G1 X80.611 Y80.611 F7200.000
G1 X69.389 Y80.611 F2520.000 E13.47332
G1 X69.389 Y69.389 E13.75034
G1 X80.611 Y69.389 E14.02735
G1 X80.611 Y80.573 E14.30342
G1 X80.425 Y69.673 F7200.000
G1 X80.327 Y69.574 F2340.000 E14.30688
G1 X79.962 Y69.574 E14.31594
G1 X80.425 Y70.037 E14.33223
G1 X80.425 Y70.402 E14.34130
G1 X79.598 Y69.574 E14.37040
G1 X79.233 Y69.574 E14.37947
G1 X80.425 Y70.766 E14.42140
G1 X80.425 Y71.131 E14.43047
G1 X78.869 Y69.574 E14.48523
G1 X78.504 Y69.574 E14.49429
G1 X80.425 Y71.495 E14.56187
G1 X80.425 Y71.860 E14.57094
G1 X78.140 Y69.574 E14.65134
G1 X77.775 Y69.574 E14.66041
G1 X80.425 Y72.224 E14.75363
G1 X80.425 Y72.589 E14.76270
G1 X77.411 Y69.574 E14.86875
G1 X77.047 Y69.574 E14.87782
G1 X80.425 Y72.953 E14.99669
G1 X80.425 Y73.318 E15.00576
G1 X76.682 Y69.574 E15.13746
G1 X76.318 Y69.574 E15.14652
G1 X80.425 Y73.682 E15.29104
G1 X80.425 Y74.047 E15.30011
G1 X75.953 Y69.574 E15.45746
G1 X75.589 Y69.574 E15.46652
G1 X80.425 Y74.411 E15.63669
G1 X80.425 Y74.776 E15.64576
G1 X75.224 Y69.574 E15.82875
G1 X74.860 Y69.574 E15.83782
G1 X80.425 Y75.140 E16.03363
G1 X80.425 Y75.505 E16.04270
G1 X74.495 Y69.574 E16.25134
G1 X74.131 Y69.574 E16.26041
G1 X80.425 Y75.869 E16.48187
G1 X80.425 Y76.234 E16.49094
G1 X73.766 Y69.574 E16.72522
G1 X73.402 Y69.574 E16.73429
G1 X80.425 Y76.598 E16.98140
G1 X80.425 Y76.963 E16.99047
G1 X73.037 Y69.574 E17.25040
G1 X72.673 Y69.574 E17.25947
G1 X80.425 Y77.327 E17.53223
G1 X80.425 Y77.692 E17.54129
G1 X72.308 Y69.574 E17.82688
G1 X71.944 Y69.574 E17.83594
G1 X80.425 Y78.056 E18.13435
G1 X80.425 Y78.421 E18.14341
G1 X71.579 Y69.574 E18.45464
G1 X71.215 Y69.574 E18.46371
G1 X80.425 Y78.785 E18.78776
G1 X80.425 Y79.150 E18.79683
G1 X70.850 Y69.574 E19.13371
G1 X70.486 Y69.574 E19.14277
G1 X80.425 Y79.514 E19.49247
G1 X80.425 Y79.879 E19.50154
G1 X70.121 Y69.574 E19.86406
G1 X69.757 Y69.574 E19.87313
G1 X80.425 Y80.243 E20.24848
G1 X80.243 Y80.426 E20.25489
G1 X69.575 Y69.757 E20.63023
G1 X69.575 Y70.122 E20.63930
G1 X79.879 Y80.426 E21.00181
G1 X79.514 Y80.426 E21.01088
G1 X69.575 Y70.486 E21.36057
G1 X69.575 Y70.851 E21.36964
G1 X79.150 Y80.426 E21.70651
G1 X78.785 Y80.426 E21.71558
G1 X69.575 Y71.215 E22.03962
G1 X69.575 Y71.579 E22.04869
G1 X78.421 Y80.426 E22.35991
G1 X78.056 Y80.426 E22.36898
G1 X69.575 Y71.944 E22.66738
G1 X69.575 Y72.308 E22.67644
G1 X77.692 Y80.426 E22.96202
G1 X77.327 Y80.426 E22.97109
G1 X69.575 Y72.673 E23.24384
G1 X69.575 Y73.037 E23.25291
G1 X76.963 Y80.426 E23.51283
G1 X76.598 Y80.426 E23.52190
G1 X69.575 Y73.402 E23.76900
G1 X69.575 Y73.766 E23.77807
G1 X76.234 Y80.426 E24.01235
G1 X75.869 Y80.426 E24.02142
G1 X69.575 Y74.131 E24.24288
G1 X69.575 Y74.495 E24.25194
G1 X75.505 Y80.426 E24.46058
G1 X75.140 Y80.426 E24.46964
G1 X69.575 Y74.860 E24.66545
G1 X69.575 Y75.224 E24.67452
G1 X74.776 Y80.426 E24.85750
G1 X74.411 Y80.426 E24.86657
G1 X69.575 Y75.589 E25.03673
G1 X69.575 Y75.953 E25.04580
G1 X74.047 Y80.426 E25.20314
G1 X73.682 Y80.426 E25.21221
G1 X69.575 Y76.318 E25.35672
G1 X69.575 Y76.682 E25.36579
G1 X73.318 Y80.426 E25.49748
G1 X72.953 Y80.426 E25.50655
G1 X69.575 Y77.047 E25.62541
G1 X69.575 Y77.411 E25.63448
G1 X72.589 Y80.426 E25.74053
G1 X72.224 Y80.426 E25.74959
G1 X69.575 Y77.776 E25.84281
G1 X69.575 Y78.140 E25.85188
G1 X71.860 Y80.426 E25.93228
G1 X71.495 Y80.426 E25.94134
G1 X69.575 Y78.505 E26.00892
G1 X69.575 Y78.869 E26.01798
G1 X71.131 Y80.426 E26.07273
G1 X70.766 Y80.426 E26.08180
G1 X69.575 Y79.234 E26.12373
G1 X69.575 Y79.598 E26.13279
G1 X70.402 Y80.426 E26.16189
G1 X70.037 Y80.426 E26.17096
G1 X69.575 Y79.963 E26.18724
G1 X69.575 Y80.327 E26.19631
G1 X69.673 Y80.426 E26.19976
M106 S245
G1 F1800.000 E25.19976
G92 E0
G1 Z0.440 F7200.000
G1 X68.750 Y82.960
G1 F1800.000 E1.20000
G1 X68.090 Y82.830 F4200.000 E1.21262
G1 X67.540 Y82.460 E1.22506
G1 X67.170 Y81.910 E1.23749
G1 X67.040 Y81.250 E1.25011
G1 X67.040 Y68.750 E1.48463
G1 X67.170 Y68.090 E1.49725
G1 X67.540 Y67.540 E1.50968
G1 X68.090 Y67.170 E1.52212
G1 X68.750 Y67.040 E1.53474
G1 X81.250 Y67.040 E1.76926
G1 X81.910 Y67.170 E1.78188
G1 X82.460 Y67.540 E1.79431
G1 X82.830 Y68.090 E1.80675
G1 X82.960 Y68.750 E1.81937
G1 X82.960 Y81.250 E2.05388
G1 X82.830 Y81.910 E2.06650
G1 X82.460 Y82.460 E2.07894
G1 X81.910 Y82.830 E2.09138
G1 X81.250 Y82.960 E2.10400
G1 X68.788 Y82.960 E2.33779
G1 X68.750 Y82.710 F7200.000
G1 X68.020 Y82.510 F4200.000 E2.35199
G1 X67.490 Y81.980 E2.36605
G1 X67.290 Y81.250 E2.38025
G1 X67.290 Y68.750 E2.61477
G1 X67.490 Y68.020 E2.62897
G1 X68.020 Y67.490 E2.64303
G1 X68.750 Y67.290 E2.65723
G1 X81.250 Y67.290 E2.89175
G1 X81.980 Y67.490 E2.90595
G1 X82.510 Y68.020 E2.92001
G1 X82.710 Y68.750 E2.93421
G1 X82.710 Y81.250 E3.16872
G1 X82.510 Y81.980 E3.18293
G1 X81.980 Y82.510 E3.19699
G1 X81.250 Y82.710 E3.21119
G1 X68.788 Y82.710 E3.44498
G1 X68.750 Y82.450 F7200.000
G1 X68.150 Y82.290 F4200.000 E3.45663
G1 X67.710 Y81.850 E3.46831
G1 X67.550 Y81.250 E3.47996
G1 X67.550 Y68.750 E3.71447
G1 X67.710 Y68.150 E3.72612
G1 X68.150 Y67.710 E3.73780
G1 X68.750 Y67.550 E3.74945
G1 X81.250 Y67.550 E3.98396
G1 X81.850 Y67.710 E3.99561
G1 X82.290 Y68.150 E4.00729
G1 X82.450 Y68.750 E4.01894
G1 X82.450 Y81.250 E4.25345
G1 X82.290 Y81.850 E4.26510
G1 X81.850 Y82.290 E4.27677
G1 X81.250 Y82.450 E4.28842
G1 X68.788 Y82.450 E4.52222
G1 X68.750 Y82.200 F7200.000
G1 X68.280 Y82.070 F4200.000 E4.53137
G1 X67.930 Y81.720 E4.54065
G1 X67.800 Y81.250 E4.54980
G1 X67.800 Y68.750 E4.78432
G1 X67.930 Y68.280 E4.79347
G1 X68.280 Y67.930 E4.80275
G1 X68.750 Y67.800 E4.81190
G1 X81.250 Y67.800 E5.04642
G1 X81.720 Y67.930 E5.05557
G1 X82.070 Y68.280 E5.06485
G1 X82.200 Y68.750 E5.07400
G1 X82.200 Y81.250 E5.30852
G1 X82.070 Y81.720 E5.31766
G1 X81.720 Y82.070 E5.32695
G1 X81.250 Y82.200 E5.33610
G1 X68.788 Y82.200 E5.56989
G1 X69.389 Y80.611 F7200.000
G1 X69.389 Y69.389 F4200.000 E5.78043
G1 X80.611 Y69.389 E5.99095
G1 X80.611 Y80.611 E6.20148
G1 X69.428 Y80.611 E6.41129
G1 X69.134 Y80.867 F7200.000
G1 X69.134 Y69.133 F4200.000 E6.63142
G1 X80.866 Y69.133 E6.85154
G1 X80.866 Y80.867 E7.07167
G1 X69.172 Y80.867 E7.29107
G1 X68.878 Y81.122 F7200.000
G1 X68.878 Y68.878 F3600.000 E7.52079
G1 X81.122 Y68.878 E7.75051
G1 X81.122 Y81.122 E7.98024
G1 X68.916 Y81.122 E8.20923
G1 X69.006 Y80.901 F7200.000
G1 X69.748 Y69.574
G1 X69.575 Y69.748 F3900.000 E8.21386
G1 X69.575 Y70.112 E8.22075
G1 X70.112 Y69.574 E8.23513
G1 X70.477 Y69.574 E8.24202
G1 X69.575 Y70.477 E8.26614
G1 X69.575 Y70.841 E8.27303
G1 X70.841 Y69.574 E8.30690
G1 X71.206 Y69.574 E8.31379
G1 X69.575 Y71.206 E8.35740
G1 X69.575 Y71.570 E8.36429
G1 X71.570 Y69.574 E8.41765
G1 X71.935 Y69.574 E8.42454
G1 X69.575 Y71.934 E8.48764
G1 X69.575 Y72.299 E8.49453
G1 X72.299 Y69.574 E8.56738
G1 X72.664 Y69.574 E8.57428
G1 X69.575 Y72.663 E8.65687
G1 X69.575 Y73.028 E8.66376
G1 X73.028 Y69.574 E8.75611
G1 X73.393 Y69.574 E8.76300
G1 X69.575 Y73.392 E8.86508
G1 X69.575 Y73.757 E8.87198
G1 X73.757 Y69.574 E8.98381
G1 X74.122 Y69.574 E8.99070
G1 X69.575 Y74.121 E9.11228
G1 X69.575 Y74.486 E9.11917
G1 X74.486 Y69.574 E9.25050
G1 X74.851 Y69.574 E9.25739
G1 X69.575 Y74.850 E9.39846
G1 X69.575 Y75.215 E9.40535
G1 X75.215 Y69.574 E9.55617
G1 X75.580 Y69.574 E9.56306
G1 X69.575 Y75.579 E9.72363
G1 X69.575 Y75.944 E9.73052
G1 X75.944 Y69.574 E9.90083
G1 X76.309 Y69.574 E9.90772
G1 X69.575 Y76.308 E10.08777
G1 X69.575 Y76.673 E10.09467
G1 X76.673 Y69.574 E10.28447
G1 X77.038 Y69.574 E10.29136
G1 X69.575 Y77.037 E10.49091
G1 X69.575 Y77.402 E10.49780
G1 X77.402 Y69.574 E10.70709
G1 X77.767 Y69.574 E10.71398
G1 X69.575 Y77.766 E10.93302
G1 X69.575 Y78.131 E10.93991
G1 X78.131 Y69.574 E11.16870
G1 X78.496 Y69.574 E11.17559
G1 X69.575 Y78.495 E11.41412
G1 X69.575 Y78.860 E11.42101
G1 X78.860 Y69.574 E11.66929
G1 X79.225 Y69.574 E11.67618
G1 X69.575 Y79.224 E11.93421
G1 X69.575 Y79.589 E11.94110
G1 X79.589 Y69.574 E12.20887
G1 X79.954 Y69.574 E12.21576
G1 X69.575 Y79.953 E12.49327
G1 X69.575 Y80.318 E12.50017
G1 X80.318 Y69.574 E12.78743
G1 X80.425 Y69.832 E12.79270
G1 X69.832 Y80.426 E13.07596
G1 X70.196 Y80.426 E13.08285
G1 X80.425 Y70.196 E13.35636
G1 X80.425 Y70.561 E13.36325
G1 X70.560 Y80.426 E13.62702
G1 X70.925 Y80.426 E13.63391
G1 X80.425 Y70.925 E13.88794
G1 X80.425 Y71.290 E13.89483
G1 X71.289 Y80.426 E14.13910
G1 X71.654 Y80.426 E14.14599
G1 X80.425 Y71.654 E14.38053
G1 X80.425 Y72.019 E14.38742
G1 X72.018 Y80.426 E14.61220
G1 X72.383 Y80.426 E14.61909
G1 X80.425 Y72.383 E14.83413
G1 X80.425 Y72.748 E14.84102
G1 X72.747 Y80.426 E15.04631
G1 X73.112 Y80.426 E15.05321
G1 X80.425 Y73.112 E15.24875
G1 X80.425 Y73.477 E15.25564
G1 X73.476 Y80.426 E15.44144
G1 X73.841 Y80.426 E15.44834
G1 X80.425 Y73.841 E15.62439
G1 X80.425 Y74.206 E15.63128
G1 X74.205 Y80.426 E15.79759
G1 X74.570 Y80.426 E15.80448
G1 X80.425 Y74.570 E15.96104
G1 X80.425 Y74.935 E15.96793
G1 X74.934 Y80.426 E16.11475
G1 X75.299 Y80.426 E16.12164
G1 X80.425 Y75.299 E16.25871
G1 X80.425 Y75.664 E16.26560
G1 X75.663 Y80.426 E16.39293
G1 X76.028 Y80.426 E16.39982
G1 X80.425 Y76.028 E16.51740
G1 X80.425 Y76.393 E16.52429
G1 X76.392 Y80.426 E16.63212
G1 X76.757 Y80.426 E16.63901
G1 X80.425 Y76.757 E16.73710
G1 X80.425 Y77.122 E16.74399
G1 X77.121 Y80.426 E16.83233
G1 X77.486 Y80.426 E16.83922
G1 X80.425 Y77.486 E16.91782
G1 X80.425 Y77.851 E16.92471
G1 X77.850 Y80.426 E16.99356
G1 X78.215 Y80.426 E17.00045
G1 X80.425 Y78.215 E17.05955
G1 X80.425 Y78.580 E17.06644
G1 X78.579 Y80.426 E17.11580
G1 X78.944 Y80.426 E17.12269
G1 X80.425 Y78.944 E17.16230
G1 X80.425 Y79.309 E17.16920
G1 X79.308 Y80.426 E17.19906
G1 X79.673 Y80.426 E17.20595
G1 X80.425 Y79.673 E17.22607
G1 X80.425 Y80.038 E17.23296
G1 X80.037 Y80.426 E17.24333
G1 X80.402 Y80.426 E17.25023
G1 X80.425 Y80.402 E17.25085
M106 S246
G1 F1800.000 E16.25085
G92 E0
G1 Z0.630 F7200.000
G1 X82.960 Y81.250
G1 F1800.000 E1.20000
G1 X82.830 Y81.910 F4200.000 E1.21262
G1 X82.460 Y82.460 E1.22506
G1 X81.910 Y82.830 E1.23749
G1 X81.250 Y82.960 E1.25011
G1 X68.750 Y82.960 E1.48463
G1 X68.090 Y82.830 E1.49725
G1 X67.540 Y82.460 E1.50968
G1 X67.170 Y81.910 E1.52212
G1 X67.040 Y81.250 E1.53474
G1 X67.040 Y68.750 E1.76926
G1 X67.170 Y68.090 E1.78188
G1 X67.540 Y67.540 E1.79431
G1 X68.090 Y67.170 E1.80675
G1 X68.750 Y67.040 E1.81937
G1 X81.250 Y67.040 E2.05388
G1 X81.910 Y67.170 E2.06650
G1 X82.460 Y67.540 E2.07894
G1 X82.830 Y68.090 E2.09138
G1 X82.960 Y68.750 E2.10400
G1 X82.960 Y81.211 E2.33779
G1 X82.710 Y81.250 F7200.000
G1 X82.510 Y81.980 F4200.000 E2.35199
G1 X81.980 Y82.510 E2.36605
G1 X81.250 Y82.710 E2.38025
G1 X68.750 Y82.710 E2.61477
G1 X68.020 Y82.510 E2.62897
G1 X67.490 Y81.980 E2.64303
G1 X67.290 Y81.250 E2.65723
G1 X67.290 Y68.750 E2.89175
G1 X67.490 Y68.020 E2.90595
G1 X68.020 Y67.490 E2.92001
G1 X68.750 Y67.290 E2.93421
G1 X81.250 Y67.290 E3.16872
G1 X81.980 Y67.490 E3.18293
G1 X82.510 Y68.020 E3.19699
G1 X82.710 Y68.750 E3.21119
G1 X82.710 Y81.211 E3.44498
G1 X82.450 Y81.250 F7200.000
G1 X82.290 Y81.850 F4200.000 E3.45663
G1 X81.850 Y82.290 E3.46831
G1 X81.250 Y82.450 E3.47996
G1 X68.750 Y82.450 E3.71447
G1 X68.150 Y82.290 E3.72612
G1 X67.710 Y81.850 E3.73780
G1 X67.550 Y81.250 E3.74945
G1 X67.550 Y68.750 E3.98396
G1 X67.710 Y68.150 E3.99561
G1 X68.150 Y67.710 E4.00729
G1 X68.750 Y67.550 E4.01894
G1 X81.250 Y67.550 E4.25345
G1 X81.850 Y67.710 E4.26510
G1 X82.290 Y68.150 E4.27677
G1 X82.450 Y68.750 E4.28842
G1 X82.450 Y81.211 E4.52222
G1 X82.200 Y81.250 F7200.000
G1 X82.070 Y81.720 F4200.000 E4.53137
G1 X81.720 Y82.070 E4.54065
G1 X81.250 Y82.200 E4.54980
G1 X68.750 Y82.200 E4.78432
G1 X68.280 Y82.070 E4.79347
G1 X67.930 Y81.720 E4.80275
G1 X67.800 Y81.250 E4.81190
