; generated by Slic3r 0.9.10b on 2014-05-05 at 22:18:36

; layer_height = 0.28
; perimeters = 3
; top_solid_layers = 3
; bottom_solid_layers = 3
; fill_density = 0.4
; perimeter_speed = 70
; infill_speed = 65
; travel_speed = 120
; nozzle_diameter = 0.35
; filament_diameter = 1.77
; extrusion_multiplier = 0.95
; perimeters extrusion width = 0.32mm
; infill extrusion width = 0.34mm
; solid infill extrusion width = 0.32mm
; top infill extrusion width = 0.32mm

G21 ; set units to millimeters
M107
M190 S60 ; wait for bed temperature to be reached
M104 S180 ; set temperature
G28;
M109 S180 ; wait for temperature to be reached
G90 ; use absolute coordinates
G92 E0
M82 ; use absolute distances for extrusion
G1 F1800.000 E-1.00000
G92 E0
G1 Z0.250 F7200.000
G1 X67.150 Y67.150
G1 F1800.000 E1.20000
G1 X67.880 Y66.660 F2520.000 E1.22770
G1 X68.750 Y66.480 E1.25570
G1 X81.250 Y66.480 E1.64955
G1 X82.120 Y66.660 E1.67754
G1 X82.850 Y67.150 E1.70525
G1 X83.340 Y67.880 E1.73295
G1 X83.520 Y68.750 E1.76094
G1 X83.520 Y81.250 E2.15480
G1 X83.340 Y82.120 E2.18279
G1 X82.850 Y82.850 E2.21049
G1 X82.120 Y83.340 E2.23820
G1 X81.250 Y83.520 E2.26619
G1 X68.750 Y83.520 E2.66005
G1 X67.880 Y83.340 E2.68804
G1 X67.150 Y82.850 E2.71574
G1 X66.660 Y82.120 E2.74344
G1 X66.480 Y81.250 E2.77144
G1 X66.480 Y68.750 E3.16529
G1 X66.660 Y67.880 E3.19329
G1 X67.123 Y67.190 E3.21945
G1 X67.380 Y67.380 F7200.000
G1 X68.010 Y66.960 F2520.000 E3.24330
G1 X68.750 Y66.810 E3.26709
G1 X81.250 Y66.810 E3.66095
G1 X81.990 Y66.960 E3.68474
G1 X82.620 Y67.380 E3.70860
G1 X83.040 Y68.010 E3.73246
G1 X83.190 Y68.750 E3.75625
G1 X83.190 Y81.250 E4.15010
G1 X83.040 Y81.990 E4.17389
G1 X82.620 Y82.620 E4.19775
G1 X81.990 Y83.040 E4.22161
G1 X81.250 Y83.190 E4.24540
G1 X68.750 Y83.190 E4.63925
G1 X68.010 Y83.040 E4.66304
G1 X67.380 Y82.620 E4.68690
G1 X66.960 Y81.990 E4.71076
G1 X66.810 Y81.250 E4.73455
G1 X66.810 Y68.750 E5.12841
G1 X66.960 Y68.010 E5.15220
G1 X67.353 Y67.420 E5.17451
G1 X67.610 Y67.610 F7200.000
G1 X68.130 Y67.260 F2520.000 E5.19426
G1 X68.750 Y67.140 E5.21416
G1 X81.250 Y67.140 E5.60802
G1 X81.870 Y67.260 E5.62791
G1 X82.390 Y67.610 E5.64766
G1 X82.740 Y68.130 E5.66741
G1 X82.860 Y68.750 E5.68731
G1 X82.860 Y81.250 E6.08117
G1 X82.740 Y81.870 E6.10107
G1 X82.390 Y82.390 E6.12082
G1 X81.870 Y82.740 E6.14057
G1 X81.250 Y82.860 E6.16046
G1 X68.750 Y82.860 E6.55432
G1 X68.130 Y82.740 E6.57422
G1 X67.610 Y82.390 E6.59397
G1 X67.260 Y81.870 E6.61372
G1 X67.140 Y81.250 E6.63362
G1 X67.140 Y68.750 E7.02747
G1 X67.260 Y68.130 E7.04737
G1 X67.583 Y67.650 E7.06558
G1 X67.640 Y68.110 F7200.000
G1 X68.110 Y67.640 F2520.000 E7.08652
G1 X68.750 Y67.460 E7.10747
G1 X81.250 Y67.460 E7.50132
G1 X81.890 Y67.640 E7.52227
G1 X82.360 Y68.110 E7.54322
G1 X82.540 Y68.750 E7.56416
G1 X82.540 Y81.250 E7.95802
G1 X82.360 Y81.890 E7.97897
G1 X81.890 Y82.360 E7.99991
G1 X81.250 Y82.540 E8.02086
G1 X68.750 Y82.540 E8.41472
G1 X68.110 Y82.360 E8.43566
G1 X67.640 Y81.890 E8.45661
G1 X67.460 Y81.250 E8.47755
G1 X67.460 Y68.750 E8.87141
G1 X67.627 Y68.157 E8.89082
G1 X67.984 Y68.362 F7200.000
G1 X68.362 Y67.983 F2520.000 E8.90769
G1 X68.482 Y67.934 E8.91178
G1 X81.518 Y67.934 E9.32251
G1 X81.638 Y67.983 E9.32660
G1 X82.016 Y68.362 E9.34348
G1 X82.066 Y68.482 E9.34757
G1 X82.066 Y81.518 E9.75831
G1 X82.016 Y81.638 E9.76240
G1 X81.638 Y82.017 E9.77928
G1 X81.518 Y82.066 E9.78337
G1 X68.482 Y82.066 E10.19410
G1 X68.362 Y82.017 E10.19819
G1 X67.984 Y81.638 E10.21506
G1 X67.934 Y81.518 E10.21916
G1 X67.934 Y68.482 E10.62990
G1 X67.965 Y68.407 E10.63245
G1 X68.310 Y68.497 F7200.000
G1 X68.497 Y68.310 F2520.000 E10.64080
G1 X68.617 Y68.260 E10.64489
G1 X81.383 Y68.260 E11.04710
G1 X81.503 Y68.310 E11.05119
G1 X81.690 Y68.497 E11.05955
G1 X81.740 Y68.617 E11.06364
G1 X81.740 Y81.383 E11.46586
G1 X81.690 Y81.503 E11.46996
G1 X81.503 Y81.690 E11.47831
G1 X81.383 Y81.740 E11.48240
G1 X68.617 Y81.740 E11.88461
G1 X68.497 Y81.690 E11.88870
G1 X68.310 Y81.503 E11.89705
G1 X68.260 Y81.383 E11.90114
G1 X68.260 Y68.617 E12.30337
G1 X68.291 Y68.542 E12.30592
G1 X68.587 Y68.778 F7200.000
G1 X68.778 Y68.587 F2520.000 E12.31444
G1 X81.222 Y68.587 E12.70653
G1 X81.413 Y68.778 E12.71505
G1 X81.413 Y81.222 E13.10716
G1 X81.222 Y81.413 E13.11568
G1 X68.778 Y81.413 E13.50777
G1 X68.587 Y81.222 E13.51629
G1 X68.587 Y68.827 E13.90686
G1 X68.913 Y68.913 F7200.000
G1 X81.087 Y68.913 F2160.000 E14.29043
G1 X81.087 Y81.087 E14.67401
G1 X68.913 Y81.087 E15.05759
G1 X68.913 Y68.962 E15.43963
G1 X69.196 Y69.076 F7200.000
G1 X80.760 Y69.239
G1 X80.760 Y80.761 F2520.000 E15.80264
G1 X69.240 Y80.761 E16.16564
G1 X69.240 Y69.239 E16.52866
G1 X80.711 Y69.239 E16.89012
G1 X80.434 Y69.566 F7200.000
G1 X80.434 Y80.434 F2520.000 E17.23256
G1 X69.566 Y80.434 E17.57499
G1 X69.566 Y69.566 E17.91743
G1 X80.385 Y69.566 E18.25832
G1 X80.037 Y69.802 F7200.000
G1 X80.197 Y69.963 F2340.000 E18.26552
G1 X80.197 Y70.428 E18.28029
G1 X79.572 Y69.802 E18.30839
G1 X79.107 Y69.802 E18.32316
G1 X80.197 Y70.893 E18.37214
G1 X80.197 Y71.358 E18.38691
G1 X78.641 Y69.802 E18.45678
G1 X78.176 Y69.802 E18.47155
G1 X80.197 Y71.824 E18.56231
G1 X80.197 Y72.289 E18.57708
G1 X77.711 Y69.802 E18.68874
G1 X77.246 Y69.802 E18.70351
G1 X80.197 Y72.754 E18.83605
G1 X80.197 Y73.219 E18.85082
G1 X76.780 Y69.802 E19.00425
G1 X76.315 Y69.802 E19.01902
G1 X80.197 Y73.684 E19.19334
G1 X80.197 Y74.150 E19.20811
G1 X75.850 Y69.802 E19.40332
G1 X75.385 Y69.802 E19.41809
G1 X80.197 Y74.615 E19.63419
G1 X80.197 Y75.080 E19.64896
G1 X74.920 Y69.802 E19.88594
G1 X74.454 Y69.802 E19.90071
G1 X80.197 Y75.545 E20.15859
G1 X80.197 Y76.011 E20.17336
G1 X73.989 Y69.802 E20.45213
G1 X73.524 Y69.802 E20.46690
G1 X80.197 Y76.476 E20.76656
G1 X80.197 Y76.941 E20.78133
G1 X73.059 Y69.802 E21.10187
G1 X72.594 Y69.802 E21.11664
G1 X80.197 Y77.406 E21.45808
G1 X80.197 Y77.871 E21.47285
G1 X72.128 Y69.802 E21.83517
G1 X71.663 Y69.802 E21.84994
G1 X80.197 Y78.337 E22.23316
G1 X80.197 Y78.802 E22.24793
G1 X71.198 Y69.802 E22.65203
G1 X70.733 Y69.802 E22.66680
G1 X80.197 Y79.267 E23.09180
G1 X80.197 Y79.732 E23.10657
G1 X70.268 Y69.802 E23.55245
G1 X69.803 Y69.803 E23.56721
G1 X80.197 Y80.197 E24.03397
G1 X79.732 Y80.198 E24.04873
G1 X69.803 Y70.268 E24.49460
G1 X69.803 Y70.733 E24.50938
G1 X79.267 Y80.198 E24.93436
G1 X78.802 Y80.198 E24.94913
G1 X69.803 Y71.198 E25.35322
G1 X69.803 Y71.664 E25.36800
G1 X78.337 Y80.198 E25.75120
G1 X77.871 Y80.198 E25.76597
G1 X69.803 Y72.129 E26.12829
G1 X69.803 Y72.594 E26.14306
G1 X77.406 Y80.198 E26.48448
G1 X76.941 Y80.198 E26.49925
G1 X69.803 Y73.059 E26.81979
G1 X69.803 Y73.524 E26.83456
G1 X76.476 Y80.198 E27.13421
G1 X76.011 Y80.198 E27.14898
G1 X69.803 Y73.990 E27.42774
G1 X69.803 Y74.455 E27.44251
G1 X75.545 Y80.198 E27.70038
G1 X75.080 Y80.198 E27.71515
G1 X69.803 Y74.920 E27.95213
G1 X69.803 Y75.385 E27.96690
G1 X74.615 Y80.198 E28.18299
G1 X74.150 Y80.198 E28.19776
G1 X69.803 Y75.850 E28.39296
G1 X69.803 Y76.316 E28.40773
G1 X73.685 Y80.198 E28.58204
G1 X73.219 Y80.198 E28.59681
G1 X69.803 Y76.781 E28.75023
G1 X69.803 Y77.246 E28.76500
G1 X72.754 Y80.198 E28.89753
G1 X72.289 Y80.198 E28.91230
G1 X69.803 Y77.711 E29.02394
G1 X69.803 Y78.177 E29.03871
G1 X71.824 Y80.198 E29.12947
G1 X71.358 Y80.198 E29.14424
G1 X69.803 Y78.642 E29.21410
G1 X69.803 Y79.107 E29.22887
G1 X70.893 Y80.198 E29.27784
G1 X70.428 Y80.198 E29.29262
G1 X69.803 Y79.572 E29.32070
G1 X69.803 Y80.037 E29.33547
G1 X69.963 Y80.198 E29.34266
M106 S251
G1 F1800.000 E28.34266
G92 E0
G1 Z0.530 F7200.000
G1 X68.750 Y83.520
G1 F1800.000 E1.20000
G1 X67.880 Y83.340 F4200.000 E1.23135
G1 X67.150 Y82.850 E1.26238
G1 X66.660 Y82.120 E1.29341
G1 X66.480 Y81.250 E1.32476
G1 X66.480 Y68.750 E1.76588
G1 X66.660 Y67.880 E1.79723
G1 X67.150 Y67.150 E1.82826
G1 X67.880 Y66.660 E1.85928
G1 X68.750 Y66.480 E1.89063
G1 X81.250 Y66.480 E2.33175
G1 X82.120 Y66.660 E2.36311
G1 X82.850 Y67.150 E2.39413
G1 X83.340 Y67.880 E2.42516
G1 X83.520 Y68.750 E2.45651
G1 X83.520 Y81.250 E2.89763
G1 X83.340 Y82.120 E2.92898
G1 X82.850 Y82.850 E2.96001
G1 X82.120 Y83.340 E2.99104
G1 X81.250 Y83.520 E3.02239
G1 X68.799 Y83.520 E3.46178
G1 X68.750 Y83.190 F7200.000
G1 X68.010 Y83.040 F4200.000 E3.48843
G1 X67.380 Y82.620 E3.51515
G1 X66.960 Y81.990 E3.54187
G1 X66.810 Y81.250 E3.56851
G1 X66.810 Y68.750 E4.00963
G1 X66.960 Y68.010 E4.03628
G1 X67.380 Y67.380 E4.06300
G1 X68.010 Y66.960 E4.08972
G1 X68.750 Y66.810 E4.11636
G1 X81.250 Y66.810 E4.55748
G1 X81.990 Y66.960 E4.58413
G1 X82.620 Y67.380 E4.61085
G1 X83.040 Y68.010 E4.63757
G1 X83.190 Y68.750 E4.66421
G1 X83.190 Y81.250 E5.10533
G1 X83.040 Y81.990 E5.13198
G1 X82.620 Y82.620 E5.15870
G1 X81.990 Y83.040 E5.18542
G1 X81.250 Y83.190 E5.21206
G1 X68.799 Y83.190 E5.65145
G1 X68.750 Y82.860 F7200.000
G1 X68.130 Y82.740 F4200.000 E5.67374
G1 X67.610 Y82.390 E5.69586
G1 X67.260 Y81.870 E5.71798
G1 X67.140 Y81.250 E5.74026
G1 X67.140 Y68.750 E6.18138
G1 X67.260 Y68.130 E6.20367
G1 X67.610 Y67.610 E6.22579
G1 X68.130 Y67.260 E6.24791
G1 X68.750 Y67.140 E6.27019
G1 X81.250 Y67.140 E6.71131
G1 X81.870 Y67.260 E6.73360
G1 X82.390 Y67.610 E6.75572
G1 X82.740 Y68.130 E6.77784
G1 X82.860 Y68.750 E6.80012
G1 X82.860 Y81.250 E7.24124
G1 X82.740 Y81.870 E7.26353
G1 X82.390 Y82.390 E7.28565
G1 X81.870 Y82.740 E7.30777
G1 X81.250 Y82.860 E7.33006
G1 X68.799 Y82.860 E7.76945
G1 X68.750 Y82.540 F7200.000
G1 X68.110 Y82.360 F4200.000 E7.79291
G1 X67.640 Y81.890 E7.81636
G1 X67.460 Y81.250 E7.83983
G1 X67.460 Y68.750 E8.28095
G1 X67.640 Y68.110 E8.30441
G1 X68.110 Y67.640 E8.32786
G1 X68.750 Y67.460 E8.35132
G1 X81.250 Y67.460 E8.79244
G1 X81.890 Y67.640 E8.81591
G1 X82.360 Y68.110 E8.83936
G1 X82.540 Y68.750 E8.86282
G1 X82.540 Y81.250 E9.30394
G1 X82.360 Y81.890 E9.32740
G1 X81.890 Y82.360 E9.35086
G1 X81.250 Y82.540 E9.37432
G1 X68.799 Y82.540 E9.81371
G1 F1800.000 E8.81371
G92 E0
G1 X69.566 Y80.434 F7200.000
G1 F1800.000 E1.20000
G1 X69.566 Y69.566 F4200.000 E1.58354
G1 X80.434 Y69.566 E1.96706
G1 X80.434 Y80.434 E2.35060
G1 X69.615 Y80.434 E2.73239
G1 X69.240 Y80.761 F7200.000
G1 X69.240 Y69.239 F4200.000 E3.13896
G1 X80.760 Y69.239 E3.54552
G1 X80.760 Y80.761 E3.95210
G1 X69.289 Y80.761 E4.35693
G1 X68.913 Y81.087 F7200.000
G1 X68.913 Y68.913 F3600.000 E4.78655
G1 X81.087 Y68.913 E5.21615
G1 X81.087 Y81.087 E5.64577
G1 X68.962 Y81.087 E6.07364
G1 X69.076 Y80.804 F7200.000
G1 X69.803 Y70.023
G1 X70.023 Y69.802 F3900.000 E6.08474
G1 X70.489 Y69.802 E6.10128
G1 X69.803 Y70.488 E6.13578
G1 X69.803 Y70.954 E6.15233
G1 X70.954 Y69.802 E6.21022
G1 X71.419 Y69.802 E6.22677
G1 X69.803 Y71.419 E6.30806
G1 X69.803 Y71.884 E6.32460
G1 X71.884 Y69.802 E6.42929
G1 X72.349 Y69.802 E6.44583
G1 X69.803 Y72.349 E6.57391
G1 X69.803 Y72.814 E6.59046
G1 X72.815 Y69.802 E6.74194
G1 X73.280 Y69.802 E6.75848
G1 X69.803 Y73.280 E6.93336
G1 X69.803 Y73.745 E6.94990
G1 X73.745 Y69.802 E7.14817
G1 X74.210 Y69.802 E7.16472
G1 X69.803 Y74.210 E7.38639
G1 X69.803 Y74.675 E7.40293
G1 X74.676 Y69.802 E7.64799
G1 X75.141 Y69.802 E7.66454
G1 X69.803 Y75.140 E7.93300
G1 X69.803 Y75.606 E7.94954
G1 X75.606 Y69.802 E8.24140
G1 X76.071 Y69.802 E8.25794
G1 X69.803 Y76.071 E8.57320
G1 X69.803 Y76.536 E8.58974
G1 X76.536 Y69.802 E8.92839
G1 X77.002 Y69.802 E8.94493
G1 X69.803 Y77.001 E9.30698
G1 X69.803 Y77.467 E9.32352
G1 X77.467 Y69.802 E9.70897
G1 X77.932 Y69.802 E9.72551
G1 X69.803 Y77.932 E10.13435
G1 X69.803 Y78.397 E10.15089
G1 X78.397 Y69.802 E10.58313
G1 X78.862 Y69.802 E10.59967
G1 X69.803 Y78.862 E11.05530
G1 X69.803 Y79.327 E11.07184
G1 X79.328 Y69.802 E11.55087
G1 X79.793 Y69.802 E11.56741
G1 X69.803 Y79.793 E12.06984
G1 X69.863 Y80.198 E12.08440
G1 X80.197 Y69.863 E12.60414
G1 X80.197 Y70.328 E12.62068
G1 X70.328 Y80.198 E13.11702
G1 X70.793 Y80.198 E13.13357
G1 X80.197 Y70.794 E13.60651
G1 X80.197 Y71.259 E13.62306
G1 X71.258 Y80.198 E14.07261
G1 X71.724 Y80.198 E14.08915
G1 X80.197 Y71.724 E14.51530
G1 X80.197 Y72.189 E14.53185
G1 X72.189 Y80.198 E14.93461
G1 X72.654 Y80.198 E14.95115
G1 X80.197 Y72.654 E15.33051
G1 X80.197 Y73.120 E15.34706
G1 X73.119 Y80.198 E15.70302
G1 X73.585 Y80.198 E15.71956
G1 X80.197 Y73.585 E16.05213
G1 X80.197 Y74.050 E16.06868
G1 X74.050 Y80.198 E16.37785
G1 X74.515 Y80.198 E16.39439
G1 X80.197 Y74.515 E16.68017
G1 X80.197 Y74.980 E16.69671
G1 X74.980 Y80.198 E16.95909
G1 X75.445 Y80.198 E16.97564
G1 X80.197 Y75.446 E17.21462
G1 X80.197 Y75.911 E17.23117
G1 X75.911 Y80.198 E17.44675
G1 X76.376 Y80.198 E17.46330
G1 X80.197 Y76.376 E17.65549
G1 X80.197 Y76.841 E17.67203
G1 X76.841 Y80.198 E17.84083
G1 X77.306 Y80.198 E17.85737
G1 X80.197 Y77.306 E18.00277
G1 X80.197 Y77.772 E18.01932
G1 X77.771 Y80.198 E18.14132
G1 X78.237 Y80.198 E18.15786
G1 X80.197 Y78.237 E18.25647
G1 X80.197 Y78.702 E18.27301
G1 X78.702 Y80.198 E18.34823
G1 X79.167 Y80.198 E18.36477
G1 X80.197 Y79.167 E18.41658
G1 X80.197 Y79.633 E18.43313
G1 X79.632 Y80.198 E18.46155
G1 X80.097 Y80.198 E18.47809
G1 X80.197 Y80.098 E18.48311
M106 S252
G1 F1800.000 E17.48311
G92 E0
G1 Z0.810 F7200.000
G1 X83.520 Y81.250
G1 F1800.000 E1.20000
G1 X83.340 Y82.120 F4200.000 E1.23135
G1 X82.850 Y82.850 E1.26238
G1 X82.120 Y83.340 E1.29341
G1 X81.250 Y83.520 E1.32476
G1 X68.750 Y83.520 E1.76588
G1 X67.880 Y83.340 E1.79723
G1 X67.150 Y82.850 E1.82826
G1 X66.660 Y82.120 E1.85928
G1 X66.480 Y81.250 E1.89063
G1 X66.480 Y68.750 E2.33175
G1 X66.660 Y67.880 E2.36311
G1 X67.150 Y67.150 E2.39413
G1 X67.880 Y66.660 E2.42516
G1 X68.750 Y66.480 E2.45651
G1 X81.250 Y66.480 E2.89763
G1 X82.120 Y66.660 E2.92898
G1 X82.850 Y67.150 E2.96001
G1 X83.340 Y67.880 E2.99104
G1 X83.520 Y68.750 E3.02239
G1 X83.520 Y81.201 E3.46178
G1 X83.190 Y81.250 F7200.000
G1 X83.040 Y81.990 F4200.000 E3.48843
G1 X82.620 Y82.620 E3.51515
G1 X81.990 Y83.040 E3.54187
G1 X81.250 Y83.190 E3.56851
G1 X68.750 Y83.190 E4.00963
G1 X68.010 Y83.040 E4.03628
G1 X67.380 Y82.620 E4.06300
G1 X66.960 Y81.990 E4.08972
G1 X66.810 Y81.250 E4.11636
G1 X66.810 Y68.750 E4.55748
G1 X66.960 Y68.010 E4.58413
G1 X67.380 Y67.380 E4.61085
G1 X68.010 Y66.960 E4.63757
G1 X68.750 Y66.810 E4.66421
G1 X81.250 Y66.810 E5.10533
G1 X81.990 Y66.960 E5.13198
G1 X82.620 Y67.380 E5.15870
G1 X83.040 Y68.010 E5.18542
G1 X83.190 Y68.750 E5.21206
G1 X83.190 Y81.201 E5.65145
G1 X82.860 Y81.250 F7200.000
G1 X82.740 Y81.870 F4200.000 E5.67374
G1 X82.390 Y82.390 E5.69586
G1 X81.870 Y82.740 E5.71798
G1 X81.250 Y82.860 E5.74026
G1 X68.750 Y82.860 E6.18138
G1 X68.130 Y82.740 E6.20367
G1 X67.610 Y82.390 E6.22579
G1 X67.260 Y81.870 E6.24791
G1 X67.140 Y81.250 E6.27019
G1 X67.140 Y68.750 E6.71131
G1 X67.260 Y68.130 E6.73360
G1 X67.610 Y67.610 E6.75572
G1 X68.130 Y67.260 E6.77784
G1 X68.750 Y67.140 E6.80012
G1 X81.250 Y67.140 E7.24124
G1 X81.870 Y67.260 E7.26353
G1 X82.390 Y67.610 E7.28565
G1 X82.740 Y68.130 E7.30777
G1 X82.860 Y68.750 E7.33006
G1 X82.860 Y81.201 E7.76945
G1 X82.540 Y81.250 F7200.000
G1 X82.360 Y81.890 F4200.000 E7.79291
G1 X81.890 Y82.360 E7.81636
G1 X81.250 Y82.540 E7.83983
G1 X68.750 Y82.540 E8.28095
G1 X68.110 Y82.360 E8.30441
G1 X67.640 Y81.890 E8.32786
G1 X67.460 Y81.250 E8.35132
G1 X67.460 Y68.750 E8.79244
G1 X67.640 Y68.110 E8.81591
G1 X68.110 Y67.640 E8.83936
G1 X68.750 Y67.460 E8.86282
G1 X81.250 Y67.460 E9.30394
G1 X81.890 Y67.640 E9.32740
G1 X82.360 Y68.110 E9.35086
G1 X82.540 Y68.750 E9.37432
G1 X82.540 Y81.201 E9.81371
G1 F1800.000 E8.81371
G92 E0
G1 X80.434 Y80.434 F7200.000
G1 F1800.000 E1.20000
G1 X69.566 Y80.434 F4200.000 E1.58352
G1 X69.566 Y69.566 E1.96706
G1 X80.434 Y69.566 E2.35058
G1 X80.434 Y80.385 E2.73239
G1 X80.760 Y80.761 F7200.000
G1 X69.240 Y80.761 F4200.000 E3.13895
G1 X69.240 Y69.239 E3.54552
G1 X80.760 Y69.239 E3.95208
G1 X80.760 Y80.712 E4.35693
G1 X81.087 Y81.087 F7200.000
G1 X68.913 Y81.087 F3600.000 E4.78653
G1 X68.913 Y68.913 E5.21615
G1 X81.087 Y68.913 E5.64575
G1 X81.087 Y81.038 E6.07364
G1 X80.804 Y80.924 F7200.000
G1 X80.197 Y80.197
G1 X69.803 Y69.803 F3900.000 E6.59241
G1 X70.268 Y69.802 F7200.000
G1 X80.197 Y79.732 F3900.000 E7.08797
G1 X80.197 Y79.267 F7200.000
G1 X70.733 Y69.802 F3900.000 E7.56033
