; generated by Slic3r 0.9.10b on 2014-05-05 at 22:21:49

; layer_height = 0.25
; perimeters = 3
; top_solid_layers = 3
; bottom_solid_layers = 3
; fill_density = 0.2
; perimeter_speed = 70
; infill_speed = 65
; travel_speed = 120
; nozzle_diameter = 0.35
; filament_diameter = 1.77
; extrusion_multiplier = 0.95
; perimeters extrusion width = 0.29mm
; infill extrusion width = 0.30mm
; solid infill extrusion width = 0.29mm
; top infill extrusion width = 0.29mm

G21 ; set units to millimeters
M107
M190 S60 ; wait for bed temperature to be reached
M104 S180 ; set temperature
G28;
M109 S180 ; wait for temperature to be reached
G90 ; use absolute coordinates
G92 E0
M82 ; use absolute distances for extrusion
G1 F1800.000 E-1.00000
G92 E0
G1 Z0.250 F7200.000
G1 X67.280 Y67.280
G1 F1800.000 E1.20000
G1 X67.950 Y66.830 F2520.000 E1.22359
G1 X68.750 Y66.670 E1.24745
G1 X81.250 Y66.670 E1.61287
G1 X82.050 Y66.830 E1.63672
G1 X82.720 Y67.280 E1.66032
G1 X83.170 Y67.950 E1.68391
G1 X83.330 Y68.750 E1.70776
G1 X83.330 Y81.250 E2.07319
G1 X83.170 Y82.050 E2.09704
G1 X82.720 Y82.720 E2.12064
G1 X82.050 Y83.170 E2.14423
G1 X81.250 Y83.330 E2.16808
G1 X68.750 Y83.330 E2.53351
G1 X67.950 Y83.170 E2.55736
G1 X67.280 Y82.720 E2.58096
G1 X66.830 Y82.050 E2.60455
G1 X66.670 Y81.250 E2.62840
G1 X66.670 Y68.750 E2.99383
G1 X66.830 Y67.950 E3.01768
G1 X67.255 Y67.317 E3.03995
G1 X67.490 Y67.490 F7200.000
G1 X68.070 Y67.110 F2520.000 E3.06022
G1 X68.750 Y66.970 E3.08052
G1 X81.250 Y66.970 E3.44594
G1 X81.930 Y67.110 E3.46624
G1 X82.510 Y67.490 E3.48651
G1 X82.890 Y68.070 E3.50678
G1 X83.030 Y68.750 E3.52708
G1 X83.030 Y81.250 E3.89251
G1 X82.890 Y81.930 E3.91280
G1 X82.510 Y82.510 E3.93307
G1 X81.930 Y82.890 E3.95334
G1 X81.250 Y83.030 E3.97364
G1 X68.750 Y83.030 E4.33907
G1 X68.070 Y82.890 E4.35937
G1 X67.490 Y82.510 E4.37964
G1 X67.110 Y81.930 E4.39991
G1 X66.970 Y81.250 E4.42020
G1 X66.970 Y68.750 E4.78563
G1 X67.110 Y68.070 E4.80593
G1 X67.465 Y67.528 E4.82487
G1 X67.470 Y68.010 F7200.000
G1 X68.010 Y67.470 F2520.000 E4.84720
G1 X68.750 Y67.270 E4.86961
G1 X81.250 Y67.270 E5.23503
G1 X81.990 Y67.470 E5.25744
G1 X82.530 Y68.010 E5.27977
G1 X82.730 Y68.750 E5.30218
G1 X82.730 Y81.250 E5.66761
G1 X82.530 Y81.990 E5.69002
G1 X81.990 Y82.530 E5.71234
G1 X81.250 Y82.730 E5.73475
G1 X68.750 Y82.730 E6.10018
G1 X68.010 Y82.530 E6.12259
G1 X67.470 Y81.990 E6.14492
G1 X67.270 Y81.250 E6.16732
G1 X67.270 Y68.750 E6.53275
G1 X67.458 Y68.054 E6.55383
G1 X67.730 Y68.160 F7200.000
G1 X68.160 Y67.730 F2520.000 E6.57161
G1 X68.750 Y67.580 E6.58941
G1 X81.250 Y67.580 E6.95484
G1 X81.840 Y67.730 E6.97263
G1 X82.270 Y68.160 E6.99041
G1 X82.420 Y68.750 E7.00821
G1 X82.420 Y81.250 E7.37364
G1 X82.270 Y81.840 E7.39143
G1 X81.840 Y82.270 E7.40921
G1 X81.250 Y82.420 E7.42701
G1 X68.750 Y82.420 E7.79244
G1 X68.160 Y82.270 E7.81023
G1 X67.730 Y81.840 E7.82801
G1 X67.580 Y81.250 E7.84581
G1 X67.580 Y68.750 E8.21124
G1 X67.719 Y68.204 E8.22771
G1 X68.039 Y68.390 F7200.000
G1 X68.390 Y68.039 F2520.000 E8.24223
G1 X68.502 Y67.993 E8.24575
G1 X81.498 Y67.993 E8.62571
G1 X81.610 Y68.039 E8.62923
G1 X81.961 Y68.390 E8.64376
G1 X82.007 Y68.501 E8.64728
G1 X82.007 Y81.499 E9.02725
G1 X81.961 Y81.610 E9.03077
G1 X81.610 Y81.961 E9.04529
G1 X81.498 Y82.007 E9.04882
G1 X68.502 Y82.007 E9.42877
G1 X68.390 Y81.961 E9.43229
G1 X68.039 Y81.610 E9.44682
G1 X67.993 Y81.499 E9.45034
G1 X67.993 Y68.501 E9.83031
G1 X68.022 Y68.432 E9.83250
G1 X68.342 Y68.515 F7200.000
G1 X68.516 Y68.342 F2520.000 E9.83969
G1 X68.627 Y68.295 E9.84322
G1 X81.373 Y68.295 E10.21583
G1 X81.484 Y68.342 E10.21936
G1 X81.658 Y68.515 E10.22655
G1 X81.704 Y68.627 E10.23007
G1 X81.704 Y81.373 E10.60270
G1 X81.658 Y81.485 E10.60622
G1 X81.484 Y81.658 E10.61341
G1 X81.373 Y81.705 E10.61694
G1 X68.627 Y81.705 E10.98956
G1 X68.516 Y81.658 E10.99308
G1 X68.342 Y81.485 E11.00027
G1 X68.296 Y81.373 E11.00379
G1 X68.296 Y68.627 E11.37642
G1 X68.324 Y68.557 E11.37862
G1 X68.599 Y68.776 F7200.000
G1 X68.776 Y68.598 F2520.000 E11.38595
G1 X81.224 Y68.598 E11.74986
G1 X81.401 Y68.776 E11.75720
G1 X81.401 Y81.224 E12.12112
G1 X81.224 Y81.402 E12.12846
G1 X68.776 Y81.402 E12.49237
G1 X68.599 Y81.224 E12.49970
G1 X68.599 Y68.821 E12.86230
G1 X68.901 Y68.901 F7200.000
G1 X81.099 Y68.901 F2160.000 E13.21887
G1 X81.099 Y81.099 E13.57546
G1 X68.901 Y81.099 E13.93203
G1 X68.901 Y68.947 E14.28729
G1 X69.164 Y69.053 F7200.000
G1 X69.204 Y80.796
G1 X69.204 Y69.204 F2520.000 E14.62617
G1 X80.796 Y69.204 E14.96504
G1 X80.796 Y80.796 E15.30392
G1 X69.250 Y80.796 E15.64146
G1 X69.507 Y80.493 F7200.000
G1 X69.507 Y69.507 F2520.000 E15.96263
G1 X80.493 Y69.507 E16.28378
G1 X80.493 Y80.493 E16.60495
G1 X69.553 Y80.493 E16.92478
G1 X69.925 Y80.274 F7200.000
G1 X69.727 Y80.075 F2340.000 E16.93305
G1 X69.727 Y79.644 E16.94574
G1 X70.357 Y80.274 E16.97196
G1 X70.788 Y80.274 E16.98464
G1 X69.727 Y79.213 E17.02880
G1 X69.727 Y78.781 E17.04149
G1 X71.219 Y80.274 E17.10360
G1 X71.650 Y80.274 E17.11628
G1 X69.727 Y78.350 E17.19633
G1 X69.727 Y77.919 E17.20902
G1 X72.081 Y80.274 E17.30701
G1 X72.512 Y80.274 E17.31970
G1 X69.727 Y77.488 E17.43564
G1 X69.727 Y77.057 E17.44833
G1 X72.944 Y80.274 E17.58221
G1 X73.375 Y80.274 E17.59490
G1 X69.727 Y76.625 E17.74672
G1 X69.727 Y76.194 E17.75941
G1 X73.806 Y80.274 E17.92918
G1 X74.237 Y80.274 E17.94187
G1 X69.727 Y75.763 E18.12958
G1 X69.727 Y75.332 E18.14227
G1 X74.668 Y80.274 E18.34793
G1 X75.099 Y80.274 E18.36062
G1 X69.727 Y74.901 E18.58422
G1 X69.727 Y74.470 E18.59691
G1 X75.531 Y80.274 E18.83845
G1 X75.962 Y80.274 E18.85114
G1 X69.727 Y74.038 E19.11063
G1 X69.727 Y73.607 E19.12332
G1 X76.393 Y80.274 E19.40076
G1 X76.824 Y80.274 E19.41345
G1 X69.727 Y73.176 E19.70883
G1 X69.727 Y72.745 E19.72151
G1 X77.255 Y80.274 E20.03484
G1 X77.686 Y80.274 E20.04753
G1 X69.727 Y72.314 E20.37879
G1 X69.727 Y71.883 E20.39148
G1 X78.118 Y80.274 E20.74070
G1 X78.549 Y80.274 E20.75338
G1 X69.727 Y71.451 E21.12054
G1 X69.727 Y71.020 E21.13323
G1 X78.980 Y80.274 E21.51833
G1 X79.411 Y80.274 E21.53102
G1 X69.727 Y70.589 E21.93407
G1 X69.727 Y70.158 E21.94675
G1 X79.842 Y80.274 E22.36774
G1 X80.273 Y80.273 E22.38043
G1 X69.727 Y69.727 E22.81936
G1 X70.157 Y69.726 E22.83203
G1 X80.273 Y79.842 E23.25303
G1 X80.273 Y79.411 E23.26572
G1 X70.589 Y69.726 E23.66877
G1 X71.020 Y69.726 E23.68146
G1 X80.273 Y78.980 E24.06657
G1 X80.273 Y78.549 E24.07926
G1 X71.451 Y69.726 E24.44643
G1 X71.882 Y69.726 E24.45911
G1 X80.273 Y78.118 E24.80834
G1 X80.273 Y77.686 E24.82102
G1 X72.313 Y69.726 E25.15230
G1 X72.745 Y69.726 E25.16499
G1 X80.273 Y77.255 E25.47832
G1 X80.273 Y76.824 E25.49101
G1 X73.176 Y69.726 E25.78640
G1 X73.607 Y69.726 E25.79909
G1 X80.273 Y76.393 E26.07653
G1 X80.273 Y75.962 E26.08922
G1 X74.038 Y69.726 E26.34872
G1 X74.469 Y69.726 E26.36141
G1 X80.273 Y75.531 E26.60296
G1 X80.273 Y75.099 E26.61565
G1 X74.900 Y69.726 E26.83926
G1 X75.332 Y69.726 E26.85195
G1 X80.273 Y74.668 E27.05761
G1 X80.273 Y74.237 E27.07030
G1 X75.763 Y69.726 E27.25802
G1 X76.194 Y69.726 E27.27071
G1 X80.273 Y73.806 E27.44049
G1 X80.273 Y73.375 E27.45318
G1 X76.625 Y69.726 E27.60501
G1 X77.056 Y69.726 E27.61770
G1 X80.273 Y72.944 E27.75159
G1 X80.273 Y72.512 E27.76428
G1 X77.487 Y69.726 E27.88022
G1 X77.919 Y69.726 E27.89291
G1 X80.273 Y72.081 E27.99091
G1 X80.273 Y71.650 E28.00360
G1 X78.350 Y69.726 E28.08365
G1 X78.781 Y69.726 E28.09634
G1 X80.273 Y71.219 E28.15845
G1 X80.273 Y70.788 E28.17114
G1 X79.212 Y69.726 E28.21531
G1 X79.643 Y69.726 E28.22800
G1 X80.273 Y70.356 E28.25422
G1 X80.273 Y69.925 E28.26691
G1 X80.074 Y69.726 E28.27519
M106 S250
G1 F1800.000 E27.27519
G92 E0
G1 Z0.500 F7200.000
G1 X81.250 Y66.670
G1 F1800.000 E1.20000
G1 X82.050 Y66.830 F4200.000 E1.22385
G1 X82.720 Y67.280 E1.24745
G1 X83.170 Y67.950 E1.27104
G1 X83.330 Y68.750 E1.29489
G1 X83.330 Y81.250 E1.66032
G1 X83.170 Y82.050 E1.68417
G1 X82.720 Y82.720 E1.70776
G1 X82.050 Y83.170 E1.73136
G1 X81.250 Y83.330 E1.75521
G1 X68.750 Y83.330 E2.12064
G1 X67.950 Y83.170 E2.14449
G1 X67.280 Y82.720 E2.16808
G1 X66.830 Y82.050 E2.19168
G1 X66.670 Y81.250 E2.21553
G1 X66.670 Y68.750 E2.58096
G1 X66.830 Y67.950 E2.60481
G1 X67.280 Y67.280 E2.62840
G1 X67.950 Y66.830 E2.65200
G1 X68.750 Y66.670 E2.67585
G1 X81.205 Y66.670 E3.03995
G1 X81.250 Y66.970 F7200.000
G1 X81.930 Y67.110 F4200.000 E3.06024
G1 X82.510 Y67.490 E3.08052
G1 X82.890 Y68.070 E3.10079
G1 X83.030 Y68.750 E3.12108
G1 X83.030 Y81.250 E3.48651
G1 X82.890 Y81.930 E3.50681
G1 X82.510 Y82.510 E3.52708
G1 X81.930 Y82.890 E3.54735
G1 X81.250 Y83.030 E3.56765
G1 X68.750 Y83.030 E3.93307
G1 X68.070 Y82.890 E3.95337
G1 X67.490 Y82.510 E3.97364
G1 X67.110 Y81.930 E3.99391
G1 X66.970 Y81.250 E4.01421
G1 X66.970 Y68.750 E4.37964
G1 X67.110 Y68.070 E4.39993
G1 X67.490 Y67.490 E4.42020
G1 X68.070 Y67.110 E4.44047
G1 X68.750 Y66.970 E4.46077
G1 X81.205 Y66.970 E4.82487
G1 X81.250 Y67.270 F7200.000
G1 X81.990 Y67.470 F4200.000 E4.84728
G1 X82.530 Y68.010 E4.86961
G1 X82.730 Y68.750 E4.89202
G1 X82.730 Y81.250 E5.25744
G1 X82.530 Y81.990 E5.27985
G1 X81.990 Y82.530 E5.30218
G1 X81.250 Y82.730 E5.32459
G1 X68.750 Y82.730 E5.69002
G1 X68.010 Y82.530 E5.71243
G1 X67.470 Y81.990 E5.73475
G1 X67.270 Y81.250 E5.75716
G1 X67.270 Y68.750 E6.12259
G1 X67.470 Y68.010 E6.14500
G1 X68.010 Y67.470 E6.16732
G1 X68.750 Y67.270 E6.18973
G1 X81.205 Y67.270 E6.55383
G1 X81.250 Y67.580 F7200.000
G1 X81.840 Y67.730 F4200.000 E6.57163
G1 X82.270 Y68.160 E6.58941
G1 X82.420 Y68.750 E6.60721
G1 X82.420 Y81.250 E6.97263
G1 X82.270 Y81.840 E6.99043
G1 X81.840 Y82.270 E7.00821
G1 X81.250 Y82.420 E7.02601
G1 X68.750 Y82.420 E7.39143
G1 X68.160 Y82.270 E7.40923
G1 X67.730 Y81.840 E7.42701
G1 X67.580 Y81.250 E7.44481
G1 X67.580 Y68.750 E7.81023
G1 X67.730 Y68.160 E7.82803
G1 X68.160 Y67.730 E7.84581
G1 X68.750 Y67.580 E7.86361
G1 X81.205 Y67.580 E8.22771
G1 F1800.000 E7.22771
G92 E0
G1 X80.493 Y69.507 F7200.000
G1 F1800.000 E1.20000
G1 X80.493 Y80.493 F4200.000 E1.52117
G1 X69.507 Y80.493 E1.84233
G1 X69.507 Y69.507 E2.16350
G1 X80.447 Y69.507 E2.48333
G1 X69.204 Y80.796 F7200.000
G1 X69.204 Y69.204 F4200.000 E2.82221
G1 X80.796 Y69.204 E3.16107
G1 X80.796 Y80.796 E3.49995
G1 X69.250 Y80.796 E3.83749
G1 X68.901 Y81.099 F7200.000
G1 X68.901 Y68.901 F3600.000 E4.19408
G1 X81.099 Y68.901 E4.55065
G1 X81.099 Y81.099 E4.90724
G1 X68.947 Y81.099 E5.26249
G1 X69.053 Y80.837 F7200.000
G1 X69.727 Y69.929
G1 X69.929 Y69.726 F3900.000 E5.27091
G1 X70.360 Y69.726 E5.28360
G1 X69.727 Y70.360 E5.30998
G1 X69.727 Y70.791 E5.32267
G1 X70.792 Y69.726 E5.36698
G1 X71.223 Y69.726 E5.37967
G1 X69.727 Y71.222 E5.44193
G1 X69.727 Y71.654 E5.45462
G1 X71.654 Y69.726 E5.53483
G1 X72.085 Y69.726 E5.54752
G1 X69.727 Y72.085 E5.64567
G1 X69.727 Y72.516 E5.65836
G1 X72.516 Y69.726 E5.77445
G1 X72.947 Y69.726 E5.78714
G1 X69.727 Y72.947 E5.92118
G1 X69.727 Y73.378 E5.93387
G1 X73.379 Y69.726 E6.08585
G1 X73.810 Y69.726 E6.09854
G1 X69.727 Y73.809 E6.26847
G1 X69.727 Y74.241 E6.28116
G1 X74.241 Y69.726 E6.46903
G1 X74.672 Y69.726 E6.48172
G1 X69.727 Y74.672 E6.68753
G1 X69.727 Y75.103 E6.70022
G1 X75.103 Y69.726 E6.92398
G1 X75.534 Y69.726 E6.93667
G1 X69.727 Y75.534 E7.17838
G1 X69.727 Y75.965 E7.19106
G1 X75.966 Y69.726 E7.45071
G1 X76.397 Y69.726 E7.46340
G1 X69.727 Y76.397 E7.74100
G1 X69.727 Y76.828 E7.75369
G1 X76.828 Y69.726 E8.04922
G1 X77.259 Y69.726 E8.06191
G1 X69.727 Y77.259 E8.37539
G1 X69.727 Y77.690 E8.38808
G1 X77.690 Y69.726 E8.71951
G1 X78.121 Y69.726 E8.73220
G1 X69.727 Y78.121 E9.08157
G1 X69.727 Y78.552 E9.09426
G1 X78.553 Y69.726 E9.46157
G1 X78.984 Y69.726 E9.47426
G1 X69.727 Y78.984 E9.85952
G1 X69.727 Y79.415 E9.87221
G1 X79.415 Y69.726 E10.27542
G1 X79.846 Y69.726 E10.28810
G1 X69.727 Y79.846 E10.70925
G1 X69.730 Y80.274 E10.72184
G1 X80.273 Y69.730 E11.16062
G1 X80.273 Y70.162 E11.17331
G1 X70.161 Y80.274 E11.59415
G1 X70.592 Y80.274 E11.60684
G1 X80.273 Y70.593 E12.00973
G1 X80.273 Y71.024 E12.02242
G1 X71.024 Y80.274 E12.40737
G1 X71.455 Y80.274 E12.42006
G1 X80.273 Y71.455 E12.78707
G1 X80.273 Y71.886 E12.79976
G1 X71.886 Y80.274 E13.14882
G1 X72.317 Y80.274 E13.16151
G1 X80.273 Y72.317 E13.49263
G1 X80.273 Y72.749 E13.50531
G1 X72.748 Y80.274 E13.81849
G1 X73.179 Y80.274 E13.83118
G1 X80.273 Y73.180 E14.12641
G1 X80.273 Y73.611 E14.13909
G1 X73.611 Y80.274 E14.41638
G1 X74.042 Y80.274 E14.42907
G1 X80.273 Y74.042 E14.68841
G1 X80.273 Y74.473 E14.70110
G1 X74.473 Y80.274 E14.94249
G1 X74.904 Y80.274 E14.95518
G1 X80.273 Y74.904 E15.17863
G1 X80.273 Y75.336 E15.19132
G1 X75.335 Y80.274 E15.39683
G1 X75.767 Y80.274 E15.40952
G1 X80.273 Y75.767 E15.59708
G1 X80.273 Y76.198 E15.60977
G1 X76.198 Y80.274 E15.77939
G1 X76.629 Y80.274 E15.79208
G1 X80.273 Y76.629 E15.94375
G1 X80.273 Y77.060 E15.95644
G1 X77.060 Y80.274 E16.09017
G1 X77.491 Y80.274 E16.10286
G1 X80.273 Y77.491 E16.21865
G1 X80.273 Y77.923 E16.23133
G1 X77.922 Y80.274 E16.32918
G1 X78.354 Y80.274 E16.34186
G1 X80.273 Y78.354 E16.42176
G1 X80.273 Y78.785 E16.43445
G1 X78.785 Y80.274 E16.49640
G1 X79.216 Y80.274 E16.50909
G1 X80.273 Y79.216 E16.55310
G1 X80.273 Y79.647 E16.56579
G1 X79.647 Y80.274 E16.59185
G1 X80.078 Y80.274 E16.60454
G1 X80.273 Y80.078 E16.61266
M106 S251
G1 F1800.000 E15.61266
G92 E0
G1 Z0.750 F7200.000
G1 X83.330 Y81.250
G1 F1800.000 E1.20000
G1 X83.170 Y82.050 F4200.000 E1.22385
G1 X82.720 Y82.720 E1.24745
G1 X82.050 Y83.170 E1.27104
G1 X81.250 Y83.330 E1.29489
G1 X68.750 Y83.330 E1.66032
G1 X67.950 Y83.170 E1.68417
G1 X67.280 Y82.720 E1.70776
G1 X66.830 Y82.050 E1.73136
G1 X66.670 Y81.250 E1.75521
G1 X66.670 Y68.750 E2.12064
G1 X66.830 Y67.950 E2.14449
G1 X67.280 Y67.280 E2.16808
G1 X67.950 Y66.830 E2.19168
G1 X68.750 Y66.670 E2.21553
G1 X81.250 Y66.670 E2.58096
G1 X82.050 Y66.830 E2.60481
G1 X82.720 Y67.280 E2.62840
G1 X83.170 Y67.950 E2.65200
G1 X83.330 Y68.750 E2.67585
G1 X83.330 Y81.204 E3.03995
G1 X83.030 Y81.250 F7200.000
G1 X82.890 Y81.930 F4200.000 E3.06024
G1 X82.510 Y82.510 E3.08052
G1 X81.930 Y82.890 E3.10079
G1 X81.250 Y83.030 E3.12108
G1 X68.750 Y83.030 E3.48651
G1 X68.070 Y82.890 E3.50681
G1 X67.490 Y82.510 E3.52708
G1 X67.110 Y81.930 E3.54735
G1 X66.970 Y81.250 E3.56765
G1 X66.970 Y68.750 E3.93307
G1 X67.110 Y68.070 E3.95337
G1 X67.490 Y67.490 E3.97364
G1 X68.070 Y67.110 E3.99391
G1 X68.750 Y66.970 E4.01421
G1 X81.250 Y66.970 E4.37964
G1 X81.930 Y67.110 E4.39993
G1 X82.510 Y67.490 E4.42020
G1 X82.890 Y68.070 E4.44047
G1 X83.030 Y68.750 E4.46077
G1 X83.030 Y81.204 E4.82487
G1 X82.730 Y81.250 F7200.000
G1 X82.530 Y81.990 F4200.000 E4.84728
G1 X81.990 Y82.530 E4.86961
G1 X81.250 Y82.730 E4.89202
G1 X68.750 Y82.730 E5.25744
G1 X68.010 Y82.530 E5.27985
G1 X67.470 Y81.990 E5.30218
G1 X67.270 Y81.250 E5.32459
G1 X67.270 Y68.750 E5.69002
G1 X67.470 Y68.010 E5.71243
G1 X68.010 Y67.470 E5.73475
G1 X68.750 Y67.270 E5.75716
G1 X81.250 Y67.270 E6.12259
G1 X81.990 Y67.470 E6.14500
G1 X82.530 Y68.010 E6.16732
G1 X82.730 Y68.750 E6.18973
G1 X82.730 Y81.204 E6.55383
G1 X82.420 Y81.250 F7200.000
G1 X82.270 Y81.840 F4200.000 E6.57163
G1 X81.840 Y82.270 E6.58941
G1 X81.250 Y82.420 E6.60721
G1 X68.750 Y82.420 E6.97263
G1 X68.160 Y82.270 E6.99043
G1 X67.730 Y81.840 E7.00821
G1 X67.580 Y81.250 E7.02601
G1 X67.580 Y68.750 E7.39143
G1 X67.730 Y68.160 E7.40923
G1 X68.160 Y67.730 E7.42701
G1 X68.750 Y67.580 E7.44481
G1 X81.250 Y67.580 E7.81023
G1 X81.840 Y67.730 E7.82803
G1 X82.270 Y68.160 E7.84581
G1 X82.420 Y68.750 E7.86361
G1 X82.420 Y81.204 E8.22771
G1 F1800.000 E7.22771
G92 E0
G1 X80.493 Y80.493 F7200.000
G1 F1800.000 E1.20000
G1 X69.507 Y80.493 F4200.000 E1.52116
G1 X69.507 Y69.507 E1.84233
G1 X80.493 Y69.507 E2.16348
G1 X80.493 Y80.448 E2.48333
G1 X69.204 Y80.796 F7200.000
G1 X69.204 Y69.204 F4200.000 E2.82221
G1 X80.796 Y69.204 E3.16107
G1 X80.796 Y80.796 E3.49995
G1 X69.250 Y80.796 E3.83749
G1 X68.901 Y81.099 F7200.000
G1 X68.901 Y68.901 F3600.000 E4.19408
G1 X81.099 Y68.901 E4.55065
G1 X81.099 Y81.099 E4.90724
G1 X68.947 Y81.099 E5.26249
G1 X69.053 Y80.837 F7200.000
G1 X69.727 Y80.075
G1 X69.925 Y80.274 F3900.000 E5.27070
G1 X70.357 Y80.274 F7200.000
